/* XPM */
static char * collect_xpm[] = {
"64 64 1897 2",
"  	c #000000",
". 	c #FDF185",
"+ 	c #D7C263",
"@ 	c #DFBA72",
"# 	c #FBF286",
"$ 	c #F1E48D",
"% 	c #CFB16C",
"& 	c #EF9A2D",
"* 	c #F4AA28",
"= 	c #FEDB8E",
"- 	c #F7D272",
"; 	c #FBE861",
"> 	c #F4E481",
", 	c #EDDA81",
"' 	c #FDDB53",
") 	c #F8C232",
"! 	c #FCC83E",
"~ 	c #FCEF9B",
"{ 	c #F2DA77",
"] 	c #FAD546",
"^ 	c #F2C643",
"/ 	c #FBF082",
"( 	c #E4AC54",
"_ 	c #FDF187",
": 	c #FDE354",
"< 	c #F9C532",
"[ 	c #F3B72E",
"} 	c #F3CE5E",
"| 	c #C98233",
"1 	c #DF9952",
"2 	c #D3AF57",
"3 	c #EAD475",
"4 	c #F9E77B",
"5 	c #F9C441",
"6 	c #F9AF2A",
"7 	c #FADD5A",
"8 	c #FCE23F",
"9 	c #FCDE32",
"0 	c #FAF390",
"a 	c #FCE86F",
"b 	c #FAC534",
"c 	c #F8CC3B",
"d 	c #E18E2C",
"e 	c #F49C2F",
"f 	c #E18E3B",
"g 	c #D1B87C",
"h 	c #EEDC81",
"i 	c #F9D34A",
"j 	c #F4C040",
"k 	c #F88F1C",
"l 	c #FAC639",
"m 	c #FEE165",
"n 	c #FFA67C",
"o 	c #FBEC9C",
"p 	c #FBF188",
"q 	c #FADF5B",
"r 	c #F8C02E",
"s 	c #F9CE38",
"t 	c #F9C641",
"u 	c #FFAA55",
"v 	c #F6BA3C",
"w 	c #F7AD2C",
"x 	c #F6CF76",
"y 	c #F7E47A",
"z 	c #F7BD31",
"A 	c #FBBE3B",
"B 	c #FA9326",
"C 	c #FA941D",
"D 	c #FDD548",
"E 	c #FFD45A",
"F 	c #FBEF79",
"G 	c #FAEB72",
"H 	c #FBDE4F",
"I 	c #FAAF2C",
"J 	c #FAB632",
"K 	c #F5C239",
"L 	c #F8B833",
"M 	c #FBCB4F",
"N 	c #F7DE78",
"O 	c #DF9528",
"P 	c #FCED90",
"Q 	c #F6CA52",
"R 	c #FAC638",
"S 	c #FAA31F",
"T 	c #F8A42A",
"U 	c #FA7414",
"V 	c #FAA72C",
"W 	c #FDE257",
"X 	c #FFD173",
"Y 	c #D79843",
"Z 	c #FCD66E",
"` 	c #FCEA6A",
" .	c #F9D64E",
"..	c #F9C43D",
"+.	c #F89526",
"@.	c #F68821",
"#.	c #F7B232",
"$.	c #F9BB41",
"%.	c #FCD546",
"&.	c #F8DB62",
"*.	c #F2D76F",
"=.	c #FCF3A9",
"-.	c #FAE681",
";.	c #F7AE32",
">.	c #FDB42B",
",.	c #FA941C",
"'.	c #F87617",
").	c #F76113",
"!.	c #F9B842",
"~.	c #FCEF71",
"{.	c #FFFE98",
"].	c #E2BB4F",
"^.	c #F6C54B",
"/.	c #FFDA55",
"(.	c #FBDA4D",
"_.	c #F8B837",
":.	c #F98D25",
"<.	c #F96F19",
"[.	c #F86A13",
"}.	c #F8A429",
"|.	c #F4B538",
"1.	c #FAD242",
"2.	c #F9CB40",
"3.	c #F8DC66",
"4.	c #EA9C30",
"5.	c #E9BB46",
"6.	c #F4CB53",
"7.	c #E5C26B",
"8.	c #F9DF63",
"9.	c #EEBE48",
"0.	c #F79F22",
"a.	c #FCA424",
"b.	c #F86512",
"c.	c #F8480F",
"d.	c #F55B15",
"e.	c #F7C44D",
"f.	c #F6EC6E",
"g.	c #FFE985",
"h.	c #F4C858",
"i.	c #E8B451",
"j.	c #FBC94F",
"k.	c #FCDA4C",
"l.	c #F8C53E",
"m.	c #F89E2B",
"n.	c #FC771C",
"o.	c #FA560E",
"p.	c #FA5B10",
"q.	c #FB9321",
"r.	c #F9BE3A",
"s.	c #F8A431",
"t.	c #F9A22E",
"u.	c #F8CA53",
"v.	c #EEB64C",
"w.	c #FDAB30",
"x.	c #FAC93B",
"y.	c #F4B933",
"z.	c #F5D37D",
"A.	c #DF9F80",
"B.	c #FCCF4A",
"C.	c #F6B02F",
"D.	c #FCBE39",
"E.	c #FBA823",
"F.	c #F77B1E",
"G.	c #F73306",
"H.	c #F9320A",
"I.	c #F67F2F",
"J.	c #F9E36A",
"K.	c #FBF06C",
"L.	c #FFD476",
"M.	c #F7CA5B",
"N.	c #F8B437",
"O.	c #FBCF41",
"P.	c #FBC643",
"Q.	c #F39F32",
"R.	c #F57E22",
"S.	c #FB6316",
"T.	c #F94D0D",
"U.	c #FC6416",
"V.	c #F9751D",
"W.	c #F57120",
"X.	c #F75C17",
"Y.	c #F9781E",
"Z.	c #FAB435",
"`.	c #F8C242",
" +	c #FA8915",
".+	c #F8A320",
"++	c #F9C037",
"@+	c #D98324",
"#+	c #F5DF81",
"$+	c #FCEA8F",
"%+	c #F5BF46",
"&+	c #FCC13D",
"*+	c #F87E17",
"=+	c #FB8B15",
"-+	c #FAA430",
";+	c #F83607",
">+	c #FA3006",
",+	c #FB3B0B",
"'+	c #F39543",
")+	c #F9E15C",
"!+	c #FEF05D",
"~+	c #FFD95E",
"{+	c #FED569",
"]+	c #F9E06F",
"^+	c #FFB07B",
"/+	c #E07D45",
"(+	c #F0C163",
"_+	c #FEE689",
":+	c #F9C253",
"<+	c #CA7D23",
"[+	c #F4AB38",
"}+	c #FAD44A",
"|+	c #FBD848",
"1+	c #F5932C",
"2+	c #EF3F0E",
"3+	c #F12D09",
"4+	c #F9410C",
"5+	c #FB510E",
"6+	c #FC5816",
"7+	c #F74A11",
"8+	c #F7360B",
"9+	c #FA430E",
"0+	c #F86214",
"a+	c #FB9F2C",
"b+	c #FBBF3E",
"c+	c #F58417",
"d+	c #F6AF3A",
"e+	c #F8CF45",
"f+	c #F3BA3F",
"g+	c #FCC558",
"h+	c #F3D17B",
"i+	c #F4DA7D",
"j+	c #F3C049",
"k+	c #FBCA49",
"l+	c #F8B330",
"m+	c #FA9220",
"n+	c #F66D1F",
"o+	c #FD3507",
"p+	c #FC3707",
"q+	c #F93108",
"r+	c #F16721",
"s+	c #FAC841",
"t+	c #FDDF49",
"u+	c #FDD04C",
"v+	c #FEDB5B",
"w+	c #FCEE69",
"x+	c #F6D84E",
"y+	c #E58D3B",
"z+	c #E7B36C",
"A+	c #FAE281",
"B+	c #FBDA5A",
"C+	c #F8D766",
"D+	c #F9D865",
"E+	c #CE8F23",
"F+	c #F0B453",
"G+	c #F8D773",
"H+	c #F7DB57",
"I+	c #F8CB4E",
"J+	c #F47726",
"K+	c #F22E0A",
"L+	c #F42203",
"M+	c #FA3D0A",
"N+	c #FC4C0E",
"O+	c #F93F0B",
"P+	c #F93207",
"Q+	c #FD3409",
"R+	c #FD3D08",
"S+	c #FB5912",
"T+	c #FA8720",
"U+	c #FCB638",
"V+	c #F69A24",
"W+	c #F7D14D",
"X+	c #F6D252",
"Y+	c #F6C33C",
"Z+	c #FBD250",
"`+	c #EDAE4B",
" @	c #F6D895",
".@	c #F7E692",
"+@	c #F6BA4C",
"@@	c #F6A830",
"#@	c #F8A42D",
"$@	c #F9B62C",
"%@	c #F89018",
"&@	c #FAA541",
"*@	c #F7732B",
"=@	c #FA3305",
"-@	c #FB3108",
";@	c #F62B07",
">@	c #F45A15",
",@	c #F8C13B",
"'@	c #FBDC4C",
")@	c #F9D954",
"!@	c #ECBF37",
"~@	c #E9AB30",
"{@	c #F6D270",
"]@	c #EC923D",
"^@	c #EFAF59",
"/@	c #F0C95E",
"(@	c #EA9943",
"_@	c #F5B969",
":@	c #EA9A57",
"<@	c #FFCC66",
"[@	c #FDEA78",
"}@	c #F7CE54",
"|@	c #FBC53F",
"1@	c #F58A25",
"2@	c #F45A18",
"3@	c #F8340A",
"4@	c #FB3409",
"5@	c #FD3B09",
"6@	c #FC3608",
"7@	c #FD3A07",
"8@	c #FB3C06",
"9@	c #FC4209",
"0@	c #FA5D11",
"a@	c #FC811E",
"b@	c #F7841D",
"c@	c #F6B634",
"d@	c #F4BA2D",
"e@	c #FBCB45",
"f@	c #FDD755",
"g@	c #FFBD52",
"h@	c #F5D97D",
"i@	c #F5C64D",
"j@	c #F7B136",
"k@	c #F19429",
"l@	c #F69122",
"m@	c #F99F22",
"n@	c #F7AC3B",
"o@	c #F8A941",
"p@	c #F7711F",
"q@	c #FA3607",
"r@	c #F92C05",
"s@	c #F32B05",
"t@	c #F47620",
"u@	c #FAB836",
"v@	c #FBE769",
"w@	c #FFE181",
"x@	c #DF8739",
"y@	c #F1BD52",
"z@	c #F5D558",
"A@	c #FCEF72",
"B@	c #F7D34F",
"C@	c #F9D55B",
"D@	c #FDE05A",
"E@	c #FCE253",
"F@	c #F9C53B",
"G@	c #FAC440",
"H@	c #F6922D",
"I@	c #F34911",
"J@	c #FC3509",
"K@	c #FB3308",
"L@	c #FA3709",
"M@	c #F94F18",
"N@	c #F7652D",
"O@	c #F75C20",
"P@	c #FC420A",
"Q@	c #FC490E",
"R@	c #FD5B15",
"S@	c #F86613",
"T@	c #F98C1E",
"U@	c #F7A632",
"V@	c #FBC752",
"W@	c #FBD262",
"X@	c #FBB634",
"Y@	c #EEAA47",
"Z@	c #F8E28D",
"`@	c #F0CE66",
" #	c #EDB839",
".#	c #F7AF2B",
"+#	c #F8A22D",
"@#	c #F29C26",
"##	c #F79122",
"$#	c #F8A337",
"%#	c #F77919",
"&#	c #FC4109",
"*#	c #FC3508",
"=#	c #FA3209",
"-#	c #F33208",
";#	c #F68226",
">#	c #FABF38",
",#	c #FADA5D",
"'#	c #FDF48F",
")#	c #FFF4CF",
"!#	c #FCCC5E",
"~#	c #DD8836",
"{#	c #F4A334",
"]#	c #F2B93C",
"^#	c #FBE652",
"/#	c #FBE24D",
"(#	c #FACE42",
"_#	c #EBC44E",
":#	c #EDB46E",
"<#	c #FD9E64",
"[#	c #FCC261",
"}#	c #FCE758",
"|#	c #FBE44C",
"1#	c #FBD344",
"2#	c #F79A2E",
"3#	c #F6601A",
"4#	c #F8380B",
"5#	c #FA3009",
"6#	c #F93308",
"7#	c #FB3F10",
"8#	c #F93206",
"9#	c #FC3406",
"0#	c #FE3D0C",
"a#	c #FB4A0D",
"b#	c #F96918",
"c#	c #F67F1B",
"d#	c #F9AC44",
"e#	c #F5B958",
"f#	c #F49426",
"g#	c #FABC3A",
"h#	c #FBBF35",
"i#	c #DD8833",
"j#	c #F7CE6C",
"k#	c #F5C354",
"l#	c #F8BB32",
"m#	c #FABA2F",
"n#	c #F6B42B",
"o#	c #F6B436",
"p#	c #F7A33D",
"q#	c #F5962A",
"r#	c #FA8C21",
"s#	c #FA4D0D",
"t#	c #F92F06",
"u#	c #FA2E08",
"v#	c #F5340C",
"w#	c #F5AC3D",
"x#	c #FBD649",
"y#	c #FBEA6D",
"z#	c #FEF27B",
"A#	c #F7C164",
"B#	c #FBDE49",
"C#	c #F8B835",
"D#	c #F8CB39",
"E#	c #F6C833",
"F#	c #F4B335",
"G#	c #FDCB54",
"H#	c #F4B64D",
"I#	c #F6CE41",
"J#	c #F4B850",
"K#	c #FCDF77",
"L#	c #FBEA61",
"M#	c #FAD74F",
"N#	c #FBCA40",
"O#	c #F8A534",
"P#	c #F9641C",
"Q#	c #FB4B14",
"R#	c #F93C0C",
"S#	c #F8310B",
"T#	c #FA2A08",
"U#	c #FB2A06",
"V#	c #FB2D06",
"W#	c #FC3306",
"X#	c #F93B0C",
"Y#	c #F4803E",
"Z#	c #F69C37",
"`#	c #F9B446",
" $	c #F59B33",
".$	c #FA811F",
"+$	c #F9C159",
"@$	c #FAD266",
"#$	c #FCB554",
"$$	c #FAD084",
"%$	c #E69C35",
"&$	c #DD9430",
"*$	c #FDCB5B",
"=$	c #FAC03D",
"-$	c #F99A22",
";$	c #F8991C",
">$	c #FABA34",
",$	c #F7A12F",
"'$	c #F48C30",
")$	c #F89B32",
"!$	c #F68A28",
"~$	c #FA4A13",
"{$	c #FA2D05",
"]$	c #F52D08",
"^$	c #F14614",
"/$	c #F9B943",
"($	c #F6D448",
"_$	c #FCEE5D",
":$	c #FCE267",
"<$	c #FBD73C",
"[$	c #FB9E2C",
"}$	c #F8B42A",
"|$	c #FADD38",
"1$	c #F0C147",
"2$	c #FCE154",
"3$	c #F9C452",
"4$	c #FDBF58",
"5$	c #FFBF73",
"6$	c #FBEC76",
"7$	c #F8DA57",
"8$	c #F9CC49",
"9$	c #FCC13F",
"0$	c #F78D29",
"a$	c #F86B22",
"b$	c #F54210",
"c$	c #F82B09",
"d$	c #F62305",
"e$	c #F72405",
"f$	c #FA2E07",
"g$	c #FB3A09",
"h$	c #F76118",
"i$	c #F88D38",
"j$	c #F79034",
"k$	c #F7721F",
"l$	c #F6711C",
"m$	c #F7A63B",
"n$	c #FAC754",
"o$	c #F8D05E",
"p$	c #F8A033",
"q$	c #FEA242",
"r$	c #FEE299",
"s$	c #F8DA99",
"t$	c #F1AE3B",
"u$	c #F9DA57",
"v$	c #D2A54B",
"w$	c #FFC750",
"x$	c #F9C347",
"y$	c #F9952C",
"z$	c #F97A1B",
"A$	c #F77E18",
"B$	c #F98520",
"C$	c #FB7319",
"D$	c #FC6915",
"E$	c #F7580E",
"F$	c #FA440B",
"G$	c #F9350A",
"H$	c #F43C0C",
"I$	c #F5993A",
"J$	c #FAD448",
"K$	c #FBEE5A",
"L$	c #FCF377",
"M$	c #FFC787",
"N$	c #FBE865",
"O$	c #FAC22E",
"P$	c #F87019",
"Q$	c #FA9D22",
"R$	c #FAD743",
"S$	c #F9CB44",
"T$	c #FDE656",
"U$	c #FCD448",
"V$	c #F8C644",
"W$	c #FECA61",
"X$	c #FEED66",
"Y$	c #FAE863",
"Z$	c #F4BC41",
"`$	c #FBC842",
" %	c #F4A747",
".%	c #F4712C",
"+%	c #F73A0F",
"@%	c #F41E05",
"#%	c #F51E05",
"$%	c #F92B05",
"%%	c #FD3706",
"&%	c #FB3C08",
"*%	c #F8450B",
"=%	c #FA4E11",
"-%	c #FB6B1B",
";%	c #F88A25",
">%	c #FBA32E",
",%	c #F8A72D",
"'%	c #F5A32D",
")%	c #FABE37",
"!%	c #FCB92C",
"~%	c #F29525",
"{%	c #FAC35D",
"]%	c #ECB766",
"^%	c #FBCC6D",
"/%	c #FBEF9F",
"(%	c #F7D869",
"_%	c #F7B541",
":%	c #F7992E",
"<%	c #F58326",
"[%	c #F78038",
"}%	c #F7702E",
"|%	c #FA5A1A",
"1%	c #FB4008",
"2%	c #FC3F08",
"3%	c #FC3C07",
"4%	c #FC3F0C",
"5%	c #F55419",
"6%	c #F69832",
"7%	c #F8D854",
"8%	c #FCF57D",
"9%	c #FFF989",
"0%	c #FFE59E",
"a%	c #FBEE85",
"b%	c #FBD43F",
"c%	c #F67316",
"d%	c #FC5C0E",
"e%	c #FD901F",
"f%	c #FDCD42",
"g%	c #FFBA30",
"h%	c #FDE94B",
"i%	c #FCDF51",
"j%	c #FFFFFF",
"k%	c #FAEE64",
"l%	c #FCEC5A",
"m%	c #F4C046",
"n%	c #FBBE3E",
"o%	c #FA9B2F",
"p%	c #F45117",
"q%	c #F21E06",
"r%	c #F11203",
"s%	c #F61B04",
"t%	c #F82505",
"u%	c #FB2C07",
"v%	c #FB2E06",
"w%	c #FB2C05",
"x%	c #FC3709",
"y%	c #FA4F0F",
"z%	c #FA6419",
"A%	c #F86B1B",
"B%	c #F97C1F",
"C%	c #F69526",
"D%	c #FBA129",
"E%	c #FABA3E",
"F%	c #FBB62F",
"G%	c #F8931D",
"H%	c #F8AE6C",
"I%	c #FECD5F",
"J%	c #F8C241",
"K%	c #FBB533",
"L%	c #FA9F26",
"M%	c #FA831D",
"N%	c #F96B14",
"O%	c #FB5D10",
"P%	c #FB520D",
"Q%	c #FC410D",
"R%	c #FA3708",
"S%	c #FB3507",
"T%	c #F85311",
"U%	c #F79B39",
"V%	c #F9D955",
"W%	c #FCF262",
"X%	c #FEEF5C",
"Y%	c #FDF1A0",
"Z%	c #FCE373",
"`%	c #F99D20",
" &	c #FA4108",
".&	c #FA560D",
"+&	c #FD881B",
"@&	c #FCC83F",
"#&	c #FECE25",
"$&	c #FFD93B",
"%&	c #FFCB5C",
"&&	c #FCE657",
"*&	c #F7C23F",
"=&	c #FBB739",
"-&	c #F98C29",
";&	c #F65314",
">&	c #F62B09",
",&	c #F51F05",
"'&	c #F72104",
")&	c #F82205",
"!&	c #F92506",
"~&	c #FB3608",
"{&	c #FC440A",
"]&	c #FB5612",
"^&	c #FA6215",
"/&	c #F86716",
"(&	c #F98022",
"_&	c #F8A339",
":&	c #FABE52",
"<&	c #F8C65A",
"[&	c #F1A847",
"}&	c #EF8821",
"|&	c #E99334",
"1&	c #FDBE4E",
"2&	c #FA9D36",
"3&	c #F0A342",
"4&	c #F9BB44",
"5&	c #FCB431",
"6&	c #F6A932",
"7&	c #F5B031",
"8&	c #FAAC2F",
"9&	c #F7640D",
"0&	c #F94406",
"a&	c #F92E03",
"b&	c #F52405",
"c&	c #F41F03",
"d&	c #F52207",
"e&	c #F6300C",
"f&	c #F54611",
"g&	c #F38E33",
"h&	c #F8C641",
"i&	c #FCE752",
"j&	c #FAF29A",
"k&	c #FAC432",
"l&	c #F76A15",
"m&	c #F83B0B",
"n&	c #FC500D",
"o&	c #FC7716",
"p&	c #F9B634",
"q&	c #FECE50",
"r&	c #FFD34A",
"s&	c #FDE851",
"t&	c #FDE250",
"u&	c #FAD750",
"v&	c #F5B83D",
"w&	c #FCAF36",
"x&	c #F98021",
"y&	c #FA5315",
"z&	c #F62106",
"A&	c #F61E03",
"B&	c #F92204",
"C&	c #FB2F07",
"D&	c #FD3707",
"E&	c #FC3906",
"F&	c #FB450C",
"G&	c #F95C14",
"H&	c #F8701C",
"I&	c #FB8525",
"J&	c #FA8124",
"K&	c #F8821B",
"L&	c #F79A33",
"M&	c #F8B736",
"N&	c #FCB92F",
"O&	c #F9A527",
"P&	c #EFEFEF",
"Q&	c #FBED5D",
"R&	c #F0C045",
"S&	c #CA6008",
"T&	c #D87730",
"U&	c #FBC95A",
"V&	c #F7C747",
"W&	c #F4B845",
"X&	c #F6AA44",
"Y&	c #F4AE46",
"Z&	c #F8AC30",
"`&	c #FB9D25",
" *	c #F77B1B",
".*	c #F75310",
"+*	c #F63A0A",
"@*	c #F12F08",
"#*	c #F52F0C",
"$*	c #F52B08",
"%*	c #F62F08",
"&*	c #F44814",
"**	c #F37920",
"=*	c #FACB3E",
"-*	c #FCDC71",
";*	c #FA9C24",
">*	c #F95F15",
",*	c #F5340A",
"'*	c #F86313",
")*	c #F8881F",
"!*	c #FCE44C",
"~*	c #FCE850",
"{*	c #F9D94C",
"]*	c #F9BB40",
"^*	c #F99C2F",
"/*	c #F8731D",
"(*	c #F73808",
"_*	c #F62204",
":*	c #F51D04",
"<*	c #F92207",
"[*	c #FA2906",
"}*	c #FA3A0B",
"|*	c #FA4B12",
"1*	c #FB430F",
"2*	c #FB400C",
"3*	c #F75917",
"4*	c #F8741E",
"5*	c #F88F26",
"6*	c #FAA631",
"7*	c #FAC247",
"8*	c #FCD45B",
"9*	c #F9DF7A",
"0*	c #FCEC83",
"a*	c #FBE670",
"b*	c #FBD145",
"c*	c #F9B52A",
"d*	c #F7D239",
"e*	c #E9962F",
"f*	c #F9BD4E",
"g*	c #F2C551",
"h*	c #FACC41",
"i*	c #F8AF31",
"j*	c #F9A329",
"k*	c #FA8A20",
"l*	c #F86E16",
"m*	c #F94D11",
"n*	c #F72C04",
"o*	c #F82605",
"p*	c #F41F06",
"q*	c #F35012",
"r*	c #F89126",
"s*	c #F9B93F",
"t*	c #F77F18",
"u*	c #FB4F12",
"v*	c #F62C07",
"w*	c #F52C07",
"x*	c #F63B07",
"y*	c #F68737",
"z*	c #F78626",
"A*	c #F9A73A",
"B*	c #F79131",
"C*	c #F86119",
"D*	c #FA440D",
"E*	c #F9360A",
"F*	c #FB2F06",
"G*	c #FA370A",
"H*	c #FA4910",
"I*	c #FA5213",
"J*	c #F94F11",
"K*	c #FA400C",
"L*	c #FB3909",
"M*	c #F95010",
"N*	c #F86D1A",
"O*	c #FA9124",
"P*	c #FCB235",
"Q*	c #FCC441",
"R*	c #FBC941",
"S*	c #FACD3D",
"T*	c #F9D541",
"U*	c #FBD847",
"V*	c #F9CF54",
"W*	c #F1C255",
"X*	c #D28332",
"Y*	c #F3B661",
"Z*	c #FFB85C",
"`*	c #C94615",
" =	c #F3761C",
".=	c #F4983A",
"+=	c #F8C85D",
"@=	c #F8D14A",
"#=	c #FAA92D",
"$=	c #F9550F",
"%=	c #FB3906",
"&=	c #FC3006",
"*=	c #FA2C06",
"==	c #F72305",
"-=	c #F31604",
";=	c #F23008",
">=	c #F55C12",
",=	c #FB9D2A",
"'=	c #F97913",
")=	c #F93F0C",
"!=	c #F52806",
"~=	c #F31A05",
"{=	c #F72806",
"]=	c #F63B0A",
"^=	c #F27731",
"/=	c #F95610",
"(=	c #F8480D",
"_=	c #F5370A",
":=	c #F42F0C",
"<=	c #F52706",
"[=	c #F52105",
"}=	c #F72003",
"|=	c #F72204",
"1=	c #FA2404",
"2=	c #F92904",
"3=	c #FD3208",
"4=	c #FE3608",
"5=	c #FE3809",
"6=	c #FB460B",
"7=	c #FD590F",
"8=	c #F95F10",
"9=	c #FA7418",
"0=	c #FB9925",
"a=	c #FAA926",
"b=	c #F7B231",
"c=	c #F8BC45",
"d=	c #F7BD4A",
"e=	c #F6B945",
"f=	c #F9CD57",
"g=	c #FBE46F",
"h=	c #F6D177",
"i=	c #F8DC97",
"j=	c #C67B41",
"k=	c #CA3709",
"l=	c #EF8021",
"m=	c #F5B23C",
"n=	c #FCD35D",
"o=	c #F49D3B",
"p=	c #F57F21",
"q=	c #F46719",
"r=	c #F95012",
"s=	c #FD3C09",
"t=	c #FB3808",
"u=	c #FD3508",
"v=	c #F62405",
"w=	c #F82407",
"x=	c #F02304",
"y=	c #FA3E0A",
"z=	c #F96115",
"A=	c #F85B11",
"B=	c #F92905",
"C=	c #F31703",
"D=	c #F31B03",
"E=	c #F72604",
"F=	c #F84916",
"G=	c #FB490F",
"H=	c #F83106",
"I=	c #F72F08",
"J=	c #F62707",
"K=	c #F92606",
"L=	c #F82604",
"M=	c #F92805",
"N=	c #FC2B06",
"O=	c #FC2F06",
"P=	c #FE2F06",
"Q=	c #FD3107",
"R=	c #FE3507",
"S=	c #FF3607",
"T=	c #FE3708",
"U=	c #FD3909",
"V=	c #FA5611",
"W=	c #F87F24",
"X=	c #F98B25",
"Y=	c #FA9F2E",
"Z=	c #FBC044",
"`=	c #FAC94F",
" -	c #FCE076",
".-	c #FCE58D",
"+-	c #FDEE8D",
"@-	c #FBE185",
"#-	c #F4CB86",
"$-	c #CD7032",
"%-	c #FCBE5B",
"&-	c #F7B838",
"*-	c #F9A42C",
"=-	c #F76E17",
"--	c #F85713",
";-	c #FC4008",
">-	c #FB3A08",
",-	c #FD3309",
"'-	c #FB3107",
")-	c #F42205",
"!-	c #F62C08",
"~-	c #F93707",
"{-	c #FB4007",
"]-	c #FD400A",
"^-	c #FB2C06",
"/-	c #F72207",
"(-	c #EF1602",
"_-	c #F52705",
":-	c #FB370B",
"<-	c #FA2F06",
"[-	c #F92F0A",
"}-	c #FA2809",
"|-	c #F82A06",
"1-	c #FA2B07",
"2-	c #FC3007",
"3-	c #FD3209",
"4-	c #FC3107",
"5-	c #FB3A06",
"6-	c #FA3905",
"7-	c #FC3607",
"8-	c #F94911",
"9-	c #F96D22",
"0-	c #FA691A",
"a-	c #FB6F1C",
"b-	c #FA751E",
"c-	c #F97F21",
"d-	c #F99E30",
"e-	c #F7C451",
"f-	c #FBDE61",
"g-	c #FCE875",
"h-	c #FCD77E",
"i-	c #EC8451",
"j-	c #F69251",
"k-	c #F8A94C",
"l-	c #EE9829",
"m-	c #F68A1E",
"n-	c #FB9022",
"o-	c #FA7C1D",
"p-	c #FA580F",
"q-	c #FA5B0F",
"r-	c #F95612",
"s-	c #FB4308",
"t-	c #FE3F0A",
"u-	c #F93006",
"v-	c #F22404",
"w-	c #F2391B",
"x-	c #F63612",
"y-	c #FB2D05",
"z-	c #F01501",
"A-	c #F21704",
"B-	c #F51F03",
"C-	c #FA2C07",
"D-	c #FC2E07",
"E-	c #F62D06",
"F-	c #FA5112",
"G-	c #FB4910",
"H-	c #FD3608",
"I-	c #FC3D0A",
"J-	c #FA4A0E",
"K-	c #FA4B0E",
"L-	c #FB420A",
"M-	c #F76117",
"N-	c #F6952F",
"O-	c #F5B442",
"P-	c #FAC14D",
"Q-	c #FDC955",
"R-	c #FED360",
"S-	c #FDDD6F",
"T-	c #FCD46F",
"U-	c #FFBF9F",
"V-	c #F7CA65",
"W-	c #F4B85B",
"X-	c #F49B31",
"Y-	c #F69C24",
"Z-	c #FAA629",
"`-	c #F87919",
" ;	c #FA8420",
".;	c #F78425",
"+;	c #F67218",
"@;	c #FA6B1B",
"#;	c #FB4808",
"$;	c #FC3D08",
"%;	c #F6380E",
"&;	c #EE2609",
"*;	c #EE5842",
"=;	c #F43010",
"-;	c #F72906",
";;	c #F42004",
">;	c #F01503",
",;	c #EE1103",
"';	c #F12306",
");	c #FA2B05",
"!;	c #FC3307",
"~;	c #FA430A",
"{;	c #FB4C0D",
"];	c #FA5B14",
"^;	c #FA681A",
"/;	c #FB4E0F",
"(;	c #FA510F",
"_;	c #FA530F",
":;	c #F74E0F",
"<;	c #F9832A",
"[;	c #F68B29",
"};	c #F88C22",
"|;	c #F7A22A",
"1;	c #F9B62D",
"2;	c #F8AE19",
"3;	c #F9DA70",
"4;	c #E3A84C",
"5;	c #C78841",
"6;	c #D38537",
"7;	c #F7963B",
"8;	c #F9B04B",
"9;	c #FBAF2F",
"0;	c #F89A25",
"a;	c #F79B27",
"b;	c #F8A630",
"c;	c #F8791B",
"d;	c #FD6A18",
"e;	c #F8470A",
"f;	c #F85E1B",
"g;	c #F43707",
"h;	c #EC2915",
"i;	c #EF422D",
"j;	c #F31E02",
"k;	c #F51E04",
"l;	c #EF1402",
"m;	c #EE1303",
"n;	c #F1280F",
"o;	c #F82C07",
"p;	c #FD3806",
"q;	c #FA5410",
"r;	c #F96F17",
"s;	c #FB6B15",
"t;	c #FB6516",
"u;	c #FA5E10",
"v;	c #FA4F0A",
"w;	c #FD410B",
"x;	c #FB4A0A",
"y;	c #FA6F19",
"z;	c #FB781C",
"A;	c #F98925",
"B;	c #F6761D",
"C;	c #F9922F",
"D;	c #F9B848",
"E;	c #F7C254",
"F;	c #F8D862",
"G;	c #FCD55A",
"H;	c #FBAF59",
"I;	c #FFBD9D",
"J;	c #F9C055",
"K;	c #F6BC37",
"L;	c #F9B837",
"M;	c #F4A125",
"N;	c #F9B333",
"O;	c #F5A22D",
"P;	c #F78E1F",
"Q;	c #F8851F",
"R;	c #F5741A",
"S;	c #FB530C",
"T;	c #F83E0A",
"U;	c #F02B0F",
"V;	c #EF1E06",
"W;	c #F01704",
"X;	c #ED1202",
"Y;	c #EE1706",
"Z;	c #F02608",
"`;	c #F73507",
" >	c #FB4A09",
".>	c #F97418",
"+>	c #FABB39",
"@>	c #F9B93B",
"#>	c #F89223",
"$>	c #FA861D",
"%>	c #F9871C",
"&>	c #FA5D0E",
"*>	c #FB5F14",
"=>	c #F96C13",
"->	c #F79B28",
";>	c #FC9826",
">>	c #FABA3B",
",>	c #FAB234",
"'>	c #FA951A",
")>	c #FE9036",
"!>	c #FFDF9B",
"~>	c #FABC73",
"{>	c #FCE066",
"]>	c #FDD55B",
"^>	c #F6AE31",
"/>	c #F2AB2E",
"(>	c #EE8F23",
"_>	c #F1BC4D",
":>	c #F8CA3C",
"<>	c #F9CB3C",
"[>	c #F7AC24",
"}>	c #F4B030",
"|>	c #F8B534",
"1>	c #F98E1F",
"2>	c #F76F1A",
"3>	c #F83B09",
"4>	c #F32405",
"5>	c #EE1101",
"6>	c #EE1002",
"7>	c #EB0D03",
"8>	c #F22B09",
"9>	c #FC4C0D",
"0>	c #FC6513",
"a>	c #FB8919",
"b>	c #FCC93A",
"c>	c #FCE750",
"d>	c #FBE34F",
"e>	c #FAC337",
"f>	c #F9A728",
"g>	c #F9911F",
"h>	c #FC861C",
"i>	c #FB851C",
"j>	c #F7831B",
"k>	c #F9B833",
"l>	c #FBB32E",
"m>	c #FBC740",
"n>	c #FBCD39",
"o>	c #FAA71E",
"p>	c #FF932A",
"q>	c #F7C257",
"r>	c #FDE06E",
"s>	c #EEAF3E",
"t>	c #FFAE6A",
"u>	c #ECAD40",
"v>	c #FCE368",
"w>	c #FCC031",
"x>	c #F8BC2B",
"y>	c #F4A728",
"z>	c #F7B630",
"A>	c #F9C63A",
"B>	c #F7AA2B",
"C>	c #F5B239",
"D>	c #F47A24",
"E>	c #F73006",
"F>	c #EB0D02",
"G>	c #EC0901",
"H>	c #F02105",
"I>	c #FB6116",
"J>	c #F78222",
"K>	c #FA8813",
"L>	c #FBAF27",
"M>	c #F9C93E",
"N>	c #FBEA65",
"O>	c #FCD74C",
"P>	c #FBB72C",
"Q>	c #FCB12E",
"R>	c #F9BF46",
"S>	c #F9B834",
"T>	c #FA9519",
"U>	c #F9AA31",
"V>	c #FCD447",
"W>	c #FBB632",
"X>	c #F3B338",
"Y>	c #FCC737",
"Z>	c #EF9918",
"`>	c #FCD564",
" ,	c #EFAE3D",
".,	c #F4B641",
"+,	c #FACD4B",
"@,	c #FAAF40",
"#,	c #FCBD3B",
"$,	c #FE9521",
"%,	c #FC9B2D",
"&,	c #FCC238",
"*,	c #F29D24",
"=,	c #F8A92D",
"-,	c #FDB630",
";,	c #F3A437",
">,	c #F8D772",
",,	c #F8460E",
"',	c #EE1501",
"),	c #EA0902",
"!,	c #ED0A03",
"~,	c #EE1704",
"{,	c #F66A1E",
"],	c #FBBA40",
"^,	c #F48418",
"/,	c #F18718",
"(,	c #F6981F",
"_,	c #FAC15F",
":,	c #FCDF6C",
"<,	c #F7BC38",
"[,	c #FABE38",
"},	c #F9CF61",
"|,	c #FBD959",
"1,	c #F8B331",
"2,	c #F78A17",
"3,	c #FBC543",
"4,	c #FAD044",
"5,	c #FCB52D",
"6,	c #FBAD34",
"7,	c #F9A221",
"8,	c #FBEB8D",
"9,	c #F9D465",
"0,	c #DD8A3B",
"a,	c #CD8641",
"b,	c #FED884",
"c,	c #FCE271",
"d,	c #FDB731",
"e,	c #F4B036",
"f,	c #FCE182",
"g,	c #F55D16",
"h,	c #F11903",
"i,	c #E90B02",
"j,	c #EC0E02",
"k,	c #F11705",
"l,	c #F03A0B",
"m,	c #FCB843",
"n,	c #F8C952",
"o,	c #F6A84E",
"p,	c #FCB043",
"q,	c #FEB741",
"r,	c #F69D2F",
"s,	c #FCE16C",
"t,	c #FBC940",
"u,	c #E99322",
"v,	c #FCB140",
"w,	c #FACA43",
"x,	c #FAC335",
"y,	c #FBB137",
"z,	c #EBC27E",
"A,	c #EDBA5B",
"B,	c #F9CE74",
"C,	c #FAE56F",
"D,	c #F8BF3B",
"E,	c #F8D052",
"F,	c #FCC04E",
"G,	c #F45514",
"H,	c #F52005",
"I,	c #EE1201",
"J,	c #F21904",
"K,	c #F63D0C",
"L,	c #FA972E",
"M,	c #FDDC62",
"N,	c #F39835",
"O,	c #FF9933",
"P,	c #FFA146",
"Q,	c #F4A954",
"R,	c #FACE6F",
"S,	c #F6944E",
"T,	c #FDD271",
"U,	c #F8D255",
"V,	c #F7751E",
"W,	c #F53505",
"X,	c #ED1001",
"Y,	c #F42007",
"Z,	c #F53506",
"`,	c #FB8F25",
" '	c #FBDC65",
".'	c #FDCC6B",
"+'	c #EB894E",
"@'	c #D8792E",
"#'	c #F7CC68",
"$'	c #F1C671",
"%'	c #DAB44F",
"&'	c #FDE778",
"*'	c #FFB77C",
"='	c #F6CA42",
"-'	c #F7C73E",
";'	c #FEE06F",
">'	c #FBB23E",
",'	c #F75812",
"''	c #F74914",
")'	c #F42708",
"!'	c #F11905",
"~'	c #F4411D",
"{'	c #F82706",
"]'	c #F82B05",
"^'	c #F9781F",
"/'	c #FAC551",
"('	c #FDE574",
"_'	c #F48819",
":'	c #D1711A",
"<'	c #F8DD6C",
"['	c #FCEB7F",
"}'	c #FFC783",
"|'	c #FAD178",
"1'	c #FBF044",
"2'	c #FDF158",
"3'	c #F6CE34",
"4'	c #CC9212",
"5'	c #EDAB22",
"6'	c #FCC54A",
"7'	c #F68722",
"8'	c #F87221",
"9'	c #F66427",
"0'	c #F42305",
"a'	c #F3532D",
"b'	c #F82D05",
"c'	c #FC3807",
"d'	c #FA5814",
"e'	c #FAA32F",
"f'	c #FBDB5F",
"g'	c #FDBA44",
"h'	c #F9E16B",
"i'	c #FDE06D",
"j'	c #FEED73",
"k'	c #FAD52B",
"l'	c #FAE420",
"m'	c #F2CE59",
"n'	c #FBF037",
"o'	c #F4CB1F",
"p'	c #FD9E37",
"q'	c #FCA32E",
"r'	c #F17D25",
"s'	c #F37A33",
"t'	c #F22B07",
"u'	c #F93009",
"v'	c #F93406",
"w'	c #F85D2B",
"x'	c #F8370A",
"y'	c #FA4A10",
"z'	c #FB3D07",
"A'	c #FA7B1C",
"B'	c #FAC33D",
"C'	c #FDD659",
"D'	c #FFA93D",
"E'	c #FFEB68",
"F'	c #FEF26B",
"G'	c #EFC23A",
"H'	c #FCCF5A",
"I'	c #FCEC78",
"J'	c #FDED3E",
"K'	c #F9EB39",
"L'	c #CB8617",
"M'	c #FCA229",
"N'	c #F58C22",
"O'	c #F6923C",
"P'	c #F34C18",
"Q'	c #F83609",
"R'	c #FC3F0A",
"S'	c #F95115",
"T'	c #F86C2C",
"U'	c #F45417",
"V'	c #F85614",
"W'	c #F9500E",
"X'	c #FB500E",
"Y'	c #FC9B24",
"Z'	c #FCD244",
"`'	c #E8A617",
" )	c #D08D29",
".)	c #FDCE56",
"+)	c #F9AD35",
"@)	c #F6A03D",
"#)	c #F68443",
"$)	c #F73D07",
"%)	c #FA4F11",
"&)	c #F26A1A",
"*)	c #F8832D",
"=)	c #F77028",
"-)	c #F64F0B",
";)	c #FC8223",
">)	c #FA4409",
",)	c #F96C16",
"')	c #FBAE2A",
"))	c #FBCD3C",
"!)	c #FCCC3A",
"~)	c #E36417",
"{)	c #EA7D20",
"])	c #FCBF68",
"^)	c #FBD054",
"/)	c #F7A22F",
"()	c #F8AD4C",
"_)	c #F64B0B",
":)	c #F8611A",
"<)	c #F9671B",
"[)	c #FB5D15",
"})	c #F38425",
"|)	c #F88C24",
"1)	c #F5883C",
"2)	c #F96916",
"3)	c #F67F21",
"4)	c #F97A1E",
"5)	c #FA6518",
"6)	c #F88A1E",
"7)	c #F9AB2D",
"8)	c #FAC938",
"9)	c #FDCB40",
"0)	c #FFAC4C",
"a)	c #E95512",
"b)	c #FAC92F",
"c)	c #FAEC51",
"d)	c #FBDC4D",
"e)	c #FFC062",
"f)	c #FFAE6B",
"g)	c #F7A837",
"h)	c #FBAD38",
"i)	c #F58E2D",
"j)	c #F76414",
"k)	c #FAA639",
"l)	c #F76615",
"m)	c #FC6C19",
"n)	c #F5AA38",
"o)	c #FC9427",
"p)	c #F5953D",
"q)	c #F8801A",
"r)	c #F5741C",
"s)	c #F7A736",
"t)	c #F67219",
"u)	c #F88320",
"v)	c #F7781A",
"w)	c #FCB32F",
"x)	c #FBB931",
"y)	c #FDCC3D",
"z)	c #FFB23B",
"A)	c #FBCE2F",
"B)	c #FDF46C",
"C)	c #FCF669",
"D)	c #F5BA2C",
"E)	c #FDC34A",
"F)	c #FDDE74",
"G)	c #F9BB4B",
"H)	c #F99E2A",
"I)	c #FAA62D",
"J)	c #F67F20",
"K)	c #FAA932",
"L)	c #F7A335",
"M)	c #FB791D",
"N)	c #FA861F",
"O)	c #F7BA3B",
"P)	c #FD9324",
"Q)	c #F5A83E",
"R)	c #F7831C",
"S)	c #FAAF2F",
"T)	c #F38A26",
"U)	c #F7B036",
"V)	c #F68826",
"W)	c #F68520",
"X)	c #F9B32F",
"Y)	c #FAAE2A",
"Z)	c #FCBE32",
"`)	c #FCA824",
" !	c #F1C841",
".!	c #FCE849",
"+!	c #F3B620",
"@!	c #FCD469",
"#!	c #F5BF54",
"$!	c #F79229",
"%!	c #FD9C29",
"&!	c #F9A229",
"*!	c #F79F27",
"=!	c #F8B73A",
"-!	c #FA9727",
";!	c #FA801B",
">!	c #FAAB33",
",!	c #F6B93C",
"'!	c #FB9A28",
")!	c #F8A236",
"!!	c #F7A634",
"~!	c #F7951C",
"{!	c #F9B130",
"]!	c #F6992E",
"^!	c #FAAC30",
"/!	c #F5771E",
"(!	c #F7922C",
"_!	c #F4992A",
":!	c #F9AC2A",
"<!	c #FAA525",
"[!	c #FABF33",
"}!	c #F8B52F",
"|!	c #FC9E21",
"1!	c #BEBD9E",
"2!	c #B09C7B",
"3!	c #FFA03C",
"4!	c #FACF54",
"5!	c #F9C04E",
"6!	c #F8A639",
"7!	c #F5821E",
"8!	c #FA9A23",
"9!	c #F8BB38",
"0!	c #F8BD34",
"a!	c #F7A62F",
"b!	c #F98B20",
"c!	c #F49D23",
"d!	c #FBBE35",
"e!	c #FDA437",
"f!	c #FCB73C",
"g!	c #F78721",
"h!	c #FAC63F",
"i!	c #F8830E",
"j!	c #F79D22",
"k!	c #F8B72F",
"l!	c #F8B232",
"m!	c #F28525",
"n!	c #F7A337",
"o!	c #F8A82D",
"p!	c #FA911B",
"q!	c #FAD846",
"r!	c #FACA3A",
"s!	c #FCB730",
"t!	c #EE831B",
"u!	c #8C5228",
"v!	c #784417",
"w!	c #FF962A",
"x!	c #FEAA28",
"y!	c #F5B431",
"z!	c #F9CE5A",
"A!	c #F59730",
"B!	c #F7A33E",
"C!	c #F77F15",
"D!	c #EA9A29",
"E!	c #F9D545",
"F!	c #FAB733",
"G!	c #FA9F2A",
"H!	c #EE841F",
"I!	c #F0C742",
"J!	c #F9A224",
"K!	c #FC7010",
"L!	c #FBDB51",
"M!	c #FA9D29",
"N!	c #FCB933",
"O!	c #FB8211",
"P!	c #F7A020",
"Q!	c #F9C438",
"R!	c #F8B22D",
"S!	c #FAB434",
"T!	c #F49A2D",
"U!	c #F7C543",
"V!	c #F7AA2F",
"W!	c #FD7E17",
"X!	c #F7931F",
"Y!	c #F9D044",
"Z!	c #EFB232",
"`!	c #F8BE36",
" ~	c #F6AA2A",
".~	c #8F502C",
"+~	c #844E20",
"@~	c #855324",
"#~	c #FAA21F",
"$~	c #FCAE27",
"%~	c #F2901B",
"&~	c #F6CC69",
"*~	c #F6AF49",
"=~	c #F37116",
"-~	c #EF962E",
";~	c #FB8A19",
">~	c #E2A33B",
",~	c #FAD042",
"'~	c #FBBA35",
")~	c #F88D1F",
"!~	c #D7922C",
"~~	c #FAD043",
"{~	c #FB880E",
"]~	c #FAD54C",
"^~	c #F88E18",
"/~	c #F6BD3A",
"(~	c #F8A11F",
"_~	c #FD9119",
":~	c #FA9119",
"<~	c #F9B930",
"[~	c #F7C13B",
"}~	c #F6A82E",
"|~	c #F8C642",
"1~	c #F5C03C",
"2~	c #FB8314",
"3~	c #F96D13",
"4~	c #F29A2B",
"5~	c #FBCA43",
"6~	c #F3A024",
"7~	c #FBB930",
"8~	c #F9B82F",
"9~	c #E96C1D",
"0~	c #A67B4C",
"a~	c #F39523",
"b~	c #FAB62E",
"c~	c #F4AF2C",
"d~	c #ED871D",
"e~	c #EC6B18",
"f~	c #F7CB61",
"g~	c #FC8C24",
"h~	c #FB901F",
"i~	c #DA9A3A",
"j~	c #F9CA3D",
"k~	c #FCB631",
"l~	c #D56818",
"m~	c #F7CD44",
"n~	c #FBA923",
"o~	c #FC7B11",
"p~	c #FDE058",
"q~	c #F9BD36",
"r~	c #E98D24",
"s~	c #F7AE2D",
"t~	c #FA9C19",
"u~	c #F89840",
"v~	c #F88C14",
"w~	c #FAC33B",
"x~	c #FAC93F",
"y~	c #FAC43B",
"z~	c #F8D749",
"A~	c #FC8014",
"B~	c #E85A10",
"C~	c #F67B19",
"D~	c #FAB334",
"E~	c #FAC541",
"F~	c #F5951B",
"G~	c #FDC234",
"H~	c #F4A82A",
"I~	c #ED6421",
"J~	c #F6B242",
"K~	c #F8B931",
"L~	c #F3B12F",
"M~	c #EC8525",
"N~	c #E45E19",
"O~	c #EAAA50",
"P~	c #FABB50",
"Q~	c #F56B16",
"R~	c #FCCC4A",
"S~	c #FAA52A",
"T~	c #D3852B",
"U~	c #E7BA44",
"V~	c #EB9025",
"W~	c #D9972C",
"X~	c #FBB633",
"Y~	c #FB8514",
"Z~	c #F57013",
"`~	c #E7A24B",
" {	c #F9CE42",
".{	c #F8BC34",
"+{	c #E58825",
"@{	c #FA9B21",
"#{	c #FA971C",
"${	c #F29921",
"%{	c #FCD648",
"&{	c #F9BA34",
"*{	c #FAC73D",
"={	c #FB8116",
"-{	c #F65C11",
";{	c #F08F2A",
">{	c #FB9529",
",{	c #F9AE2F",
"'{	c #FBAB46",
"){	c #FCB324",
"!{	c #FAC134",
"~{	c #F07D11",
"{{	c #D38C1B",
"]{	c #F9D933",
"^{	c #FBDD41",
"/{	c #FEB54D",
"({	c #F7CB69",
"_{	c #F7C03F",
":{	c #F3AA2E",
"<{	c #F89939",
"[{	c #E37023",
"}{	c #DB5917",
"|{	c #E6AC4F",
"1{	c #FBB33D",
"2{	c #F05F12",
"3{	c #F8B745",
"4{	c #F9C23C",
"5{	c #E68C2C",
"6{	c #E6AF40",
"7{	c #CF6212",
"8{	c #F7B538",
"9{	c #F97E18",
"0{	c #F66110",
"a{	c #ED9A2E",
"b{	c #F2B330",
"c{	c #F9AF2F",
"d{	c #F38720",
"e{	c #FB891C",
"f{	c #F4721C",
"g{	c #F6BB41",
"h{	c #F9C53D",
"i{	c #FCA62A",
"j{	c #FC7D14",
"k{	c #F75B10",
"l{	c #F3A232",
"m{	c #E7640C",
"n{	c #F0801E",
"o{	c #F79D47",
"p{	c #FEBF35",
"q{	c #F78619",
"r{	c #F78E2C",
"s{	c #F8DE54",
"t{	c #FDEA4E",
"u{	c #FDDB88",
"v{	c #F8CC56",
"w{	c #F19D2A",
"x{	c #F89B2F",
"y{	c #DC681D",
"z{	c #FF9C66",
"A{	c #FAC749",
"B{	c #F68322",
"C{	c #FCD14B",
"D{	c #F39C27",
"E{	c #E6A33A",
"F{	c #D35F16",
"G{	c #F6A42A",
"H{	c #F9640E",
"I{	c #E45C1D",
"J{	c #F6A728",
"K{	c #F79622",
"L{	c #F47115",
"M{	c #F76918",
"N{	c #E55515",
"O{	c #F99034",
"P{	c #F9BC3A",
"Q{	c #FB9B22",
"R{	c #FB7111",
"S{	c #F4500B",
"T{	c #F5AB3D",
"U{	c #F05D08",
"V{	c #F26616",
"W{	c #BC5226",
"X{	c #FEBC39",
"Y{	c #F97E17",
"Z{	c #E1AE2C",
"`{	c #F6DC58",
" ]	c #FEDE72",
".]	c #F69F30",
"+]	c #E0650E",
"@]	c #FB9F30",
"#]	c #E27526",
"$]	c #DC5A32",
"%]	c #F8DD55",
"&]	c #F3BE3E",
"*]	c #E88322",
"=]	c #EC942A",
"-]	c #F6A426",
";]	c #EEA731",
">]	c #DC651D",
",]	c #F6841D",
"']	c #F66413",
")]	c #DC6929",
"!]	c #F15E16",
"~]	c #DE551B",
"{]	c #DF581E",
"]]	c #D35711",
"^]	c #FB941F",
"/]	c #FA640E",
"(]	c #E38025",
"_]	c #F1A436",
":]	c #E65B16",
"<]	c #EE6213",
"[]	c #FF9D2E",
"}]	c #FCA92F",
"|]	c #F9670D",
"1]	c #D9901A",
"2]	c #EAB031",
"3]	c #F9C44B",
"4]	c #F68620",
"5]	c #F59438",
"6]	c #E67026",
"7]	c #C1521C",
"8]	c #F8E368",
"9]	c #EFC146",
"0]	c #E9AC42",
"a]	c #ED971C",
"b]	c #FBBF36",
"c]	c #D55517",
"d]	c #E85B1C",
"e]	c #FAC646",
"f]	c #F8B937",
"g]	c #F97E14",
"h]	c #EA510D",
"i]	c #F49838",
"j]	c #DC7B2B",
"k]	c #E0501A",
"l]	c #C7501A",
"m]	c #FD992B",
"n]	c #F47A19",
"o]	c #EA4708",
"p]	c #F9A137",
"q]	c #F88B27",
"r]	c #EF6923",
"s]	c #DF5B22",
"t]	c #C56A3A",
"u]	c #C6814B",
"v]	c #C86F2E",
"w]	c #E88B5D",
"x]	c #DC8716",
"y]	c #EE9F31",
"z]	c #D07125",
"A]	c #E75C17",
"B]	c #EE8C3B",
"C]	c #FCB239",
"D]	c #F87410",
"E]	c #F25911",
"F]	c #EB7C2D",
"G]	c #F1933E",
"H]	c #B74B1D",
"I]	c #C07337",
"J]	c #F97C20",
"K]	c #EC6A17",
"L]	c #D83E0B",
"M]	c #FACC2B",
"N]	c #F9E142",
"O]	c #F8A44C",
"P]	c #F8A238",
"Q]	c #E57922",
"R]	c #983D16",
"S]	c #9B4B24",
"T]	c #E18F39",
"U]	c #F6AF41",
"V]	c #EC9D2E",
"W]	c #F9982C",
"X]	c #FA891C",
"Y]	c #F35A0D",
"Z]	c #D2350E",
"`]	c #F07B31",
" ^	c #F08E35",
".^	c #F35910",
"+^	c #F16313",
"@^	c #F07214",
"#^	c #F1CE35",
"$^	c #FAE835",
"%^	c #F9D633",
"&^	c #DFA64B",
"*^	c #F9BD4C",
"=^	c #F7A733",
"-^	c #F17F1B",
";^	c #EB5C0C",
">^	c #F65011",
",^	c #EC4A16",
"'^	c #D64F1F",
")^	c #BE532A",
"!^	c #EEAD39",
"~^	c #F99B29",
"{^	c #FD882A",
"]^	c #FC851A",
"^^	c #F06310",
"/^	c #DF440B",
"(^	c #DB5220",
"_^	c #F15415",
":^	c #E8500E",
"<^	c #F4B448",
"[^	c #F89D30",
"}^	c #F98227",
"|^	c #F46B27",
"1^	c #CE4916",
"2^	c #F5A748",
"3^	c #F88122",
"4^	c #FC7B1C",
"5^	c #F56910",
"6^	c #D43705",
"7^	c #DA4814",
"8^	c #E74C13",
"9^	c #EC8D3B",
"0^	c #F88A2B",
"a^	c #F0560A",
"b^	c #FFA35E",
"c^	c #FA7D16",
"d^	c #F97A18",
"e^	c #D3562D",
"f^	c #E05B2E",
"g^	c #D8552E",
"h^	c #F66218",
"i^	c #EB6613",
"j^	c #CC3D0A",
"k^	c #F7811C",
"l^	c #ED7217",
"m^	c #AA5555",
"n^	c #E3521C",
"o^	c #EE4E0E",
"p^	c #ED8F42",
"q^	c #E1762F",
"r^	c #CA6B31",
"            . +                                                                                                                 ",
"          @ # $ %                                                                                                 & *           ",
"        = - ; > ,                                                                                               ' ) !           ",
"        ~ { ] ^ /                                                                                     (       _ : < [ } | 1     ",
"      2 3 4 5 6 7                                                                                   8 9     0 a b c d   e f     ",
"      g h i j k l m                                                                                 n   o p q r s t u v w       ",
"      x y z A B C D E                                                                                 F G H I J K L M N O       ",
"      P Q R S T U V W X                       Y                                                   Z `  ...+.@.#.$.%.&.*.        ",
"      =.-.;.>.,.'.).!.~.{.                  ].^.                                                /.(._.:.<.[.}.|.1.2.3.4.5.6.    ",
"      7.8.9.0.a.b.c.d.e.f.g.                h.i.                                            j.k.l.m.n.o.p.q.r.s.t.u.v.w.x.y.    ",
"    z.A.B.C.D.E.F.G.H.I.J.K.L.                    M.                                    N.O.P.Q.R.S.T.U.V.W.X.Y.Z.`. +.+++@+    ",
"    #+$+%+&+*+=+-+;+>+,+'+)+!+~+{+]+      ^+      /+(+_+                  :+<+      [+}+|+1+2+3+4+5+6+7+8+9+0+a+b+c+d+e+f+g+    ",
"    h+i+j+k+l+*+m+n+o+p+q+r+s+t+u+v+      w+x+      y+z+A+B+C+            D+E+  F+G+H+I+J+K+L+M+N+O+P+Q+R+S+T+U+V+W+X+Y+Z+`+    ",
"     @.@+@@@#@$@%@&@*@=@-@;@>@,@'@)@      !@~@      {@]@^@/@(@_@          :@  <@[@}@|@1@2@3@4@5@o+6@7@8@9@0@a@b@c@d@e@f@g@      ",
"      h@i@j@k@l@m@n@o@p@q@r@s@t@u@5 v@w@            x@y@z@A@B@C@              D@E@F@G@H@I@J@K@L@M@N@O@P@Q@R@S@T@U@V@W@X@Y@      ",
"      Z@`@ #.#+#@###$#%#&#*#=#-#;#>#,#'#)#      !#  ~#{#]#^#/#(#_#    :#<#  [#}#|#1#2#3#4#5#6#7#M+8#9#0#a#b#c#d#e#f#g#h#i#      ",
"        j#k#l#m#n#o#p#q#r#s#t#u#v#w#x#y#z#          A#B#C#D#E#F#G#  H#I#J#  K#L#M#N#O#P#Q#R#S#T#U#V#W#X#Y#Z#`# $.$+$@$#$  $$    ",
"    %$&$  *$=$-$;$>$,$'$)$!$~${$]$^$/$($_$          :$<$[$}$|$1$e+2$3$4$  5$6$7$8$9$0$a$b$c$d$e$f$g$h$i$j$k$l$m$n$o$p$q$r$s$    ",
"    t$u$v$  w$x$y$z$A$B$C$D$E$F$G$H$I$J$K$L$      M$N$O$P$Q$R$S$T$U$V$W$  X$Y$Z$`$ %.%+%@%#%$%9#%%&%*%=%-%;%>%,%'%)%!%~%        ",
"      {%]%^%/%(%_%:%<%[%}%|%1%2%3%4%5%6%7%8%9%  0%a%b%c%d%e%f%g%h%i%  j%k%l%m%n%o%p%q%r%s%t%u%v%w%x%y%z%A%B%C%D%E%F%G%H%        ",
"            I%J%K%L%M%N%O%P%Q%R%t#>+S%T%U%V%W%X%Y%Z%`% &.&+&@&  #&$&%&L#&&*&=&-&;&>&,&'&)&!&V#~&{&]&^&/&(&_&:&<&[&}&|&          ",
"        1&2&3&4&5&6&7&8&T@9&0&a&b&c&d&e&f&g&h&i&j&k&l&m&n&o&p&q&r&s&t&u&v&w&x&y&q+z&A&B&C&D&E&F&G&H&(&I&J&x&K&L&M&N&O&          ",
"    P&Q&R&S&T&U&V&W&X&Y&Z&`& *.*+*@*#*$*%*&***=*-*;*>*,*O+'*)*A !*~*{*]*^*/*(*_*:*<*[*}*|*1*2*3*4*5*6*7*8*9*0*a*b*c*            ",
"      d*e*          f*g*h*i*j*k*l*m*n*o*e$p*q*r*s*t*u*v*w*x*y*z*m.A*B*C*D*E*f$F*G*H*I*J*K*L*M*N*O*P*Q*R*S*T*U*V*W*X*Y*Z*        ",
"                  `* =.=+=@=#='.$=%=&=*===-=;=>=,='=)=!=~={=]=^=/=(=_=:=<=[=}=|=1=2=r@V#3=4=5=6=7=8=9=0=a=b=c=d=e=f=g=h=i=j=    ",
"                  k=l=m=n=o=p=q=r=s=t=u=v=w=x=y=z=A=&%B=C=D=E=F=G=H=I=J=K=o*L=M=N=O=P=Q=R=S=T=U=V=W=X=Y=Z=`= -.-+-@-    #-$-    ",
"                        %-&-*-5*=---;->-,-'-)-!-~-{-]-^-/-(-#%_-:-<-[-}-|-1-2-3-4-*#5-6-7-8-9-0-a-b-c-d-e-f-g-h-                ",
"                  i-  j-k-l-m-n-o-p-q-r-s-t-u-v-w-x-7-y-e$z-A-B-C-D-C-E-F-G-t=9#H-I-J-K-&#L-M-N-O-P-Q-R-S-T-U-                  ",
"                V-W-      X-Y-Z-`- ;.;+;@;#;$;%;&;*;=;-;;;>;,;';);!;>-~;{;];^;/;s=R+(;_;:;<;[;};|;1;2;        3;4;              ",
"                5;6;        7;8;9;0;a;b;c;d;e;f;g;h;i;j;k;l;m;n;o;p;q;r;s;t;u;v;w;x;y;z;A;B;C;D;E;F;G;H;                        ",
"                            I;J;K;L;M;N;O;P;Q;R;S;T;U;V;W;X;Y;Z;`; >.>+>@>#>$>%>&>*>=>->;>>>,>'>)>!>~>u                         ",
"                        {>]>  ^>/>(>_>:><>[>}>|>1>2>3>4>5>6>7>8>9>0>a>b>c>d>e>f>g>h>i>j>k>l>m>n>o>p>                            ",
"                      q>r>s>    t>u>v>w>x>y>z>A>B>C>D>E>X;F>G>H>I>J>K>L>M>N>O>P>Q>R>S>T>U>V>W>X>Y>Z>  `> ,                      ",
"                      .,+,        @,#,$,%,&,*,=,-,;,>,,,',),!,~,{,],^,/,(,_,:,<,[,},|,1,2,3,4,5,6,7,  8,9,                      ",
"                      0,a,              b,c,d,    e,f,g,h,i,j,k,l,m,n,      o,p,q,r,s,t,u,v,w,x,y,    z,A,                      ",
"                                        B,C,D,    E,F,G,H,F>I,J,K,L,M,                G#N,    O,P,Q,R,                          ",
"                                            S,  T,U,V,W,!=X,Y,p*Z,`, '.'    +'            @'#'$'  %'&'            *'            ",
"                              ='-'              ;'>',''')'!'~'{']'^'/'('    _':'            <'['      }'          |'            ",
"                            1'2'3'    4'5'      6'7'8'9'0'v=a'b'c'd'e'f'g'  s,h'                      i'j'                      ",
"                            k'l'O,  m'n'o'    p'q'r's't'u'v'w'x'y'z'A'B'C'D'E'F'G'                    H'I'                      ",
"                                    J'K'L'    M'N'O'P'Q'R'S'T'U'V'W'X'Y'Z'Z'                                                    ",
"                                    `' )    .)+)@)#)$)y&%)&)*)=)-);)>),)')))!)      ~){)                                        ",
"                                          ])^)/)()_):)<)[)})|)1)2)3)4)5)6)7)8)9)0)  a)b)c)d)                                    ",
"                                    e)  f)r>g)h)i)j)k)l)m)n)o)p)q)r)s)t)u)v)w)x)y)z)  A)B)C)D)                                  ",
"                                    E)  F)G)H)I)J)K)L)M)N)O)P)Q)R)S)T)U)F.V)W)X)Y)Z)`)O, !.!+!                                  ",
"                                      @!#!$!%!&!*!=!-!;!>!,!'!)!!!~!{!]!^!/!(!_!:!<![!}!|!        1!2!                          ",
"                                  3!4!5!6!7!8!9!0!a!b!c!d!e!f!g!h!i!j!k!l!P*m!n!o!p!N'q!r!s!t!  u!v!                            ",
"                              w!x!y!z!A!B!C!D!E!F!G!H!I!J!K!L!M!i*N!O!P!Q!R!S!T!U!V!W!X!Y!Z!`! ~.~+~@~                          ",
"                            #~$~%~&~*~=~-~;~>~,~'~)~!~~~{~  v+]~^~/~(~_~:~<~[~}~|~1~2~3~4~5~6~7~8~9~0~                          ",
"                        a~b~c~d~e~f~g~  @@h~i~j~k~l~m~n~o~    p~q~r~s~t~u~v~w~x~y~z~A~B~C~D~E~F~G~H~I~                          ",
"                    u J~K~L~M~N~O~P~Q~  R~S~T~U~V~W~X~Y~Z~    `~ {.{+{@{#{  ${%{&{*{={-{;{>{,{'{){!{~{                          ",
"            {{]{^{/{({_{:{<{[{}{|{1{2{  3{4{5{6{7{8{9{0{        a{b{c{d{e{f{  g{h{i{j{k{l{m{n{o{  p{q{                          ",
"          r{s{t{  u{v{w{  x{y{  z{A{B{    C{D{E{F{G{H{I{            J{K{L{M{N{O{P{Q{R{S{T{U{V{W{  X{Y{                          ",
"          Z{`{     ].]+]  @]#]$]  %]&]*]  =]-];]>],]']                )]!]~]{]]]! ^]/](]_]:]<]  []}]|]                          ",
"          1]2]    3]4]    5]6]7]  8]9]0]    a]b]@+c]d]                        e]f]g]h]i]j]k]l]  m]n]o]                          ",
"                  p]q]      r]s]t]j%u]v]w]    x]y]z]A]                      B]C]D]E]F]G]H]I]  J]K]L]    M]N]                    ",
"                  O]P]Q]          R]S]          T]U]V]                      W]X]Y]Z]`] ^  .^+^@^        #^$^%^&^                ",
"                    *^=^-^;^>^,^'^)^              !^~^                    {^]^^^/^      (^_^:^              j%                  ",
"                      <^[^}^|^1^                  2^3^                    4^5^6^        7^8^                                    ",
"                                                9^0^a^                  b^c^d^          e^f^                                    ",
"                                              g^h^i^j^                    k^l^j%                                                ",
"                                            m^n^o^                        p^q^r^                                                ",
"                                                                                                                                ",
"                                                                                                                                "};
