/* XPM */
static char * exit_xpm[] = {
"64 64 3226 2",
"  	c #000000",
". 	c #01000B",
"+ 	c #030013",
"@ 	c #05001F",
"# 	c #080027",
"$ 	c #0A002E",
"% 	c #0C0034",
"& 	c #0D0135",
"* 	c #0E0037",
"= 	c #0D0034",
"- 	c #0B0032",
"; 	c #09002B",
"> 	c #070024",
", 	c #04001A",
"' 	c #040019",
") 	c #05001E",
"! 	c #070026",
"~ 	c #10003F",
"{ 	c #160247",
"] 	c #19024C",
"^ 	c #1C0253",
"/ 	c #1E025B",
"( 	c #210261",
"_ 	c #230364",
": 	c #220361",
"< 	c #1F025A",
"[ 	c #1A0152",
"} 	c #150147",
"| 	c #10013C",
"1 	c #01000A",
"2 	c #070027",
"3 	c #0B002F",
"4 	c #0F0138",
"5 	c #140143",
"6 	c #19024D",
"7 	c #1D0256",
"8 	c #21035E",
"9 	c #26046A",
"0 	c #29046F",
"a 	c #2B0476",
"b 	c #2E047D",
"c 	c #300582",
"d 	c #320586",
"e 	c #330688",
"f 	c #330587",
"g 	c #320583",
"h 	c #2E057C",
"i 	c #280370",
"j 	c #21035F",
"k 	c #0E0137",
"l 	c #08002A",
"m 	c #060022",
"n 	c #020012",
"o 	c #05001D",
"p 	c #0A002F",
"q 	c #0E0135",
"r 	c #160244",
"s 	c #1B0251",
"t 	c #20025D",
"u 	c #240367",
"v 	c #2A0571",
"w 	c #2E077B",
"x 	c #310983",
"y 	c #360B8B",
"z 	c #380E92",
"A 	c #3B0E98",
"B 	c #3C0F9B",
"C 	c #3E0F9F",
"D 	c #3F10A0",
"E 	c #3F0EA1",
"F 	c #400CA1",
"G 	c #400CA2",
"H 	c #400DA3",
"I 	c #3F099E",
"J 	c #390793",
"K 	c #320685",
"L 	c #280470",
"M 	c #1D0358",
"N 	c #130143",
"O 	c #0C0033",
"P 	c #080029",
"Q 	c #030014",
"R 	c #070028",
"S 	c #0F0136",
"T 	c #170248",
"U 	c #230366",
"V 	c #2A0875",
"W 	c #300F83",
"X 	c #361A90",
"Y 	c #3C269B",
"Z 	c #4131A4",
"` 	c #473BAC",
" .	c #4E4AB4",
"..	c #5455BA",
"+.	c #585DBE",
"@.	c #5E65C1",
"#.	c #5F64C2",
"$.	c #5C5AC4",
"%.	c #594DC2",
"&.	c #553CC1",
"*.	c #502ABF",
"=.	c #4E1EBD",
"-.	c #4D1ABA",
";.	c #4B16B7",
">.	c #4A16B7",
",.	c #4712B0",
"'.	c #430EA6",
").	c #390B93",
"!.	c #2C077B",
"~.	c #20035E",
"{.	c #100138",
"].	c #010008",
"^.	c #030015",
"/.	c #070025",
"(.	c #0C0032",
"_.	c #150144",
":.	c #1C0254",
"<.	c #230563",
"[.	c #290A71",
"}.	c #31147E",
"|.	c #38208A",
"1.	c #3E2C95",
"2.	c #473BA3",
"3.	c #4E47AB",
"4.	c #5556B1",
"5.	c #5C64B9",
"6.	c #616EBD",
"7.	c #6679C3",
"8.	c #6A7FC5",
"9.	c #6D86C7",
"0.	c #6F8CC9",
"a.	c #7194CC",
"b.	c #739ACE",
"c.	c #719BD0",
"d.	c #719FD3",
"e.	c #698ED5",
"f.	c #646DD1",
"g.	c #5D47CE",
"h.	c #562DCB",
"i.	c #5425C8",
"j.	c #5221C5",
"k.	c #4F1BBD",
"l.	c #4716AF",
"m.	c #3B1399",
"n.	c #2D0D7D",
"o.	c #20035F",
"p.	c #18014B",
"q.	c #0C0131",
"r.	c #060023",
"s.	c #020014",
"t.	c #010005",
"u.	c #040017",
"v.	c #12013C",
"w.	c #190348",
"x.	c #220858",
"y.	c #2B1567",
"z.	c #362577",
"A.	c #433489",
"B.	c #4D429B",
"C.	c #544DAA",
"D.	c #5C56B2",
"E.	c #605CB9",
"F.	c #6464BE",
"G.	c #676BC1",
"H.	c #6B73C4",
"I.	c #6E7BC6",
"J.	c #7281C9",
"K.	c #7284C9",
"L.	c #748ACB",
"M.	c #738FC9",
"N.	c #7496C7",
"O.	c #73A1C3",
"P.	c #70A7C2",
"Q.	c #73B1C8",
"R.	c #72B4D0",
"S.	c #70B1D4",
"T.	c #6CADD5",
"U.	c #6A97D5",
"V.	c #656ED8",
"W.	c #5F42D5",
"X.	c #5B32D1",
"Y.	c #572ECD",
"Z.	c #5224C1",
"`.	c #4720B1",
" +	c #381A96",
".+	c #290872",
"++	c #1D0258",
"@+	c #12013F",
"#+	c #08002B",
"$+	c #010003",
"%+	c #020108",
"&+	c #040116",
"*+	c #0E022E",
"=+	c #1A0B41",
"-+	c #24164E",
";+	c #2B1D5A",
">+	c #32216A",
",+	c #3A2A79",
"'+	c #433587",
")+	c #4E4295",
"!+	c #5850A4",
"~+	c #625CB2",
"{+	c #6A64C0",
"]+	c #716CC9",
"^+	c #7273CE",
"/+	c #7376D0",
"(+	c #7778CF",
"_+	c #797CD0",
":+	c #7D81D5",
"<+	c #7C87D9",
"[+	c #7D8AD7",
"}+	c #7888CF",
"|+	c #7185C6",
"1+	c #6F8ABF",
"2+	c #6C91B9",
"3+	c #6D98B6",
"4+	c #71A6BF",
"5+	c #6DB2C2",
"6+	c #6DC3C7",
"7+	c #6EC0CD",
"8+	c #6CB0D2",
"9+	c #69A1D6",
"0+	c #697ADA",
"a+	c #634BDA",
"b+	c #603CD6",
"c+	c #5A38D1",
"d+	c #502EC2",
"e+	c #4429A9",
"f+	c #321786",
"g+	c #220364",
"h+	c #160148",
"i+	c #0F0038",
"j+	c #0D0134",
"k+	c #02010A",
"l+	c #060214",
"m+	c #0C0425",
"n+	c #1A0B3D",
"o+	c #23134D",
"p+	c #2C1C5D",
"q+	c #352470",
"r+	c #3D2A80",
"s+	c #43328F",
"t+	c #4D3F9C",
"u+	c #564BA4",
"v+	c #5E5AA8",
"w+	c #6464AC",
"x+	c #6A68B4",
"y+	c #716EBF",
"z+	c #7576C4",
"A+	c #7878C8",
"B+	c #7E7CCC",
"C+	c #807DCF",
"D+	c #827FD2",
"E+	c #8385D7",
"F+	c #858ADA",
"G+	c #828BD7",
"H+	c #7A85CF",
"I+	c #727DC9",
"J+	c #7280C4",
"K+	c #7084BC",
"L+	c #738CBA",
"M+	c #6B91B4",
"N+	c #71A8BB",
"O+	c #72B6BD",
"P+	c #6EC1BF",
"Q+	c #6AC1C6",
"R+	c #6CA8CE",
"S+	c #6A8ED3",
"T+	c #6B74DC",
"U+	c #654EDD",
"V+	c #5F47D8",
"W+	c #593ECE",
"X+	c #4C38B8",
"Y+	c #3A2595",
"Z+	c #280671",
"`+	c #1B0254",
" @	c #150345",
".@	c #140141",
"+@	c #0D0131",
"@@	c #010004",
"#@	c #030109",
"$@	c #050212",
"%@	c #0B0321",
"&@	c #130634",
"*@	c #210E4B",
"=@	c #2A1460",
"-@	c #311A73",
";@	c #3C2587",
">@	c #4A379B",
",@	c #584FAC",
"'@	c #6167B5",
")@	c #6677B5",
"!@	c #6E7EB1",
"~@	c #727FAE",
"{@	c #747FAD",
"]@	c #747BB2",
"^@	c #777DB9",
"/@	c #7A7CBE",
"(@	c #7E7FC7",
"_@	c #8383CC",
":@	c #8585D1",
"<@	c #8485D1",
"[@	c #8284CF",
"}@	c #8287CF",
"|@	c #7F83CD",
"1@	c #787CCC",
"2@	c #777FCB",
"3@	c #7782C7",
"4@	c #7884C2",
"5@	c #717FBB",
"6@	c #7487BD",
"7@	c #7497BC",
"8@	c #74A9B6",
"9@	c #72B0B5",
"0@	c #71B0BB",
"a@	c #6BA7BF",
"b@	c #6D99CD",
"c@	c #6B88D7",
"d@	c #6C67DF",
"e@	c #6656DE",
"f@	c #5F50D8",
"g@	c #5247C1",
"h@	c #40319D",
"i@	c #2C0A79",
"j@	c #1F075E",
"k@	c #1B0553",
"l@	c #170249",
"m@	c #0B012E",
"n@	c #02000B",
"o@	c #080312",
"p@	c #09031F",
"q@	c #130438",
"r@	c #1E084E",
"s@	c #290F62",
"t@	c #321779",
"u@	c #3E2291",
"v@	c #5444A7",
"w@	c #6771B8",
"x@	c #748BC1",
"y@	c #7690C1",
"z@	c #7B98BE",
"A@	c #8197BA",
"B@	c #8392BC",
"C@	c #8190BC",
"D@	c #7D8ABE",
"E@	c #7F89C6",
"F@	c #818BCD",
"G@	c #838DD5",
"H@	c #8791DC",
"I@	c #8C99E4",
"J@	c #8D9BE1",
"K@	c #8995DA",
"L@	c #8590D5",
"M@	c #7F89D3",
"N@	c #7B84D2",
"O@	c #7A83CF",
"P@	c #7B85CC",
"Q@	c #7C85C8",
"R@	c #7982C5",
"S@	c #7781C6",
"T@	c #7785C7",
"U@	c #798FC1",
"V@	c #7691B1",
"W@	c #769CB1",
"X@	c #6D9AB0",
"Y@	c #6A99B3",
"Z@	c #6AA6C3",
"`@	c #6D8FD3",
" #	c #6F79DE",
".#	c #6C65E2",
"+#	c #665EDC",
"@#	c #5955C6",
"##	c #4438A6",
"$#	c #2E0F7F",
"%#	c #231068",
"&#	c #20065E",
"*#	c #17024A",
"=#	c #010007",
"-#	c #050115",
";#	c #0D0324",
">#	c #14033A",
",#	c #1E0552",
"'#	c #280C67",
")#	c #35167F",
"!#	c #482F9D",
"~#	c #6569B7",
"{#	c #7B8CC4",
"]#	c #88A5CA",
"^#	c #89B0C9",
"/#	c #83A1C3",
"(#	c #859DC5",
"_#	c #899CCD",
":#	c #8796D4",
"<#	c #8594D8",
"[#	c #8696DC",
"}#	c #889AE3",
"|#	c #90A5E8",
"1#	c #90A6ED",
"2#	c #94ABF1",
"3#	c #9BB2F7",
"4#	c #9FB6F7",
"5#	c #9DB4F3",
"6#	c #9AAEEF",
"7#	c #92A6EA",
"8#	c #8B9FE5",
"9#	c #8598E0",
"0#	c #8090DB",
"a#	c #7D89D2",
"b#	c #7A83C7",
"c#	c #7B85CA",
"d#	c #7C88CB",
"e#	c #7582BD",
"f#	c #7587B2",
"g#	c #7087AB",
"h#	c #6787A6",
"i#	c #6797AC",
"j#	c #6BA2BA",
"k#	c #7196CD",
"l#	c #7280DB",
"m#	c #7173E2",
"n#	c #6B6EE0",
"o#	c #5F63CD",
"p#	c #4539A8",
"q#	c #2F1884",
"r#	c #2A1B76",
"s#	c #230565",
"t#	c #060024",
"u#	c #020010",
"v#	c #0A0125",
"w#	c #14033B",
"x#	c #1E0651",
"y#	c #270A67",
"z#	c #351385",
"A#	c #4C40A6",
"B#	c #6F7BC3",
"C#	c #8FA8D2",
"D#	c #9BBFD3",
"E#	c #9BBECF",
"F#	c #92B2C9",
"G#	c #899ECB",
"H#	c #8697D8",
"I#	c #8D9DE8",
"J#	c #92A1EC",
"K#	c #92A3F1",
"L#	c #93A5F6",
"M#	c #95ACF7",
"N#	c #9CB4F7",
"O#	c #98B2F5",
"P#	c #9CB5F5",
"Q#	c #A1B7F5",
"R#	c #A2B7F5",
"S#	c #A3B6F5",
"T#	c #A1B6F4",
"U#	c #A0B5F6",
"V#	c #9AB3F6",
"W#	c #92AAF1",
"X#	c #8CA1E8",
"Y#	c #8294DC",
"Z#	c #7B89CF",
"`#	c #7C85C9",
" $	c #7B86C9",
".$	c #7A86C6",
"+$	c #7684BF",
"@$	c #727EB2",
"#$	c #697BA6",
"$$	c #6681A2",
"%$	c #6C95A9",
"&$	c #739EB7",
"*$	c #7794C9",
"=$	c #7688D9",
"-$	c #7681E6",
";$	c #717DE3",
">$	c #626BCE",
",$	c #4334A6",
"'$	c #36298E",
")$	c #2F1C80",
"!$	c #230363",
"~$	c #11013C",
"{$	c #010009",
"]$	c #06001F",
"^$	c #120239",
"/$	c #1C054D",
"($	c #260865",
"_$	c #381789",
":$	c #5051AE",
"<$	c #6C7FCB",
"[$	c #91B8D8",
"}$	c #A8C9DA",
"|$	c #A6C9D3",
"1$	c #9DB9CE",
"2$	c #8FA2D1",
"3$	c #8A96E1",
"4$	c #909EF1",
"5$	c #9BABF9",
"6$	c #9FAFFA",
"7$	c #9FB0F9",
"8$	c #99AAF6",
"9$	c #97AAF3",
"0$	c #98A6ED",
"a$	c #919FE8",
"b$	c #939EE5",
"c$	c #949EE1",
"d$	c #949DE3",
"e$	c #969EE2",
"f$	c #98A2E5",
"g$	c #9BA8E9",
"h$	c #9FAFF1",
"i$	c #A4B8F8",
"j$	c #A4B9FB",
"k$	c #A2B8F8",
"l$	c #97AEF2",
"m$	c #89A1E7",
"n$	c #8090D9",
"o$	c #7C87CE",
"p$	c #7D87C6",
"q$	c #7B88C7",
"r$	c #7481C0",
"s$	c #6E7AB3",
"t$	c #6878A2",
"u$	c #6E85A5",
"v$	c #7996AD",
"w$	c #7F9DBC",
"x$	c #7A99C9",
"y$	c #7B95DE",
"z$	c #7B90EA",
"A$	c #778EE4",
"B$	c #616CCA",
"C$	c #4233A6",
"D$	c #3B3697",
"E$	c #301180",
"F$	c #100137",
"G$	c #05001A",
"H$	c #0E0131",
"I$	c #1A0547",
"J$	c #250862",
"K$	c #39198B",
"L$	c #5855B5",
"M$	c #748ED0",
"N$	c #88B2DB",
"O$	c #A2CCDC",
"P$	c #ABCAD7",
"Q$	c #9FB8D3",
"R$	c #92A3D7",
"S$	c #8C96E7",
"T$	c #8F96F4",
"U$	c #9BA2FB",
"V$	c #A3AFF8",
"W$	c #9BA6F4",
"X$	c #97A1ED",
"Y$	c #9199E3",
"Z$	c #8B94DB",
"`$	c #8B92D9",
" %	c #888FDB",
".%	c #8E93DB",
"+%	c #9099DA",
"@%	c #959DE0",
"#%	c #929ADD",
"$%	c #9299DF",
"%%	c #9398E2",
"&%	c #9299E4",
"*%	c #9CA7F0",
"=%	c #A2B0F9",
"-%	c #A4B7FC",
";%	c #A6BBFC",
">%	c #A0B7F9",
",%	c #92A9F0",
"'%	c #8599E4",
")%	c #7E8BD1",
"!%	c #7B85C6",
"~%	c #7A86C7",
"{%	c #7380C1",
"]%	c #6C79AE",
"^%	c #6F7FA6",
"/%	c #7888A9",
"(%	c #8199B2",
"_%	c #83A5C1",
":%	c #81A4D0",
"<%	c #82A4E4",
"[%	c #829FEC",
"}%	c #7D9CE3",
"|%	c #5B60C4",
"1%	c #4645AB",
"2%	c #3F379A",
"3%	c #290573",
"4%	c #160147",
"5%	c #0F0134",
"6%	c #080024",
"7%	c #060020",
"8%	c #14033D",
"9%	c #22075A",
"0%	c #3A1B8B",
"a%	c #5A53BA",
"b%	c #7E97D6",
"c%	c #92B2DF",
"d%	c #9CC5DE",
"e%	c #A4C7D8",
"f%	c #9EB4D5",
"g%	c #929FE2",
"h%	c #8C92E8",
"i%	c #8F92F3",
"j%	c #9696F6",
"k%	c #9798F1",
"l%	c #969BE8",
"m%	c #8B92DE",
"n%	c #8890D8",
"o%	c #878CD5",
"p%	c #868CD5",
"q%	c #888FDF",
"r%	c #8C96E4",
"s%	c #94A1EA",
"t%	c #9CAFEF",
"u%	c #A6BBF2",
"v%	c #9EB2F1",
"w%	c #96A4F1",
"x%	c #8F97F2",
"y%	c #8A8FF0",
"z%	c #8E93F2",
"A%	c #969DF6",
"B%	c #97A2F8",
"C%	c #A1B1FD",
"D%	c #A4B7FE",
"E%	c #A3B9FB",
"F%	c #98B0F6",
"G%	c #889FEA",
"H%	c #7B87D1",
"I%	c #7C84C6",
"J%	c #7885C6",
"K%	c #707CBD",
"L%	c #6B79A9",
"M%	c #727DA6",
"N%	c #798AAB",
"O%	c #87A4BA",
"P%	c #8AB1C7",
"Q%	c #88B4DA",
"R%	c #87AFE8",
"S%	c #8AB3EC",
"T%	c #789DDD",
"U%	c #5254BF",
"V%	c #5159B1",
"W%	c #381C90",
"X%	c #13013F",
"Y%	c #0C012E",
"Z%	c #080124",
"`%	c #1C0450",
" &	c #361685",
".&	c #5749BB",
"+&	c #7D90D8",
"@&	c #98B6E1",
"#&	c #A3C1DF",
"$&	c #A0BED7",
"%&	c #96ACD3",
"&&	c #8F99E0",
"*&	c #8C91EE",
"=&	c #8F92F0",
"-&	c #8F8FEC",
";&	c #8E8FE3",
">&	c #8A8DDC",
",&	c #878DD9",
"'&	c #838BD4",
")&	c #858DD3",
"!&	c #858BD9",
"~&	c #8B91E3",
"{&	c #8C97EE",
"]&	c #92A3F2",
"^&	c #97ADF7",
"/&	c #A0C0FB",
"(&	c #ABCBFB",
"_&	c #A7C1FB",
":&	c #96A8FB",
"<&	c #8D97FB",
"[&	c #858AF9",
"}&	c #8184F7",
"|&	c #8487F5",
"1&	c #858CF6",
"2&	c #8B95F9",
"3&	c #95A0FA",
"4&	c #A1B1FC",
"5&	c #A3B7FC",
"6&	c #9DB4FA",
"7&	c #899FEB",
"8&	c #7A84C5",
"9&	c #7682C5",
"0&	c #6A76B5",
"a&	c #6A75A4",
"b&	c #7079A8",
"c&	c #8096B2",
"d&	c #8DB0C0",
"e&	c #8EBACC",
"f&	c #8CBBDF",
"g&	c #8DBEEB",
"h&	c #8BC1E9",
"i&	c #6983D5",
"j&	c #5A66C0",
"k&	c #4B49AB",
"l&	c #2A0572",
"m&	c #170149",
"n&	c #2E0D77",
"o&	c #503CB4",
"p&	c #6F7DD6",
"q&	c #89A5DC",
"r&	c #A4BFE0",
"s&	c #A2BBD7",
"t&	c #94A5D1",
"u&	c #8A92D7",
"v&	c #8789E1",
"w&	c #8989E6",
"x&	c #8A8CE1",
"y&	c #8486D5",
"z&	c #8285D0",
"A&	c #7F84CD",
"B&	c #7F85CD",
"C&	c #838BD2",
"D&	c #8C98E7",
"E&	c #909DEE",
"F&	c #8E9FF3",
"G&	c #8FA2F4",
"H&	c #8EA1F4",
"I&	c #93AAF7",
"J&	c #9BB5F7",
"K&	c #9BB0F8",
"L&	c #919FF8",
"M&	c #898EF6",
"N&	c #8181F3",
"O&	c #7A78EC",
"P&	c #7674E3",
"Q&	c #7578E4",
"R&	c #777BEB",
"S&	c #7F85F2",
"T&	c #8B93F4",
"U&	c #9AA8F8",
"V&	c #A8BDFD",
"W&	c #A1BAFA",
"X&	c #88A0EB",
"Y&	c #7984D2",
"Z&	c #7E88CA",
"`&	c #717CBF",
" *	c #656FAA",
".*	c #646C9F",
"+*	c #7481AF",
"@*	c #86A1B7",
"#*	c #8FB4C2",
"$*	c #8FBFD2",
"%*	c #8EC5E2",
"&*	c #92CBE9",
"**	c #7FB8E5",
"=*	c #5F6ACE",
"-*	c #6077C1",
";*	c #351588",
">*	c #1E0258",
",*	c #160146",
"'*	c #0D0132",
")*	c #050119",
"!*	c #20045B",
"~*	c #442AA4",
"{*	c #6569D2",
"]*	c #7892D8",
"^*	c #8BAAD6",
"/*	c #A2BCD8",
"(*	c #94A7CB",
"_*	c #8890C9",
":*	c #8286C9",
"<*	c #8484CE",
"[*	c #8485D0",
"}*	c #8185CF",
"|*	c #7A7EC7",
"1*	c #7A7EC4",
"2*	c #7C81C9",
"3*	c #848CD6",
"4*	c #8FA1E3",
"5*	c #94A6EC",
"6*	c #93A6F0",
"7*	c #93A7F1",
"8*	c #8D9EEF",
"9*	c #8795EA",
"0*	c #8089E3",
"a*	c #7F86DE",
"b*	c #818DDC",
"c*	c #838DDF",
"d*	c #8890E4",
"e*	c #898AE5",
"f*	c #8483DE",
"g*	c #7B77D5",
"h*	c #7370CC",
"i*	c #6C6AC8",
"j*	c #6E6ED5",
"k*	c #7175E2",
"l*	c #7679EB",
"m*	c #838AEF",
"n*	c #9BA9F6",
"o*	c #AEC5FD",
"p*	c #A2BDFB",
"q*	c #849BEC",
"r*	c #818DDB",
"s*	c #7A85C6",
"t*	c #6873B6",
"u*	c #5B629B",
"v*	c #6971A9",
"w*	c #788BAE",
"x*	c #89A7B9",
"y*	c #91B9C7",
"z*	c #8FC3D5",
"A*	c #94C9DF",
"B*	c #88D3EA",
"C*	c #6E8DDD",
"D*	c #6B8BCF",
"E*	c #453BA2",
"F*	c #250367",
"G*	c #12013E",
"H*	c #110239",
"I*	c #351686",
"J*	c #5750C5",
"K*	c #6E7CDB",
"L*	c #7E9DD5",
"M*	c #8FAED1",
"N*	c #97AECC",
"O*	c #8999C0",
"P*	c #868EBB",
"Q*	c #8287BA",
"R*	c #8285BF",
"S*	c #7F84C3",
"T*	c #7D82C8",
"U*	c #797DC6",
"V*	c #7B80C6",
"W*	c #8087CD",
"X*	c #8D98E2",
"Y*	c #9DB6F0",
"Z*	c #98B1F1",
"`*	c #91A4EB",
" =	c #8995E2",
".=	c #8187D5",
"+=	c #787DCB",
"@=	c #7072BF",
"#=	c #6A6CB6",
"$=	c #6A6EB2",
"%=	c #6D72B4",
"&=	c #7579BC",
"*=	c #797ABE",
"==	c #7A7CBA",
"-=	c #7D7DBB",
";=	c #8081BF",
">=	c #7B7CBF",
",=	c #6F6EC4",
"'=	c #6F72D2",
")=	c #6D6EDE",
"!=	c #7173E7",
"~=	c #8288ED",
"{=	c #A2B1F7",
"]=	c #B2CAFD",
"^=	c #9AB5FB",
"/=	c #89A1F0",
"(=	c #808ACF",
"_=	c #717BBD",
":=	c #5B65A5",
"<=	c #5E649E",
"[=	c #6B78A9",
"}=	c #7C94AE",
"|=	c #8CACBE",
"1=	c #8EBAC9",
"2=	c #95C3D5",
"3=	c #8CD6E5",
"4=	c #7CBEE5",
"5=	c #6C87D8",
"6=	c #5A70B9",
"7=	c #2D0678",
"8=	c #20025C",
"9=	c #19014C",
"0=	c #05011A",
"a=	c #220660",
"b=	c #4636AA",
"c=	c #6060D1",
"d=	c #768CDD",
"e=	c #87A7D4",
"f=	c #90ADCC",
"g=	c #8EA2C2",
"h=	c #8B99BA",
"i=	c #8C94B5",
"j=	c #858BB7",
"k=	c #7B80B7",
"l=	c #767CB8",
"m=	c #777ABD",
"n=	c #797EC4",
"o=	c #7D85C9",
"p=	c #8893D7",
"q=	c #9AABEB",
"r=	c #9CB2EE",
"s=	c #8C9FE1",
"t=	c #808AD2",
"u=	c #7476C1",
"v=	c #6A69AE",
"w=	c #5F609D",
"x=	c #585992",
"y=	c #515386",
"z=	c #505382",
"A=	c #545980",
"B=	c #555984",
"C=	c #575A87",
"D=	c #5C5F88",
"E=	c #666890",
"F=	c #70749E",
"G=	c #7175A9",
"H=	c #6D6FB2",
"I=	c #7174C3",
"J=	c #7376D1",
"K=	c #6A6BDA",
"L=	c #7174E7",
"M=	c #8991EF",
"N=	c #AABDFA",
"O=	c #B1CBFD",
"P=	c #97B8FC",
"Q=	c #8598E4",
"R=	c #777FC2",
"S=	c #646FB2",
"T=	c #585C98",
"U=	c #606AA2",
"V=	c #6D7EA5",
"W=	c #819DB7",
"X=	c #8BAEC1",
"Y=	c #93BACC",
"Z=	c #8FCFDE",
"`=	c #80DBE8",
" -	c #708EDF",
".-	c #6C9BCA",
"+-	c #36118A",
"@-	c #240366",
"#-	c #0A012B",
"$-	c #0F0234",
"%-	c #331A84",
"&-	c #5042BD",
"*-	c #666FD9",
"=-	c #7C95DB",
"--	c #8BAACF",
";-	c #8EA7C6",
">-	c #8DA1BD",
",-	c #929DB6",
"'-	c #8D95B4",
")-	c #7D85B2",
"!-	c #7076AF",
"~-	c #6D71AD",
"{-	c #7276B5",
"]-	c #7A82C3",
"^-	c #8491D0",
"/-	c #9BB0E5",
"(-	c #9DAFEA",
"_-	c #8B98DC",
":-	c #7881C4",
"<-	c #6A6FAE",
"[-	c #5B5D9A",
"}-	c #4F5084",
"|-	c #474B74",
"1-	c #42466B",
"2-	c #3C4264",
"3-	c #3E4662",
"4-	c #444E60",
"5-	c #414A5F",
"6-	c #40485F",
"7-	c #40475F",
"8-	c #434762",
"9-	c #494E6C",
"0-	c #4F5479",
"a-	c #575C8C",
"b-	c #6064A2",
"c-	c #6D71B7",
"d-	c #7071C9",
"e-	c #6769DA",
"f-	c #777BE7",
"g-	c #919DF1",
"h-	c #B9D0F9",
"i-	c #AAC8FC",
"j-	c #8CA6F6",
"k-	c #7A82CE",
"l-	c #6D78BC",
"m-	c #595E9D",
"n-	c #5A619D",
"o-	c #616C9D",
"p-	c #768CB3",
"q-	c #83A2B8",
"r-	c #8DB0C4",
"s-	c #90C4D4",
"t-	c #7EE3E3",
"u-	c #78ACE5",
"v-	c #73ACD5",
"w-	c #432D9E",
"x-	c #29056F",
"y-	c #1C0551",
"z-	c #3F2A9D",
"A-	c #564FC8",
"B-	c #7181E0",
"C-	c #859DD8",
"D-	c #90A9C5",
"E-	c #93A3B9",
"F-	c #939CB4",
"G-	c #848CB1",
"H-	c #727BAB",
"I-	c #6B70A9",
"J-	c #6B71AB",
"K-	c #767FBD",
"L-	c #8592CE",
"M-	c #90A3DF",
"N-	c #9FB7E8",
"O-	c #8D9ADA",
"P-	c #757EBE",
"Q-	c #6269A0",
"R-	c #515786",
"S-	c #464D78",
"T-	c #454D6F",
"U-	c #444D6E",
"V-	c #404B6B",
"W-	c #3E4E68",
"X-	c #3E4E65",
"Y-	c #404E61",
"Z-	c #3D4B5D",
"`-	c #3C475B",
" ;	c #3C465A",
".;	c #394157",
"+;	c #343A53",
"@;	c #363A53",
"#;	c #3A405E",
"$;	c #434671",
"%;	c #515589",
"&;	c #6669AA",
"*;	c #6567C3",
"=;	c #6B6FDD",
"-;	c #7980E5",
";;	c #ABBDF1",
">;	c #B9D2F8",
",;	c #96B0FC",
"';	c #7D87E2",
");	c #747BC2",
"!;	c #6269AE",
"~;	c #5C60A6",
"{;	c #6C7BAF",
"];	c #7994AE",
"^;	c #86A7BD",
"/;	c #8EB9CB",
"(;	c #7CDEDD",
"_;	c #7DCDE5",
":;	c #76ACDD",
"<;	c #5155B1",
"[;	c #2E077A",
"};	c #250467",
"|;	c #13023E",
"1;	c #06011F",
"2;	c #260F69",
"3;	c #4531AA",
"4;	c #5E5DD3",
"5;	c #7B89E1",
"6;	c #90ADD7",
"7;	c #97B3CE",
"8;	c #95ACC3",
"9;	c #95A1B6",
"0;	c #8993B1",
"a;	c #7882AD",
"b;	c #7178AC",
"c;	c #6F75AB",
"d;	c #747DB7",
"e;	c #818ECD",
"f;	c #90A0DA",
"g;	c #9AB1E4",
"h;	c #91A2DC",
"i;	c #767FBE",
"j;	c #5E689A",
"k;	c #4B547E",
"l;	c #424972",
"m;	c #495278",
"n;	c #4C567C",
"o;	c #49587A",
"p;	c #435471",
"q;	c #3D5168",
"r;	c #37485F",
"s;	c #344257",
"t;	c #303E53",
"u;	c #2F3B51",
"v;	c #343E53",
"w;	c #343C54",
"x;	c #2F3650",
"y;	c #31364C",
"z;	c #2D3245",
"A;	c #2A2D45",
"B;	c #313355",
"C;	c #494D7C",
"D;	c #6064A5",
"E;	c #6165CA",
"F;	c #6C6FD8",
"G;	c #94A0E8",
"H;	c #BAD1F3",
"I;	c #A5BFFA",
"J;	c #838FF3",
"K;	c #777BC4",
"L;	c #686FBA",
"M;	c #6266B5",
"N;	c #5A5FA2",
"O;	c #656DA8",
"P;	c #7184AA",
"Q;	c #809FB7",
"R;	c #89AFC3",
"S;	c #80D1D5",
"T;	c #7CDCE0",
"U;	c #7DADE2",
"V;	c #5D7EBE",
"W;	c #330A84",
"X;	c #29066E",
"Y;	c #170348",
"Z;	c #0C032E",
"`;	c #2D1679",
" >	c #4B3BB5",
".>	c #6465DB",
"+>	c #8493E0",
"@>	c #99BCD9",
"#>	c #9CB7CE",
"$>	c #95A9BF",
"%>	c #8E99B3",
"&>	c #7B85AD",
"*>	c #737CAC",
"=>	c #757CAE",
"->	c #7A82B6",
";>	c #808BC8",
">>	c #8A98D4",
",>	c #96A8DE",
"'>	c #95A9DD",
")>	c #7C87C3",
"!>	c #5F6A9C",
"~>	c #4B5680",
"{>	c #454E79",
"]>	c #4E5583",
"^>	c #525D88",
"/>	c #4D5B82",
"(>	c #435672",
"_>	c #394B62",
":>	c #2F4053",
"<>	c #253246",
"[>	c #202B3D",
"}>	c #1C2639",
"|>	c #1B2337",
"1>	c #21263B",
"2>	c #242940",
"3>	c #232941",
"4>	c #282E44",
"5>	c #2B2F40",
"6>	c #212332",
"7>	c #1B1C2F",
"8>	c #2B2E4C",
"9>	c #4C527D",
"0>	c #575AAD",
"a>	c #6366CD",
"b>	c #8288E0",
"c>	c #B2C6EE",
"d>	c #B3CCF6",
"e>	c #8C99FB",
"f>	c #797EC8",
"g>	c #6970BA",
"h>	c #666BBD",
"i>	c #5F64B0",
"j>	c #6068A6",
"k>	c #6B77A8",
"l>	c #7B97B1",
"m>	c #83A4BC",
"n>	c #85C1CC",
"o>	c #7BDED9",
"p>	c #82B6E5",
"q>	c #669FC7",
"r>	c #380D8D",
"s>	c #2C0A74",
"t>	c #1C0553",
"u>	c #12043C",
"v>	c #331986",
"w>	c #5346C2",
"x>	c #6D6EE0",
"y>	c #90A9DF",
"z>	c #9EC1D9",
"A>	c #9CB4CC",
"B>	c #91A2BB",
"C>	c #848EB1",
"D>	c #737CA9",
"E>	c #7980B0",
"F>	c #858EC4",
"G>	c #8A95D0",
"H>	c #91A0D6",
"I>	c #95A7DB",
"J>	c #8491CB",
"K>	c #6772A5",
"L>	c #4E5B83",
"M>	c #4B5681",
"N>	c #535B8E",
"O>	c #5A6695",
"P>	c #4E5D87",
"Q>	c #415372",
"R>	c #33455B",
"S>	c #273648",
"T>	c #1C2838",
"U>	c #131B2C",
"V>	c #0E1524",
"W>	c #0B1021",
"X>	c #0A0D20",
"Y>	c #0D1023",
"Z>	c #111326",
"`>	c #121529",
" ,	c #181C30",
".,	c #232536",
"+,	c #1D1E2F",
"@,	c #131421",
"#,	c #17182A",
"$,	c #313654",
"%,	c #4A4D8B",
"&,	c #5B5FBE",
"*,	c #797DD8",
"=,	c #AABCE8",
"-,	c #B9D2F1",
";,	c #95A5FA",
">,	c #7E83CD",
",,	c #6B73B8",
"',	c #666CBD",
"),	c #646BBD",
"!,	c #6069AB",
"~,	c #656EA3",
"{,	c #758FAA",
"],	c #7C99B4",
"^,	c #88B3C6",
"/,	c #79DAD1",
"(,	c #85C2E5",
"_,	c #6DB5CB",
":,	c #3C1495",
"<,	c #2F0E7B",
"[,	c #20085C",
"},	c #0B012B",
"|,	c #030114",
"1,	c #18064B",
"2,	c #392194",
"3,	c #594ACC",
"4,	c #787BE1",
"5,	c #9ABCDE",
"6,	c #A0BFD8",
"7,	c #99ADC7",
"8,	c #8B99B9",
"9,	c #7C85B0",
"0,	c #6F76A7",
"a,	c #767DAC",
"b,	c #7F87B7",
"c,	c #8B97CE",
"d,	c #919ED3",
"e,	c #96A5D8",
"f,	c #8B99D1",
"g,	c #727CB3",
"h,	c #56648C",
"i,	c #4A587F",
"j,	c #5B6B96",
"k,	c #62719F",
"l,	c #576991",
"m,	c #405274",
"n,	c #314158",
"o,	c #233043",
"p,	c #172233",
"q,	c #0E1625",
"r,	c #080C1B",
"s,	c #060817",
"t,	c #040514",
"u,	c #030414",
"v,	c #050515",
"w,	c #060616",
"x,	c #090A1B",
"y,	c #141524",
"z,	c #151629",
"A,	c #121221",
"B,	c #0E0E19",
"C,	c #1B1E33",
"D,	c #393D69",
"E,	c #5458A9",
"F,	c #767AD0",
"G,	c #A6B6E2",
"H,	c #BBD2ED",
"I,	c #9FB0F7",
"J,	c #858AD3",
"K,	c #737CBB",
"L,	c #666DBE",
"M,	c #6870C4",
"N,	c #616DB1",
"O,	c #60679D",
"P,	c #6F87A4",
"Q,	c #758FAC",
"R,	c #86ABC1",
"S,	c #79D3CC",
"T,	c #84C9E1",
"U,	c #71C3CF",
"V,	c #411A9D",
"W,	c #321483",
"X,	c #250C67",
"Y,	c #1E0759",
"Z,	c #4029A3",
"`,	c #5D4BD2",
" '	c #818EE1",
".'	c #9FC4DD",
"+'	c #A0BCD5",
"@'	c #95A7C4",
"#'	c #8792BA",
"$'	c #767DAE",
"%'	c #6E76A7",
"&'	c #7982AE",
"*'	c #858FC0",
"='	c #8F9BD1",
"-'	c #98A3D7",
";'	c #95A3D6",
">'	c #7F86C2",
",'	c #646E9C",
"''	c #4F5E83",
")'	c #52608F",
"!'	c #7285A8",
"~'	c #687EA0",
"{'	c #495F7F",
"]'	c #31445D",
"^'	c #233044",
"/'	c #172133",
"('	c #0D1525",
"_'	c #070B19",
":'	c #040513",
"<'	c #030410",
"['	c #02020E",
"}'	c #030310",
"|'	c #03030F",
"1'	c #070715",
"2'	c #0B0B1D",
"3'	c #0E0E20",
"4'	c #0B0B17",
"5'	c #11111F",
"6'	c #292C4D",
"7'	c #4E5395",
"8'	c #7276C8",
"9'	c #A2B1DD",
"0'	c #B9CFE8",
"a'	c #A6B6F3",
"b'	c #8C90D8",
"c'	c #7C86C1",
"d'	c #676FC3",
"e'	c #6C77CB",
"f'	c #6474BB",
"g'	c #5C649A",
"h'	c #6B81A0",
"i'	c #6F86A6",
"j'	c #82A5BD",
"k'	c #7EC8CA",
"l'	c #85C8DB",
"m'	c #75C9CF",
"n'	c #4721A8",
"o'	c #381B90",
"p'	c #2A1272",
"q'	c #14023E",
"r'	c #250B69",
"s'	c #472EB1",
"t'	c #604BD5",
"u'	c #8AA4E2",
"v'	c #9FC5DC",
"w'	c #9EB8D1",
"x'	c #93A3C3",
"y'	c #838CB9",
"z'	c #7177AA",
"A'	c #727CAB",
"B'	c #7E89B3",
"C'	c #8A96C6",
"D'	c #939ED3",
"E'	c #9CAADA",
"F'	c #919DCF",
"G'	c #757CB3",
"H'	c #5B688B",
"I'	c #506289",
"J'	c #6473A2",
"K'	c #879AB0",
"L'	c #627D96",
"M'	c #3C516C",
"N'	c #293A4E",
"O'	c #1C2739",
"P'	c #0F182A",
"Q'	c #080D1C",
"R'	c #040512",
"S'	c #02030E",
"T'	c #01020C",
"U'	c #01010A",
"V'	c #02020C",
"W'	c #03030D",
"X'	c #040411",
"Y'	c #08081B",
"Z'	c #090916",
"`'	c #0D0C18",
" )	c #1E213B",
".)	c #484C85",
"+)	c #6B70BF",
"@)	c #9BAAD9",
"#)	c #B5CAE4",
"$)	c #A5B2F0",
"%)	c #8D91D8",
"&)	c #848DC7",
"*)	c #6973CA",
"=)	c #7180D4",
"-)	c #697BC5",
";)	c #5A629B",
">)	c #677C9D",
",)	c #6A80A2",
"')	c #7E9FB9",
"))	c #83BAC7",
"!)	c #87C1D4",
"~)	c #77CCD1",
"{)	c #4F28B8",
"])	c #4125A1",
"^)	c #2F197D",
"/)	c #170244",
"()	c #2C1078",
"_)	c #4D30BB",
":)	c #624ED9",
"<)	c #91B7E3",
"[)	c #9DC3DA",
"})	c #9AB5CE",
"|)	c #91A2C3",
"1)	c #7F88B7",
"2)	c #6D75A7",
"3)	c #7882AE",
"4)	c #838FB9",
"5)	c #8F9BC9",
"6)	c #98A1D6",
"7)	c #9EB0D9",
"8)	c #8C97C7",
"9)	c #6E79A4",
"0)	c #556584",
"a)	c #576893",
"b)	c #7C8DB2",
"c)	c #91A4B1",
"d)	c #587389",
"e)	c #364A60",
"f)	c #253546",
"g)	c #162032",
"h)	c #0B1223",
"i)	c #050815",
"j)	c #01010B",
"k)	c #010108",
"l)	c #02020D",
"m)	c #02020B",
"n)	c #040413",
"o)	c #0B0A16",
"p)	c #1B1D35",
"q)	c #42467E",
"r)	c #666BB9",
"s)	c #95A4D5",
"t)	c #B2C5E2",
"u)	c #9EA7EC",
"v)	c #8C8ED2",
"w)	c #8790CA",
"x)	c #6E7AD3",
"y)	c #788BDF",
"z)	c #6D82D0",
"A)	c #5A609D",
"B)	c #64779E",
"C)	c #677BA1",
"D)	c #7998B4",
"E)	c #84AFC3",
"F)	c #89B7CC",
"G)	c #7BC6D1",
"H)	c #5630C5",
"I)	c #492FB1",
"J)	c #341F86",
"K)	c #190248",
"L)	c #11023A",
"M)	c #331486",
"N)	c #4E30C1",
"O)	c #6659DC",
"P)	c #95C2E2",
"Q)	c #99C0D7",
"R)	c #96B2CA",
"S)	c #8FA1C2",
"T)	c #7B85B3",
"U)	c #6A76A3",
"V)	c #7B87B0",
"W)	c #8694BC",
"X)	c #919DCA",
"Y)	c #9DA4D9",
"Z)	c #9CADD5",
"`)	c #838DBF",
" !	c #697598",
".!	c #526384",
"+!	c #61719E",
"@!	c #91A5BB",
"#!	c #93A6AE",
"$!	c #516D81",
"%!	c #364B5B",
"&!	c #213042",
"*!	c #131C2F",
"=!	c #080F1E",
"-!	c #030612",
";!	c #010106",
">!	c #020208",
",!	c #050514",
"'!	c #0A0A17",
")!	c #1D1F3A",
"!!	c #41457E",
"~!	c #656CB5",
"{!	c #91A0D3",
"]!	c #B0C1E0",
"^!	c #9297E4",
"/!	c #8A8CCA",
"(!	c #848CCB",
"_!	c #7280DE",
":!	c #7C94E5",
"<!	c #7187D8",
"[!	c #5B5EA0",
"}!	c #62739D",
"|!	c #6577A0",
"1!	c #7491AE",
"2!	c #82A6BD",
"3!	c #88B1C6",
"4!	c #7EBDD1",
"5!	c #5C3CCC",
"6!	c #4D39BA",
"7!	c #37228B",
"8!	c #1A034C",
"9!	c #36158E",
"0!	c #4F2EC3",
"a!	c #6C69DE",
"b!	c #94C2E1",
"c!	c #95BDD4",
"d!	c #93B0C8",
"e!	c #8CA0C1",
"f!	c #7682AD",
"g!	c #6A78A2",
"h!	c #7E8BB2",
"i!	c #8896BE",
"j!	c #949FCB",
"k!	c #9CA3D9",
"l!	c #94A0CF",
"m!	c #7A82B9",
"n!	c #63708E",
"o!	c #536485",
"p!	c #6E7DA8",
"q!	c #A2B4C0",
"r!	c #95A7AE",
"s!	c #516E80",
"t!	c #354A5B",
"u!	c #1D2B41",
"v!	c #111C30",
"w!	c #070E1E",
"x!	c #040713",
"y!	c #02030C",
"z!	c #020207",
"A!	c #020209",
"B!	c #040412",
"C!	c #0B0B1A",
"D!	c #222444",
"E!	c #444885",
"F!	c #6A72B8",
"G!	c #909FD3",
"H!	c #A9B6DF",
"I!	c #8584D8",
"J!	c #8789C3",
"K!	c #7D85CD",
"L!	c #7686E5",
"M!	c #7B94E4",
"N!	c #738BDE",
"O!	c #5C5FA4",
"P!	c #606F99",
"Q!	c #63739D",
"R!	c #6F89A8",
"S!	c #7F9FB7",
"T!	c #86B1C7",
"U!	c #7FB2D0",
"V!	c #5F46D0",
"W!	c #5144BE",
"X!	c #362088",
"Y!	c #19044A",
"Z!	c #140343",
"`!	c #391594",
" ~	c #4F2AC2",
".~	c #7079DF",
"+~	c #91BDDD",
"@~	c #94BAD1",
"#~	c #91AEC6",
"$~	c #889FBE",
"%~	c #7181A8",
"&~	c #6D7DA4",
"*~	c #808FB1",
"=~	c #8A98BF",
"-~	c #97A1CB",
";~	c #979ED5",
">~	c #8B92CB",
",~	c #757CB6",
"'~	c #5F6D8A",
")~	c #566488",
"!~	c #7989B1",
"~~	c #ACBDC3",
"{~	c #9BAAB1",
"]~	c #557484",
"^~	c #33495C",
"/~	c #1D2C43",
"(~	c #111D33",
"_~	c #081021",
":~	c #050714",
"<~	c #03040E",
"[~	c #030309",
"}~	c #030308",
"|~	c #020206",
"1~	c #03030C",
"2~	c #060614",
"3~	c #121328",
"4~	c #2C2F57",
"5~	c #4F5493",
"6~	c #747FBE",
"7~	c #909ED4",
"8~	c #99A1DA",
"9~	c #7B78CC",
"0~	c #8386BF",
"a~	c #7780D4",
"b~	c #788BEA",
"c~	c #7791E1",
"d~	c #758CE4",
"e~	c #5B5EA2",
"f~	c #5E6B95",
"g~	c #617099",
"h~	c #6B81A2",
"i~	c #7F9AB4",
"j~	c #85B3C6",
"k~	c #7CA2D4",
"l~	c #604DD3",
"m~	c #524CBD",
"n~	c #331B82",
"o~	c #180549",
"p~	c #160347",
"q~	c #3A1496",
"r~	c #4E27C0",
"s~	c #7385DF",
"t~	c #8EB6DC",
"u~	c #94B9D0",
"v~	c #90ADC6",
"w~	c #859DBC",
"x~	c #6F81A6",
"y~	c #707FA5",
"z~	c #7F8FB1",
"A~	c #8B99BF",
"B~	c #98A1CA",
"C~	c #9197D1",
"D~	c #868BCA",
"E~	c #747CB7",
"F~	c #5C6C8B",
"G~	c #5A648A",
"H~	c #8092B5",
"I~	c #B2C1C5",
"J~	c #A5B2B7",
"K~	c #5E7D8D",
"L~	c #354B61",
"M~	c #203047",
"N~	c #121F38",
"O~	c #0B1428",
"P~	c #050B19",
"Q~	c #030511",
"R~	c #03030B",
"S~	c #04040F",
"T~	c #03030A",
"U~	c #060613",
"V~	c #101123",
"W~	c #212544",
"X~	c #3B4071",
"Y~	c #5F67A4",
"Z~	c #7F8CC6",
"`~	c #8E9AD5",
" {	c #868AD1",
".{	c #7977C5",
"+{	c #8083C2",
"@{	c #7885E3",
"#{	c #7990EE",
"${	c #7795E5",
"%{	c #7788E5",
"&{	c #5B5E9D",
"*{	c #5D6892",
"={	c #616E96",
"-{	c #6A799E",
";{	c #7F99B2",
">{	c #83B4C5",
",{	c #768DD9",
"'{	c #6256D8",
"){	c #5354BB",
"!{	c #31167C",
"~{	c #180649",
"{{	c #391494",
"]{	c #4D24BD",
"^{	c #738BDF",
"/{	c #88ABDD",
"({	c #92B9CF",
"_{	c #8DADC4",
":{	c #8098B7",
"<{	c #6C7EA2",
"[{	c #6E7EA3",
"}{	c #7B8BAE",
"|{	c #8998BC",
"1{	c #97A0C5",
"2{	c #8A91CC",
"3{	c #8488C9",
"4{	c #757EB8",
"5{	c #5A6B8E",
"6{	c #5C658B",
"7{	c #8596B6",
"8{	c #B3C3C7",
"9{	c #B0BBBF",
"0{	c #6C8B9B",
"a{	c #3C546B",
"b{	c #24364E",
"c{	c #13223E",
"d{	c #0D1B33",
"e{	c #071123",
"f{	c #040716",
"g{	c #030512",
"h{	c #03030E",
"i{	c #050613",
"j{	c #060610",
"k{	c #060712",
"l{	c #090B17",
"m{	c #131426",
"n{	c #212440",
"o{	c #333963",
"p{	c #4C538A",
"q{	c #707BB4",
"r{	c #8793CC",
"s{	c #8990D5",
"t{	c #7D7CC9",
"u{	c #7B7BC3",
"v{	c #7E83CC",
"w{	c #7E93F2",
"x{	c #7C98F2",
"y{	c #7D9FEE",
"z{	c #757DDD",
"A{	c #5B5D99",
"B{	c #5C6591",
"C{	c #616A95",
"D{	c #6A73A0",
"E{	c #7F99B0",
"F{	c #80B3C3",
"G{	c #737ADB",
"H{	c #6566DA",
"I{	c #5355B8",
"J{	c #2E1375",
"K{	c #160245",
"L{	c #371390",
"M{	c #4C23BA",
"N{	c #718ADC",
"O{	c #819EE1",
"P{	c #91BCD4",
"Q{	c #87AFC4",
"R{	c #778EB1",
"S{	c #687A9D",
"T{	c #68799D",
"U{	c #7788AB",
"V{	c #8797B9",
"W{	c #949DBF",
"X{	c #868DC9",
"Y{	c #777FBB",
"Z{	c #5C6D95",
"`{	c #5F688D",
" ]	c #8797B4",
".]	c #B3C4C9",
"+]	c #BBC5C8",
"@]	c #7E9EAC",
"#]	c #49647B",
"$]	c #2A3E59",
"%]	c #162746",
"&]	c #10213F",
"*]	c #0C1A33",
"=]	c #070F22",
"-]	c #050B1C",
";]	c #050717",
">]	c #050715",
",]	c #080A19",
"']	c #0A0C1A",
")]	c #0D0D1C",
"!]	c #0D0E1D",
"~]	c #0D0F1C",
"{]	c #0F1121",
"]]	c #16182B",
"^]	c #222642",
"/]	c #30345C",
"(]	c #42497C",
"_]	c #5E67A0",
":]	c #7F8CC1",
"<]	c #8B95D2",
"[]	c #8486D3",
"}]	c #7E7CC7",
"|]	c #7C7EC6",
"1]	c #818DDF",
"2]	c #84A0FB",
"3]	c #81A5F6",
"4]	c #84A4F4",
"5]	c #7274D3",
"6]	c #5C5D9A",
"7]	c #5C6290",
"8]	c #65689F",
"9]	c #6E73A9",
"0]	c #7D99AF",
"a]	c #80AFC3",
"b]	c #767CDC",
"c]	c #6B77DC",
"d]	c #514EB3",
"e]	c #2E1775",
"f]	c #140241",
"g]	c #34108A",
"h]	c #4A20B8",
"i]	c #6C83D9",
"j]	c #7990E3",
"k]	c #8FC0DF",
"l]	c #80B7CB",
"m]	c #6C86AC",
"n]	c #637699",
"o]	c #607397",
"p]	c #788BAD",
"q]	c #8696B6",
"r]	c #8F99BA",
"s]	c #838AC6",
"t]	c #8589CB",
"u]	c #7A81C0",
"v]	c #6274A0",
"w]	c #616A8F",
"x]	c #8391AF",
"y]	c #AEBFC7",
"z]	c #C3CCCF",
"A]	c #94B1BD",
"B]	c #5B7991",
"C]	c #364C6A",
"D]	c #1C3153",
"E]	c #14294A",
"F]	c #102242",
"G]	c #0B1934",
"H]	c #09132D",
"I]	c #091127",
"J]	c #080C22",
"K]	c #0B0D22",
"L]	c #0D0F23",
"M]	c #101127",
"N]	c #121429",
"O]	c #14162B",
"P]	c #161931",
"Q]	c #202343",
"R]	c #2E315C",
"S]	c #393D72",
"T]	c #535991",
"U]	c #727DB3",
"V]	c #8B97CA",
"W]	c #8B93D5",
"X]	c #8283D1",
"Y]	c #807FCB",
"Z]	c #7B81D4",
"`]	c #869DF2",
" ^	c #86A7FC",
".^	c #87AEF7",
"+^	c #88A0F3",
"@^	c #7173CD",
"#^	c #5D5E9B",
"$^	c #61639A",
"%^	c #6C6CB1",
"&^	c #737BB1",
"*^	c #7B9DB2",
"=^	c #80A8C7",
"-^	c #7C8DDB",
";^	c #7083D8",
">^	c #4C41AD",
",^	c #301B7B",
"'^	c #19034B",
")^	c #310D83",
"!^	c #481EB3",
"~^	c #667AD5",
"{^	c #7284E3",
"]^	c #8EC0E9",
"^^	c #7BBCD5",
"/^	c #668CAF",
"(^	c #5F7597",
"_^	c #5B7093",
":^	c #7F95B3",
"<^	c #8797B5",
"[^	c #8893B4",
"}^	c #7F88C3",
"|^	c #8589CE",
"1^	c #7E85C6",
"2^	c #687CAC",
"3^	c #626B95",
"4^	c #7B89AA",
"5^	c #A1B3C1",
"6^	c #C2CDD1",
"7^	c #A8C2CA",
"8^	c #7294AA",
"9^	c #4C6481",
"0^	c #2C4365",
"a^	c #193255",
"b^	c #142B50",
"c^	c #102447",
"d^	c #0E1D3F",
"e^	c #0D1B3B",
"f^	c #0C1636",
"g^	c #0D1332",
"h^	c #0F1432",
"i^	c #131636",
"j^	c #161939",
"k^	c #181C3C",
"l^	c #1B1E43",
"m^	c #252959",
"n^	c #32356F",
"o^	c #424783",
"p^	c #656CA5",
"q^	c #808BC0",
"r^	c #8D97CE",
"s^	c #888ED4",
"t^	c #8282D1",
"u^	c #7D7FD5",
"v^	c #8091E9",
"w^	c #88A8F9",
"x^	c #88AAF9",
"y^	c #8AABF4",
"z^	c #8998EE",
"A^	c #6F73C7",
"B^	c #5E5F9D",
"C^	c #6B6DB1",
"D^	c #7374C0",
"E^	c #7786B0",
"F^	c #7AA3B7",
"G^	c #81A2CC",
"H^	c #809BDC",
"I^	c #6F83D0",
"J^	c #4736A7",
"K^	c #311A7C",
"L^	c #170247",
"M^	c #2D0A7B",
"N^	c #4419AC",
"O^	c #606DCF",
"P^	c #6C78E0",
"Q^	c #8DB8EF",
"R^	c #79B8DF",
"S^	c #68A4B9",
"T^	c #5B7798",
"U^	c #5A7093",
"V^	c #849BB8",
"W^	c #8697B4",
"X^	c #808DAE",
"Y^	c #7C86C0",
"Z^	c #8387D0",
"`^	c #838ACC",
" /	c #6E82B8",
"./	c #636E9F",
"+/	c #727EA6",
"@/	c #90A0B7",
"#/	c #B8C7CD",
"$/	c #B8CCD2",
"%/	c #8BAEBF",
"&/	c #6A839D",
"*/	c #495F7D",
"=/	c #243F66",
"-/	c #1A345D",
";/	c #162F59",
">/	c #132851",
",/	c #12254D",
"'/	c #11224A",
")/	c #111F47",
"!/	c #131E47",
"~/	c #171F4A",
"{/	c #19204C",
"]/	c #1A214E",
"^/	c #1D2457",
"//	c #282F6A",
"(/	c #343B7B",
"_/	c #505895",
":/	c #737BB5",
"</	c #858CC7",
"[/	c #888ED0",
"}/	c #8589D5",
"|/	c #8388D9",
"1/	c #7E8CE6",
"2/	c #87A5F7",
"3/	c #89ACF8",
"4/	c #89A8F5",
"5/	c #8CA0F1",
"6/	c #848DE4",
"7/	c #6B6EBE",
"8/	c #6668AD",
"9/	c #7479C7",
"0/	c #7378BB",
"a/	c #7990AD",
"b/	c #7CA6BC",
"c/	c #83A4D1",
"d/	c #81A5DD",
"e/	c #6570C4",
"f/	c #4334A0",
"g/	c #2C1375",
"h/	c #13013E",
"i/	c #290771",
"j/	c #4015A4",
"k/	c #585EC8",
"l/	c #656CDC",
"m/	c #89ACEE",
"n/	c #7AAAE8",
"o/	c #6CBEC4",
"p/	c #577B9C",
"q/	c #5D7596",
"r/	c #849CB9",
"s/	c #8A9CB8",
"t/	c #7A89AA",
"u/	c #7985BC",
"v/	c #7E84CE",
"w/	c #858CCD",
"x/	c #7384C2",
"y/	c #6774AC",
"z/	c #6A71A6",
"A/	c #7F8BAD",
"B/	c #A4B6C3",
"C/	c #BBCCD2",
"D/	c #A1C2CE",
"E/	c #87A3B8",
"F/	c #70839B",
"G/	c #3B557D",
"H/	c #23406E",
"I/	c #1E3B69",
"J/	c #1A3664",
"K/	c #18305E",
"L/	c #162E5C",
"M/	c #172D5D",
"N/	c #192C5D",
"O/	c #1B2D5F",
"P/	c #1D2D61",
"Q/	c #1E2D63",
"R/	c #23326E",
"S/	c #2F3D7C",
"T/	c #414E8E",
"U/	c #636FAC",
"V/	c #7A83C2",
"W/	c #848ACF",
"X/	c #868CD9",
"Y/	c #8592E0",
"Z/	c #8599EA",
"`/	c #84A3F5",
" (	c #8AB0F7",
".(	c #8AACF4",
"+(	c #8BA3F2",
"@(	c #8D96EA",
"#(	c #7A7FD1",
"$(	c #6B6BB9",
"%(	c #7274C3",
"&(	c #747AC7",
"*(	c #707BAA",
"=(	c #7997AF",
"-(	c #80A5C0",
";(	c #88B0D7",
">(	c #80A8DE",
",(	c #5959BB",
"'(	c #3F3198",
")(	c #260967",
"!(	c #230465",
"~(	c #3B0F99",
"{(	c #4F4EBE",
"](	c #5F60D5",
"^(	c #819EED",
"/(	c #7995EB",
"((	c #6ECDCC",
"_(	c #5689A3",
":(	c #617C9C",
"<(	c #839DB9",
"[(	c #8FA6C1",
"}(	c #7583B5",
"|(	c #777DC3",
"1(	c #848BC7",
"2(	c #7785C8",
"3(	c #6B7CB9",
"4(	c #666AAA",
"5(	c #7379A6",
"6(	c #8B9DB6",
"7(	c #AFC1C9",
"8(	c #ABC9D2",
"9(	c #9CBBCB",
"0(	c #97A7B8",
"a(	c #60779A",
"b(	c #395585",
"c(	c #2B497B",
"d(	c #254477",
"e(	c #214072",
"f(	c #1E3C6F",
"g(	c #1F3B70",
"h(	c #213C73",
"i(	c #243F78",
"j(	c #29427C",
"k(	c #2E4581",
"l(	c #374C8C",
"m(	c #435698",
"n(	c #5869AE",
"o(	c #7684C6",
"p(	c #808CD5",
"q(	c #8590E0",
"r(	c #8493EA",
"s(	c #89A4F0",
"t(	c #88AAF5",
"u(	c #89AFF6",
"v(	c #8BAFF3",
"w(	c #8CA7F1",
"x(	c #90A0ED",
"y(	c #7173BD",
"z(	c #7170C0",
"A(	c #7577C8",
"B(	c #6D72B2",
"C(	c #7183A3",
"D(	c #7B9AB4",
"E(	c #84A9C5",
"F(	c #8CBCDD",
"G(	c #7B9BE0",
"H(	c #554FB9",
"I(	c #37248B",
"J(	c #1F0358",
"K(	c #1D0356",
"L(	c #360A8D",
"M(	c #473DB3",
"N(	c #5753CB",
"O(	c #778EEA",
"P(	c #7580EB",
"Q(	c #73CAD3",
"R(	c #5CA1AF",
"S(	c #6584A3",
"T(	c #839EB8",
"U(	c #94AEC7",
"V(	c #7B8EAD",
"W(	c #7283AF",
"X(	c #6E76B4",
"Y(	c #7D83BD",
"Z(	c #7C87C9",
"`(	c #6F80C3",
" _	c #676CB3",
"._	c #6B6FA6",
"+_	c #7985AC",
"@_	c #98ADBD",
"#_	c #A7C2CC",
"$_	c #A4C5D1",
"%_	c #ACBFCC",
"&_	c #889EB7",
"*_	c #5E76A0",
"=_	c #415E91",
"-_	c #35538A",
";_	c #2F5087",
">_	c #2D4E84",
",_	c #2E4D85",
"'_	c #304F8A",
")_	c #355392",
"!_	c #3D5A9B",
"~_	c #4761A5",
"{_	c #526AB2",
"]_	c #5F75BF",
"^_	c #6F82D0",
"/_	c #8193DF",
"(_	c #8495E9",
"__	c #8599F0",
":_	c #839DF5",
"<_	c #89AAF6",
"[_	c #89ACF4",
"}_	c #8CACF2",
"|_	c #8FA9F0",
"1_	c #91A2EB",
"2_	c #8F98DE",
"3_	c #797CC5",
"4_	c #7475C2",
"5_	c #7676C7",
"6_	c #6D6FB5",
"7_	c #67729D",
"8_	c #748CA8",
"9_	c #7E9FBB",
"0_	c #89B2CC",
"a_	c #8ABBE1",
"b_	c #7181DF",
"c_	c #5049B3",
"d_	c #2D1176",
"e_	c #19024B",
"f_	c #300781",
"g_	c #402CA8",
"h_	c #5048C0",
"i_	c #6B78E3",
"j_	c #7072E9",
"k_	c #77B9DC",
"l_	c #66BDC1",
"m_	c #628BA5",
"n_	c #7E9AB5",
"o_	c #94B0C8",
"p_	c #8397B4",
"q_	c #7787AB",
"r_	c #6570A6",
"s_	c #7E87C4",
"t_	c #7080C4",
"u_	c #6A74BE",
"v_	c #6869AB",
"w_	c #7276A8",
"x_	c #8596B4",
"y_	c #97B1C0",
"z_	c #9FBFCB",
"A_	c #ABC5CF",
"B_	c #A1B9C9",
"C_	c #879CBB",
"D_	c #677FAB",
"E_	c #4B659E",
"F_	c #425E99",
"G_	c #41609A",
"H_	c #43619C",
"I_	c #4765A3",
"J_	c #4D69AA",
"K_	c #5571B6",
"L_	c #617AC3",
"M_	c #6C84D1",
"N_	c #788EDE",
"O_	c #7E93E7",
"P_	c #8398ED",
"Q_	c #8299F2",
"R_	c #849EF4",
"S_	c #85A2F3",
"T_	c #86A3F2",
"U_	c #8DA6EF",
"V_	c #96ABED",
"W_	c #97A8EB",
"X_	c #9099DD",
"Y_	c #8185CB",
"Z_	c #7678C8",
"`_	c #7B7ED3",
" :	c #7173BF",
".:	c #656A9F",
"+:	c #6A7C9C",
"@:	c #7895B0",
"#:	c #83A8C3",
"$:	c #8AB9D2",
"%:	c #83A8E0",
"&:	c #666CD2",
"*:	c #42339B",
"=:	c #22055F",
"-:	c #090128",
";:	c #290473",
">:	c #391E9C",
",:	c #483FB4",
"':	c #5F5ED8",
"):	c #6A6CE7",
"!:	c #779AE5",
"~:	c #73D3D5",
"{:	c #5D99AA",
"]:	c #6F8CA9",
"^:	c #8FACC6",
"/:	c #8AA1BB",
"(:	c #818FAE",
"_:	c #5D6C98",
"::	c #626AA0",
"<:	c #7981BB",
"[:	c #707CBE",
"}:	c #6C7CC4",
"|:	c #686AB6",
"1:	c #6D6DAB",
"2:	c #7C84B2",
"3:	c #889CBA",
"4:	c #94B1C2",
"5:	c #9CBEC9",
"6:	c #A2BECD",
"7:	c #9DB2C9",
"8:	c #8EA3C1",
"9:	c #6B81B2",
"0:	c #5A70AB",
"a:	c #566EAC",
"b:	c #5871B0",
"c:	c #617ABA",
"d:	c #6880C0",
"e:	c #6E86C8",
"f:	c #788DD2",
"g:	c #7F95DE",
"h:	c #879DE8",
"i:	c #859CEC",
"j:	c #849BED",
"k:	c #839BEE",
"l:	c #88A0EE",
"m:	c #8EA6ED",
"n:	c #93A8EC",
"o:	c #9BADEA",
"p:	c #A2AFE7",
"q:	c #939DDF",
"r:	c #8286CF",
"s:	c #7A7DCE",
"t:	c #7C80D8",
"u:	c #777ACE",
"v:	c #686AAC",
"w:	c #65709C",
"x:	c #728AA7",
"y:	c #7FA1BB",
"z:	c #87B2C9",
"A:	c #88B6D4",
"B:	c #758BD6",
"C:	c #5354B2",
"D:	c #2D1175",
"E:	c #1A024C",
"F:	c #11013A",
"G:	c #240365",
"H:	c #34138F",
"I:	c #4034A7",
"J:	c #5445CA",
"K:	c #666AE3",
"L:	c #7FD6E6",
"M:	c #65B1BA",
"N:	c #5A7E9C",
"O:	c #84A1BC",
"P:	c #8DA6C0",
"Q:	c #8897B4",
"R:	c #5D7094",
"S:	c #586393",
"T:	c #6C73AB",
"U:	c #7078B5",
"V:	c #6D7EC1",
"W:	c #6972C3",
"X:	c #6968B3",
"Y:	c #7476B1",
"Z:	c #808AB9",
"`:	c #899FC0",
" <	c #91B2C5",
".<	c #97B9C9",
"+<	c #99B5CB",
"@<	c #9DB3CB",
"#<	c #8B9FC4",
"$<	c #7689BB",
"%<	c #6D7FBA",
"&<	c #6D7FBE",
"*<	c #7486C6",
"=<	c #7A8DCC",
"-<	c #A5B8C6",
";<	c #B8C6C8",
"><	c #BAC9CE",
",<	c #BDCCD5",
"'<	c #BCCCD9",
")<	c #B3C2DD",
"!<	c #90A2E4",
"~<	c #90A3E5",
"{<	c #9FAFE5",
"]<	c #BFCBE0",
"^<	c #C6D0D9",
"/<	c #C2CBCF",
"(<	c #B8C1C6",
"_<	c #B4C0C6",
":<	c #B0B9CE",
"<<	c #8187D0",
"[<	c #6A6BB3",
"}<	c #656A9E",
"|<	c #6C81A4",
"1<	c #7B9CB6",
"2<	c #85ABC2",
"3<	c #87B3C9",
"4<	c #7DA3CA",
"5<	c #5F6CB8",
"6<	c #372786",
"7<	c #20045A",
"8<	c #170147",
"9<	c #1D0257",
"0<	c #300B83",
"a<	c #382699",
"b<	c #4932B8",
"c<	c #6162DC",
"d<	c #6654E3",
"e<	c #81B9EB",
"f<	c #74C5D1",
"g<	c #578AA1",
"h<	c #7291AE",
"i<	c #8BA6C1",
"j<	c #A7B8AC",
"k<	c #C6F453",
"l<	c #9BC31A",
"m<	c #AFCA31",
"n<	c #CFE653",
"o<	c #C9EC69",
"p<	c #C7F08B",
"q<	c #C5D67D",
"r<	c #C9D461",
"s<	c #E2F66B",
"t<	c #F1FE80",
"u<	c #E9F59C",
"v<	c #DDECA8",
"w<	c #C3D8B8",
"x<	c #95AFCB",
"y<	c #95ADCD",
"z<	c #899CC7",
"A<	c #8596C6",
"B<	c #7F8EC7",
"C<	c #7C89C8",
"D<	c #BFCDB6",
"E<	c #F2FFA1",
"F<	c #F1FFA5",
"G<	c #F1FFA1",
"H<	c #F2FFA5",
"I<	c #F3FFAB",
"J<	c #F3FFB1",
"K<	c #D9E5C4",
"L<	c #95A0DB",
"M<	c #C4CDCE",
"N<	c #F6FFB5",
"O<	c #F3FFB5",
"P<	c #F2FFB1",
"Q<	c #EFFFB1",
"R<	c #EFFFB5",
"S<	c #E0F299",
"T<	c #B8C579",
"U<	c #646A9D",
"V<	c #6A7C9D",
"W<	c #7694AF",
"X<	c #7FA6BD",
"Y<	c #82ACC2",
"Z<	c #7EA4BE",
"`<	c #677FAE",
" [	c #3F3B8C",
".[	c #250963",
"+[	c #1D0254",
"@[	c #2A0676",
"#[	c #31178A",
"$[	c #4025A6",
"%[	c #5951D0",
"&[	c #604DDD",
"*[	c #7483E7",
"=[	c #80CBE5",
"-[	c #65A5B8",
";[	c #668BA8",
">[	c #D6E495",
",[	c #F2FF61",
"'[	c #A1D21B",
")[	c #9CC017",
"![	c #B8D235",
"~[	c #C0DC47",
"{[	c #C2E86F",
"][	c #C3E285",
"^[	c #C3CE71",
"/[	c #CFD65F",
"([	c #E6FC71",
"_[	c #F3FF8F",
":[	c #F3FFA3",
"<[	c #E9F7AF",
"[[	c #ABBFC9",
"}[	c #899ED2",
"|[	c #8C9ED3",
"1[	c #8493CD",
"2[	c #7D89C9",
"3[	c #D2E0AB",
"4[	c #F2FF99",
"5[	c #F1FF9B",
"6[	c #F1FF97",
"7[	c #F2FF97",
"8[	c #F2FF9B",
"9[	c #E8F4B3",
"0[	c #8A90D6",
"a[	c #CED7BD",
"b[	c #EDFFA5",
"c[	c #E9FCAB",
"d[	c #EBFFAF",
"e[	c #E2F89D",
"f[	c #CFDC77",
"g[	c #C2CC57",
"h[	c #B7CA3B",
"i[	c #6C7A98",
"j[	c #7490A9",
"k[	c #779CB1",
"l[	c #78A3B8",
"m[	c #799FB9",
"n[	c #6884AA",
"o[	c #464C89",
"p[	c #29146A",
"q[	c #22045D",
"r[	c #21035C",
"s[	c #1C0250",
"t[	c #090027",
"u[	c #240368",
"v[	c #2C0C7E",
"w[	c #371C93",
"x[	c #4E39BD",
"y[	c #5A4AD6",
"z[	c #6551DF",
"A[	c #7FB0EA",
"B[	c #77BAD3",
"C[	c #719DB7",
"D[	c #81A1BC",
"E[	c #BED0AC",
"F[	c #F3FF7B",
"G[	c #C0F233",
"H[	c #94C211",
"I[	c #9CBC19",
"J[	c #AFCC25",
"K[	c #B6D443",
"L[	c #BEE06B",
"M[	c #C0D47D",
"N[	c #C2CA65",
"O[	c #CDD861",
"P[	c #E8FE75",
"Q[	c #F3FF97",
"R[	c #EDFAB8",
"S[	c #99ADD8",
"T[	c #7F91DE",
"U[	c #7D8AD9",
"V[	c #7C85D4",
"W[	c #9BA5CB",
"X[	c #D8E8B0",
"Y[	c #EFFFA5",
"Z[	c #F2FFA7",
"`[	c #F2FFA9",
" }	c #EDFAAC",
".}	c #E6F2B6",
"+}	c #B0B8CB",
"@}	c #8E93CE",
"#}	c #D0DCAF",
"$}	c #D5E29D",
"%}	c #D3DE7D",
"&}	c #C5D261",
"*}	c #B8BE3F",
"=}	c #ACB943",
"-}	c #92AA7B",
";}	c #6D84A1",
">}	c #7195AA",
",}	c #6D9AAA",
"'}	c #6C95AE",
")}	c #6786AB",
"!}	c #4D5694",
"~}	c #2F1F72",
"{}	c #270767",
"]}	c #28046B",
"^}	c #250364",
"/}	c #170144",
"(}	c #02000C",
"_}	c #0C012F",
":}	c #280672",
"<}	c #2E1380",
"[}	c #3F22A6",
"}}	c #5443CB",
"|}	c #5B3AD7",
"1}	c #707CE3",
"2}	c #80B9E4",
"3}	c #83B3CF",
"4}	c #88AEC8",
"5}	c #90AFC8",
"6}	c #A8BDBC",
"7}	c #AEC595",
"8}	c #A3DA1D",
"9}	c #8EBC09",
"0}	c #96BC0F",
"a}	c #88A066",
"b}	c #7C918A",
"c}	c #82949F",
"d}	c #858EA4",
"e}	c #8B91A1",
"f}	c #9AA098",
"g}	c #C7D48F",
"h}	c #F3FF95",
"i}	c #F3FFA5",
"j}	c #F2FFAD",
"k}	c #D4E1C5",
"l}	c #7D92E2",
"m}	c #7C8DE2",
"n}	c #7882DE",
"o}	c #757DDB",
"p}	c #828FD8",
"q}	c #E0FCB7",
"r}	c #E0F4B1",
"s}	c #E4F6B1",
"t}	c #A9B3C9",
"u}	c #797BD7",
"v}	c #7779D3",
"w}	c #7474CD",
"x}	c #706EC4",
"y}	c #6E6BBE",
"z}	c #7170B3",
"A}	c #C7CE5F",
"B}	c #BCC247",
"C}	c #AFBA29",
"D}	c #8D9F75",
"E}	c #697A99",
"F}	c #69819F",
"G}	c #668EA1",
"H}	c #6190A2",
"I}	c #5F7FA3",
"J}	c #505E9A",
"K}	c #3A2A86",
"L}	c #300E7A",
"M}	c #30077A",
"N}	c #2E0578",
"O}	c #23035F",
"P}	c #260970",
"Q}	c #33118C",
"R}	c #4A34B8",
"S}	c #5535CE",
"T}	c #6047D8",
"U}	c #7797E4",
"V}	c #89B9E0",
"W}	c #90BCD6",
"X}	c #97BBD2",
"Y}	c #95B6CD",
"Z}	c #9BB6BA",
"`}	c #C9FF43",
" |	c #98CC13",
".|	c #8BBC07",
"+|	c #6C856E",
"@|	c #53618B",
"#|	c #596597",
"$|	c #5F66A7",
"%|	c #6569B8",
"&|	c #6564B4",
"*|	c #6765AF",
"=|	c #BAC690",
"-|	c #EDFF83",
";|	c #F2FF8F",
">|	c #E8F69C",
",|	c #7C8BD0",
"'|	c #7D8BD5",
")|	c #7D89DA",
"!|	c #7A83DE",
"~|	c #8895DF",
"{|	c #E8FFC5",
"]|	c #E0F4B7",
"^|	c #DAEAAD",
"/|	c #9FA5C1",
"(|	c #7272CC",
"_|	c #7272C6",
":|	c #7170C1",
"<|	c #6E6CB7",
"[|	c #6A69B0",
"}|	c #6C6EA7",
"||	c #BCC645",
"1|	c #B2BE2F",
"2|	c #ABBE1C",
"3|	c #8A9E74",
"4|	c #637195",
"5|	c #5F7498",
"6|	c #5C7D97",
"7|	c #587898",
"8|	c #4D5B95",
"9|	c #3D318C",
"0|	c #381588",
"a|	c #3A0D8D",
"b|	c #37088B",
"c|	c #2C0474",
"d|	c #01000C",
"e|	c #0F0135",
"f|	c #1C0255",
"g|	c #280875",
"h|	c #3D209F",
"i|	c #4D30C1",
"j|	c #562CCC",
"k|	c #655FDB",
"l|	c #80A2E5",
"m|	c #90BCE2",
"n|	c #9AC1DB",
"o|	c #9BC1D6",
"p|	c #A2C2C9",
"q|	c #EFFF73",
"r|	c #B4FA35",
"s|	c #92CC0F",
"t|	c #67886D",
"u|	c #4B5D83",
"v|	c #516088",
"w|	c #5A6492",
"x|	c #5F65AA",
"y|	c #6365B6",
"z|	c #625DAE",
"A|	c #A6A881",
"B|	c #CFDC65",
"C|	c #DCEE73",
"D|	c #DAEE85",
"E|	c #797FBB",
"F|	c #7A80BC",
"G|	c #7C83C1",
"H|	c #7D83C7",
"I|	c #8B94C7",
"J|	c #E9FF9F",
"K|	c #E6FA9D",
"L|	c #DAEC8B",
"M|	c #9FA7A9",
"N|	c #7071B6",
"O|	c #7070AD",
"P|	c #6F6FA8",
"Q|	c #6A6CA2",
"R|	c #6A6C9C",
"S|	c #B4BC2F",
"T|	c #ACBD1E",
"U|	c #A6BD1D",
"V|	c #869478",
"W|	c #5E6498",
"X|	c #5A6599",
"Y|	c #536491",
"Z|	c #4B558F",
"`|	c #3F328E",
" 1	c #3C1A90",
".1	c #3E1297",
"+1	c #3E0C98",
"@1	c #340784",
"#1	c #22025F",
"$1	c #210461",
"%1	c #300E82",
"&1	c #4327AD",
"*1	c #4D24C0",
"=1	c #5830CE",
"-1	c #696FDC",
";1	c #83A4E5",
">1	c #95BCE2",
",1	c #9CC4DC",
"'1	c #A8CAD2",
")1	c #F3FF99",
"!1	c #DAFF69",
"~1	c #ABFE33",
"{1	c #6D9573",
"]1	c #4B5F83",
"^1	c #4D5D83",
"/1	c #556188",
"(1	c #616B93",
"_1	c #78849D",
":1	c #999C7E",
"<1	c #B4B855",
"[1	c #BABC53",
"}1	c #C3CC5B",
"|1	c #B1B98A",
"11	c #6F71B0",
"21	c #7172AD",
"31	c #7374AC",
"41	c #787AAF",
"51	c #898FAD",
"61	c #E6F869",
"71	c #E0F26B",
"81	c #DCF06D",
"91	c #A1AD9A",
"01	c #7375AC",
"a1	c #7172A7",
"b1	c #6E70A1",
"c1	c #6A6C9B",
"d1	c #656695",
"e1	c #656490",
"f1	c #B2B92C",
"g1	c #B2C232",
"h1	c #B1C53D",
"i1	c #8C9885",
"j1	c #575DA0",
"k1	c #4A4992",
"l1	c #423391",
"m1	c #411F99",
"n1	c #4317A1",
"o1	c #42109F",
"p1	c #38098F",
"q1	c #27046B",
"r1	c #0F013A",
"s1	c #18024B",
"t1	c #1B0352",
"u1	c #240468",
"v1	c #361791",
"w1	c #4420B0",
"x1	c #4E1CC0",
"y1	c #583ACE",
"z1	c #6B73DB",
"A1	c #85A1E1",
"B1	c #96BAE0",
"C1	c #AACCDA",
"D1	c #F4FFAF",
"E1	c #F3FF9C",
"F1	c #D2FF6C",
"G1	c #B2FF39",
"H1	c #9CDC1B",
"I1	c #94C60B",
"J1	c #9FC40F",
"K1	c #A7C61B",
"L1	c #B1C637",
"M1	c #ADBA37",
"N1	c #A7B037",
"O1	c #ADB041",
"P1	c #ACB060",
"Q1	c #6C6AA0",
"R1	c #6463A7",
"S1	c #6765A7",
"T1	c #6865A5",
"U1	c #6969A4",
"V1	c #787A9F",
"W1	c #CFDA4B",
"X1	c #CDD84B",
"Y1	c #CDDA4F",
"Z1	c #CDDE4D",
"`1	c #C9D847",
" 2	c #C7D441",
".2	c #C1CE3A",
"+2	c #B9C12E",
"@2	c #B1B82A",
"#2	c #B1BD36",
"$2	c #B0C545",
"%2	c #B2C949",
"&2	c #89988B",
"*2	c #5B5FAA",
"=2	c #5149A8",
"-2	c #48349E",
";2	c #4726A3",
">2	c #471CA8",
",2	c #4315A3",
"'2	c #390B91",
")2	c #290472",
"!2	c #080028",
"~2	c #1B0252",
"{2	c #280773",
"]2	c #39199A",
"^2	c #4518B0",
"/2	c #4E1BBE",
"(2	c #573FCC",
"_2	c #6B71D8",
":2	c #819BDF",
"<2	c #A2C0DF",
"[2	c #F4FFBE",
"}2	c #F4FFB9",
"|2	c #F3FFA2",
"12	c #E0FF78",
"22	c #C0FF49",
"32	c #A7EE27",
"42	c #A7E01F",
"52	c #A9D81B",
"62	c #ADCE25",
"72	c #AFC829",
"82	c #A5BA23",
"92	c #A1B223",
"02	c #8B9468",
"a2	c #605D97",
"b2	c #5D5A9F",
"c2	c #5D5A9C",
"d2	c #5E599B",
"e2	c #5F5B9C",
"f2	c #6C6C9A",
"g2	c #BCC845",
"h2	c #BECA45",
"i2	c #C0CC47",
"j2	c #C0D04F",
"k2	c #BDCC4E",
"l2	c #BFCB4E",
"m2	c #BAC846",
"n2	c #B1BF38",
"o2	c #A8BD2F",
"p2	c #A4BE30",
"q2	c #A8C63D",
"r2	c #ACC64F",
"s2	c #818693",
"t2	c #564CB4",
"u2	c #523CB6",
"v2	c #4D2DB1",
"w2	c #4A23AE",
"x2	c #4217A3",
"y2	c #370C8D",
"z2	c #28056E",
"A2	c #0F013C",
"B2	c #1C0257",
"C2	c #2C0C7D",
"D2	c #3A149C",
"E2	c #4411AC",
"F2	c #4D1BBB",
"G2	c #553EC8",
"H2	c #6667D5",
"I2	c #8CA2DC",
"J2	c #F3FFC4",
"K2	c #F4FFBC",
"L2	c #F0FF8A",
"M2	c #D0FF5C",
"N2	c #C0FF43",
"O2	c #BAFF37",
"P2	c #ADF62B",
"Q2	c #AFE829",
"R2	c #AFDC29",
"S2	c #A1C81B",
"T2	c #9FBE17",
"U2	c #9BB144",
"V2	c #60678D",
"W2	c #575A92",
"X2	c #5A5B95",
"Y2	c #5A5892",
"Z2	c #63658C",
"`2	c #A7B427",
" 3	c #ABBA2B",
".3	c #AFC235",
"+3	c #B2C83F",
"@3	c #B4CC44",
"#3	c #B5CA47",
"$3	c #B3C744",
"%3	c #AEC337",
"&3	c #A4BE2E",
"*3	c #9FBF2D",
"=3	c #9EB938",
"-3	c #A5BB50",
";3	c #A9B264",
">3	c #7F73A1",
",3	c #563FBF",
"'3	c #5338C1",
")3	c #4B27B2",
"!3	c #3F179D",
"~3	c #320D83",
"{3	c #240566",
"]3	c #0B002D",
"^3	c #09002F",
"/3	c #0C0035",
"(3	c #120141",
"_3	c #2E0C82",
":3	c #3A0F99",
"<3	c #440DA8",
"[3	c #4919B7",
"}3	c #5036C3",
"|3	c #6B6ACB",
"13	c #D6FFB8",
"23	c #F1FFC3",
"33	c #F3FFC3",
"43	c #CCE0CE",
"53	c #B3D2CF",
"63	c #AECEBE",
"73	c #A2C8AD",
"83	c #98C7A3",
"93	c #94CE93",
"03	c #99DB78",
"a3	c #B3FA4B",
"b3	c #ADFF35",
"c3	c #ABEE25",
"d3	c #ABEA23",
"e3	c #9ACB55",
"f3	c #5A7193",
"g3	c #5E7498",
"h3	c #5E6E96",
"i3	c #63778B",
"j3	c #9FC419",
"k3	c #A1CA19",
"l3	c #A9DA27",
"m3	c #91C172",
"n3	c #82AA90",
"o3	c #82A491",
"p3	c #80998F",
"q3	c #7F938F",
"r3	c #7B9091",
"s3	c #7B8C93",
"t3	c #A9BA61",
"u3	c #B0AE79",
"v3	c #ADA080",
"w3	c #7E67AB",
"x3	c #5134BD",
"y3	c #4828AF",
"z3	c #3B1A96",
"A3	c #2C0A78",
"B3	c #1F045B",
"C3	c #140244",
"D3	c #0A002D",
"E3	c #030016",
"F3	c #03001A",
"G3	c #130141",
"H3	c #210464",
"I3	c #2E0A7F",
"J3	c #380993",
"K3	c #410AA3",
"L3	c #4616B0",
"M3	c #5735B5",
"N3	c #A09192",
"O3	c #C3DCAB",
"P3	c #DFFFBC",
"Q3	c #B1C1D6",
"R3	c #839FDE",
"S3	c #89ADDB",
"T3	c #87B4D3",
"U3	c #7FB5CE",
"V3	c #78BAC9",
"W3	c #70B5C1",
"X3	c #77BBB8",
"Y3	c #B6F27D",
"Z3	c #BDFF58",
"`3	c #B9FF4A",
" 4	c #B8FF42",
".4	c #75AA98",
"+4	c #6498A8",
"@4	c #6695AA",
"#4	c #6E9EA3",
"$4	c #B4FF46",
"%4	c #B4FF42",
"&4	c #BDFF4C",
"*4	c #93C399",
"=4	c #7099BA",
"-4	c #7090BC",
";4	c #6C82BA",
">4	c #6879BC",
",4	c #6571BE",
"'4	c #666FBF",
")4	c #B1BB88",
"!4	c #AB9D88",
"~4	c #9B8279",
"{4	c #694D97",
"]4	c #3E23A0",
"^4	c #331387",
"/4	c #260A6D",
"(4	c #1C0454",
"_4	c #0B0033",
":4	c #050020",
"<4	c #04001F",
"[4	c #220462",
"}4	c #2C067B",
"|4	c #36078E",
"14	c #3E0A9D",
"24	c #4C16A1",
"34	c #863F65",
"44	c #94717E",
"54	c #B0AD9A",
"64	c #8F9BCB",
"74	c #6C74DC",
"84	c #7584DC",
"94	c #7C96DC",
"04	c #80A4DA",
"a4	c #82B3DA",
"b4	c #7EB8D8",
"c4	c #7BBDD7",
"d4	c #9AD0C7",
"e4	c #D6FF93",
"f4	c #D0FF83",
"g4	c #C8FF74",
"h4	c #93CAA6",
"i4	c #6BACBC",
"j4	c #6DADBD",
"k4	c #7CB7BB",
"l4	c #CFFF7C",
"m4	c #D2FF7D",
"n4	c #D6FF80",
"o4	c #A3CBB3",
"p4	c #78A3CD",
"q4	c #7797CE",
"r4	c #6F85C9",
"s4	c #6776C7",
"t4	c #6068C6",
"u4	c #5F62C0",
"v4	c #9B9D76",
"w4	c #8B7662",
"x4	c #764E3D",
"y4	c #49256D",
"z4	c #291075",
"A4	c #210860",
"B4	c #140242",
"C4	c #030018",
"D4	c #150145",
"E4	c #2C0477",
"F4	c #42088D",
"G4	c #761C41",
"H4	c #7B2A4E",
"I4	c #864D65",
"J4	c #6D53AF",
"K4	c #574FCC",
"L4	c #5B54D3",
"M4	c #615FD5",
"N4	c #6D76D7",
"O4	c #748AD8",
"P4	c #7893D8",
"Q4	c #7CA2DB",
"R4	c #96BED5",
"S4	c #DCFFB3",
"T4	c #DAFFAB",
"U4	c #D5FFA0",
"V4	c #90BFC0",
"W4	c #6FA3C9",
"X4	c #71A7C9",
"Y4	c #7FB2C6",
"Z4	c #D9FF96",
"`4	c #D9FF97",
" 5	c #D6FF91",
".5	c #9CC4B7",
"+5	c #6D8CC9",
"@5	c #6981C5",
"#5	c #606EBF",
"$5	c #565BB9",
"%5	c #4D48B2",
"&5	c #483CA4",
"*5	c #715831",
"=5	c #5F400F",
"-5	c #502200",
";5	c #33084F",
">5	c #1E0358",
",5	c #1A034B",
"'5	c #0D0035",
")5	c #310467",
"!5	c #420667",
"~5	c #660C1A",
"{5	c #6D132C",
"]5	c #701B37",
"^5	c #61257E",
"/5	c #5A319E",
"(5	c #664CAF",
"_5	c #6E5EB8",
":5	c #705DBE",
"<5	c #7566C0",
"[5	c #8382BE",
"}5	c #9AB3BA",
"|5	c #BDE0A9",
"15	c #C4EBA5",
"25	c #C6F8A6",
"35	c #C4FEA3",
"45	c #6B87CC",
"55	c #637EC9",
"65	c #7BA1BF",
"75	c #96C6AD",
"85	c #BDF98A",
"95	c #B9EE85",
"05	c #B2DC7C",
"a5	c #90AA91",
"b5	c #73839E",
"c5	c #5358AA",
"d5	c #4643A4",
"e5	c #3F349B",
"f5	c #4A317B",
"g5	c #462062",
"h5	c #4F1000",
"i5	c #440800",
"j5	c #3C0500",
"k5	c #2C0330",
"l5	c #1D023B",
"m5	c #10013A",
"n5	c #09002E",
"o5	c #1D0136",
"p5	c #360400",
"q5	c #450600",
"r5	c #510700",
"s5	c #5C0A03",
"t5	c #640D15",
"u5	c #65101C",
"v5	c #681526",
"w5	c #72283B",
"x5	c #7D3B53",
"y5	c #8A616B",
"z5	c #916C79",
"A5	c #8F637C",
"B5	c #91607E",
"C5	c #94747E",
"D5	c #9E9480",
"E5	c #A1A683",
"F5	c #8088A1",
"G5	c #5150BE",
"H5	c #5F5CB2",
"I5	c #908D75",
"J5	c #8C8668",
"K5	c #897C62",
"L5	c #84715B",
"M5	c #7A614D",
"N5	c #745140",
"O5	c #6C4231",
"P5	c #5A2E58",
"Q5	c #311385",
"R5	c #3F1265",
"S5	c #4D0F00",
"T5	c #450A00",
"U5	c #3E0500",
"V5	c #340300",
"W5	c #290300",
"X5	c #1F0200",
"Y5	c #120100",
"Z5	c #080018",
"`5	c #0E0017",
" 6	c #240200",
".6	c #300300",
"+6	c #460600",
"@6	c #4E0700",
"#6	c #560800",
"$6	c #570900",
"%6	c #580900",
"&6	c #60110C",
"*6	c #681D22",
"=6	c #712937",
"-6	c #7B434C",
";6	c #7D4B57",
">6	c #7D4757",
",6	c #7A3D54",
"'6	c #6A2E7B",
")6	c #401DA6",
"!6	c #4023A6",
"~6	c #573E8D",
"{6	c #776047",
"]6	c #715F3E",
"^6	c #6E5533",
"/6	c #6A4B2C",
"(6	c #643D1E",
"_6	c #5F3511",
":6	c #582A05",
"<6	c #4D1E27",
"[6	c #270C70",
"}6	c #370C43",
"|6	c #390B00",
"16	c #310600",
"26	c #280300",
"36	c #1F0100",
"46	c #150000",
"56	c #100100",
"66	c #080000",
"76	c #030006",
"86	c #030011",
"96	c #0D0008",
"06	c #1A0101",
"a6	c #2A0500",
"b6	c #2E0500",
"c6	c #330300",
"d6	c #3A0500",
"e6	c #400500",
"f6	c #410600",
"g6	c #420600",
"h6	c #450500",
"i6	c #4A0700",
"j6	c #510C1E",
"k6	c #51103B",
"l6	c #4E1857",
"m6	c #3D1980",
"n6	c #31138E",
"o6	c #32118D",
"p6	c #310F8D",
"q6	c #300B87",
"r6	c #4C0C49",
"s6	c #500B13",
"t6	c #4E0A00",
"u6	c #4C0800",
"v6	c #470900",
"w6	c #3D051D",
"x6	c #2E044C",
"y6	c #1C0359",
"z6	c #1F0348",
"A6	c #2B041A",
"B6	c #240202",
"C6	c #1B0100",
"D6	c #120000",
"E6	c #0C0000",
"F6	c #090100",
"G6	c #050003",
"H6	c #07001E",
"I6	c #0C0125",
"J6	c #0B0127",
"K6	c #0C012A",
"L6	c #0F0130",
"M6	c #100134",
"N6	c #100136",
"O6	c #170150",
"P6	c #170153",
"Q6	c #1A025B",
"R6	c #19025D",
"S6	c #1A0360",
"T6	c #190362",
"U6	c #1A0262",
"V6	c #17015F",
"W6	c #18015E",
"X6	c #18015D",
"Y6	c #160157",
"Z6	c #150154",
"`6	c #150051",
" 7	c #15014C",
".7	c #140146",
"+7	c #130242",
"@7	c #0A0034",
"#7	c #080126",
"$7	c #02000E",
"                                              . + @ # $ % & * * = - ; > , . .                                                   ",
"                                      . . ' ) ! % ~ { ] ^ / ( _ _ : < [ } | ; ' + . .                                           ",
"                                1 ' ) 2 3 4 5 6 7 8 _ 9 0 a b c d e f g h i j ] k l m ' .                                       ",
"                              n o p q r s t u v w x y z A B C D E F G H F I J K L M N O P Q Q                                   ",
"                          n o R S T 7 U V W X Y Z `  ...+.@.#.$.%.&.*.=.-.;.>.,.'.).!.~.T {.2 Q Q .                             ",
"                      ].^./.(._.:.<.[.}.|.1.2.3.4.5.6.7.8.9.0.a.b.c.d.e.f.g.h.i.j.k.l.m.n.o.p.q.r.Q , s..                       ",
"                    t.u.# v.w.x.y.z.A.B.C.D.E.F.G.H.I.J.K.L.M.N.O.P.Q.R.S.T.U.V.W.X.Y.Z.`. +.+++@+#+#+2 , .                     ",
"                $+%+&+*+=+-+;+>+,+'+)+!+~+{+]+^+/+(+_+:+<+[+}+|+1+2+3+4+5+6+7+8+9+0+a+b+c+d+e+f+g+h+i+j+; , .                   ",
"                k+l+m+n+o+p+q+r+s+t+u+v+w+x+y+z+A+B+C+D+E+F+G+H+I+J+K+L+M+N+O+P+Q+R+S+T+U+V+W+X+Y+Z+`+ @.@+@' .                 ",
"            @@#@$@%@&@*@=@-@;@>@,@'@)@!@~@{@]@^@/@(@_@:@<@[@}@|@1@2@3@4@5@6@7@8@9@0@a@b@c@d@e@f@g@h@i@j@k@l@m@, .               ",
"            n@o@p@q@r@s@t@u@v@w@x@y@z@A@B@C@D@E@F@G@H@I@J@K@L@M@N@O@P@Q@R@S@T@U@V@W@X@Y@Z@`@ #.#+#@###$#%#&#*#; Q               ",
"          =#-#;#>#,#'#)#!#~#{#]#^#/#(#_#:#<#[#}#|#1#2#3#4#5#6#7#8#9#0#a#P@b#c#d#e#f#g#h#i#j#k#l#m#n#o#p#q#r#s#h+t#Q .           ",
"          u#v#w#x#y#z#A#B#C#D#E#F#G#H#I#J#K#L#M#N#O#P#Q#R#R#S#T#U#V#W#X#Y#Z#`# $.$+$@$#$$$%$&$*$=$-$;$>$,$'$)$!$~$> , n@        ",
"        {$]$^$/$($_$:$<$[$}$|$1$2$3$4$5$6$7$8$9$0$a$b$c$d$e$f$g$h$i$j$k$l$m$n$o$p$q$r$s$t$u$v$w$x$y$z$A$B$C$D$E$7 F$> G$        ",
"        u.H$I$J$K$L$M$N$O$P$Q$R$S$T$U$V$W$X$Y$Z$`$ %.%+%@%#%$%%%&%*%=%-%;%>%,%'%)%!%~%{%]%^%/%(%_%:%<%[%}%|%1%2%3%4%5%6%.       ",
"        7%8%9%0%a%b%c%d%e%f%g%h%i%j%k%l%m%n%o%p%q%r%s%t%u%v%w%x%y%z%A%B%C%D%E%F%G%H%I%J%K%L%M%N%O%P%Q%R%S%T%U%V%W%t X%Y%,       ",
"      1 Z%`% &.&+&@&#&$&%&&&*&=&-&;&>&,&'&)&!&~&{&]&^&/&(&_&:&<&[&}&|&1&2&3&4&5&6&7&H%8&9&0&a&b&c&d&e&f&g&h&i&j&k&l&m&v.]$      ",
"      . F$n&o&p&q&r&s&t&u&v&w&x&y&z&A&B&C&Z$D&E&F&G&H&I&J&K&L&M&N&O&P&Q&R&S&T&U&V&W&X&Y&Z&`& *.*+*@*#*$*%*&***=*-*;*>*,*'*.     ",
"      )*!*~*{*]*^*/*(*_*:*<*[*}*|*1*2*3*4*5*6*7*8*9*0*a*b*c*d*e*f*g*h*i*j*k*l*m*n*o*p*q*r*s*t*u*v*w*x*y*z*A*B*C*D*E*F*^ G*Q     ",
"      H*I*J*K*L*M*N*O*P*Q*R*S*T*U*V*W*X*Y*Z*`* =.=+=@=#=$=%=&=*===-=;=>=,='=)=!=~={=]=^=/=(=_=:=<=[=}=|=1=2=3=4=5=6=7=8=9=]$    ",
"    0=a=b=c=d=e=f=g=h=i=j=k=l=m=n=o=p=q=r=s=t=u=v=w=x=y=z=A=B=C=D=E=F=G=H=I=J=K=L=M=N=O=P=Q=R=S=T=U=V=W=X=Y=Z=`= -.-+-@-:.#-    ",
"    $-%-&-*-=---;->-,-'-)-!-~-{-]-^-/-(-_-:-<-[-}-|-1-2-3-4-5-6-7-8-9-0-a-b-c-d-e-f-g-h-i-j-k-l-m-n-o-p-q-r-s-t-u-v-w-x-8 5%n@  ",
"  n@y-z-A-B-C-f=D-E-F-G-H-I-J-K-L-M-N-O-P-Q-R-S-T-U-V-W-X-Y-Z-`- ;.;+;@;#;$;%;&;*;=;-;;;>;,;';);!;~;u*{;];^;/;(;_;:;<;[;};|;Q   ",
"  1;2;3;4;5;6;7;8;9;0;a;b;c;d;e;f;g;h;i;j;k;l;m;n;o;p;q;r;s;t;u;v;w;x;y;z;A;B;C;D;E;F;G;H;I;J;K;L;M;N;O;P;Q;R;S;T;U;V;W;X;Y;G$  ",
"  Z;`; >.>+>@>#>$>%>&>*>=>->;>>>,>'>)>!>~>{>]>^>/>(>_>:><>[>}>|>1>2>3>4>5>6>7>8>9>0>a>b>c>d>e>f>g>h>i>j>k>l>m>n>o>p>q>r>s>t>Z%  ",
"n@u>v>w>x>y>z>A>B>C>D>*>E>F>G>H>I>J>K>L>M>N>O>P>Q>R>S>T>U>V>W>X>Y>Z>`> ,.,+,@,#,$,%,&,*,=,-,;,>,,,',),!,~,{,],^,/,(,_,:,<,[,},n@",
"|,1,2,3,4,5,6,7,8,9,0,a,b,c,d,e,f,g,h,i,j,k,l,m,n,o,p,q,r,s,t,u,v,v,w,x,y,z,A,B,C,D,E,F,G,H,I,J,K,L,M,N,O,P,Q,R,S,T,U,V,W,X,5%n@",
"0=Y,Z,`, '.'+'@'#'$'%'&'*'='-';'>',''')'!'~'{']'^'/'('_':'<'['['}'}'|'}'1'2'3'4'5'6'7'8'9'0'a'b'c'd'e'f'g'h'i'j'k'l'm'n'o'p'q'Q ",
"Z%r's't'u'v'w'x'y'z'A'B'C'D'E'F'G'H'I'J'K'L'M'N'O'P'Q'R'S'T'U'V'|'}'|'['W'X'Y'Z'`' ).)+)@)#)$)%)&)*)=)-);)>),)')))!)~){)])^)/)0=",
"Y%()_):)<)[)})|)1)2)3)4)5)6)7)8)9)0)a)b)c)d)e)f)g)h)i)S'j)k)k)V'}'|'|'l)m)m)n)1'o)p)q)r)s)t)u)v)w)x)y)z)A)B)C)D)E)F)G)H)I)J)K)0=",
"L)M)N)O)P)Q)R)S)T)U)V)W)X)Y)Z)`) !.!+!@!#!$!%!&!*!=!-!V'k);!>!W'}'|'['m)U'k)l),!'!)!!!~!{!]!^!/!(!_!:!<![!}!|!1!2!3!4!5!6!7!8!0=",
"|;9!0!a!b!c!d!e!f!g!h!i!j!k!l!m!n!o!p!q!r!s!t!u!v!w!x!y!z!;!>!|'|'}'l)A!k);!m)B!C!D!E!F!G!H!I!J!K!L!M!N!O!P!Q!R!S!T!U!V!W!X!Y!0=",
"Z!`! ~.~+~@~#~$~%~&~*~=~-~;~>~,~'~)~!~~~{~]~^~/~(~_~:~<~[~z!}~X'|'}'V'>!|~|~1~2~3~4~5~6~7~8~9~0~a~b~c~d~e~f~g~h~i~j~k~l~m~n~o~1;",
"p~q~r~s~t~u~v~w~x~y~z~A~B~C~D~E~F~G~H~I~J~K~L~M~N~O~P~Q~W'A!R~X'S~X'W'[~}~T~U~V~W~X~Y~Z~`~ {.{+{@{#{${%{&{*{={-{;{>{,{'{){!{~{1;",
"p~{{]{^{/{({_{:{<{[{}{|{1{2{3{4{5{6{7{8{9{0{a{b{c{d{e{f{g{h{<~i{U~1'U~j{k{l{m{n{o{p{q{r{s{t{u{v{w{x{y{z{A{B{C{D{E{F{G{H{I{J{~{1;",
"K{L{M{N{O{P{Q{R{S{T{U{V{W{X{3{Y{Z{`{ ].]+]@]#]$]%]&]*]=]-];]>],]'])]!]~]{]]]^]/](]_]:]<][]}]|]1]2]3]4]5]6]7]8]9]0]a]b]c]d]e]o~1;",
"f]g]h]i]j]k]l]m]n]o]p]q]r]s]t]u]v]w]x]y]z]A]B]C]D]E]F]G]H]I]J]K]L]M]N]O]P]Q]R]S]T]U]V]W]X]Y]Z]`] ^.^+^@^#^$^%^&^*^=^-^;^>^,^'^0=",
"v.)^!^~^{^]^^^/^(^_^:^<^[^}^|^1^2^3^4^5^6^7^8^9^0^a^b^c^d^e^f^g^h^i^j^k^l^m^n^o^p^q^r^s^t^u^v^w^x^y^z^A^B^C^D^E^F^G^H^I^J^K^L^0=",
"F$M^N^O^P^Q^R^S^T^U^V^W^X^Y^Z^`^ /./+/@/#/$/%/&/*/=/-/;/>/,/'/)/!/~/{/]/^///(/_/:/</[/}/|/1/2/3/4/5/6/7/8/9/0/a/b/c/d/e/f/g/h/Q ",
"Y%i/j/k/l/m/n/o/p/q/r/s/t/u/v/w/x/y/z/A/B/C/D/E/F/G/H/I/J/K/L/M/N/O/P/Q/R/S/T/U/V/W/X/Y/Z/`/ (.(+(@(#($(%(&(*(=(-(;(>(,('()(F$Q ",
"6%!(~({(](^(/(((_(:(<([(/%}(|(1(2(3(4(5(6(7(8(9(0(a(b(c(d(e(f(g(h(i(j(k(l(m(n(o(p(q(r(s(t(u(v(w(x(X/y(z(A(B(C(D(E(F(G(H(I(J(Y%Q ",
"G$K(L(M(N(O(P(Q(R(S(T(U(V(W(X(Y(Z(`( _._+_@_#_$_%_&_*_=_-_;_>_,_'_)_!_~_{_]_^_/_(___:_<_[_}_|_1_2_3_4_5_6_7_8_9_0_a_b_c_d_e_},Q ",
"Q { f_g_h_i_j_k_l_m_n_o_p_q_r_!-s_t_u_v_w_x_y_z_A_B_C_D_E_F_G_H_I_J_K_L_M_N_O_P_Q_R_S_T_U_V_W_X_Y_Z_`_ :.:+:@:#:$:%:&:*:=:.@-:n@",
". v.;:>:,:':):!:~:{:]:^:/:(:_:::<:[:}:|:1:2:3:4:5:6:7:8:9:0:a:b:c:d:e:f:g:h:i:j:k:l:m:n:o:p:q:r:s:t:u:v:w:x:y:z:A:B:C:D:E:F:6%n@",
"  '*G:H:I:J:K:!=L:M:N:O:P:Q:R:S:T:U:V:W:X:Y:Z:`: <.<+<@<#<$<%<&<*<=<-<;<><,<'<)<!<~<{<]<^</<(<_<:<<<[<}<|<1<2<3<4<5<6<7<8<F$G$  ",
"  > 9<0<a<b<c<d<e<f<g<h<i<j<k<l<m<n<o<p<q<r<s<t<u<v<w<x<y<z<A<B<C<D<E<F<G<H<I<J<K<L<M<N<O<P<Q<R<S<T<U<V<W<X<Y<Z<`< [.[+[E:5%Q   ",
"  , m&@[#[$[%[&[*[=[-[;[O:>[,['[)[![~[{[][^[/[([_[:[I<<[[[}[|[1[2[3[4[5[6[7[8[H<9[0[a[b[c[d[e[f[g[h[i[j[k[l[m[n[o[p[q[r[s[t[n@  ",
"  Q v.u[v[w[x[y[z[A[B[C[D[E[F[G[H[I[J[K[L[M[N[O[P[Q[J<O<R[S[T[U[V[W[X[Y[Z[`[ }.}+}:+@}#}$}%}&}*}=}-};}>},}'})}!}~}{}]}^}/}Q     ",
"  (}_}++:}<}[}}}|}1}2}3}4}5}6}7}8}9}0}a}b}c}d}e}f}g}h}i}j}k}l}m}n}o}p}q}r}s}t}u}v}w}x}y}z}A}B}C}D}E}F}G}H}I}J}K}L}M}N}O}H$n@    ",
"    G$l@g+P}Q}R}S}T}U}V}W}X}Y}Z}`} |.|+|@|#|$|%|&|*|=|-|;|>|,|'|)|!|~|{|]|^|/|(|_|:|<|[|}|||1|2|3|4|5|6|7|8|9|0|a|b|c|e_G$      ",
"    d|e|f|g+g|h|i|j|k|l|m|n|o|p|q|r|s|t|u|v|w|x|y|z|A|B|C|D|E|F|G|H|I|J|K|L|M|N|z}O|P|Q|R|S|T|U|V|W|X|Y|Z|`| 1.1+1@1#1Y%n@      ",
"      > { 9<$1%1&1*1=1-1;1>1,1'1)1!1~1{1]1^1/1(1_1:1<1[1}1|111213141516171819101a1b1c1d1e1f1g1h1i1D;j1k1l1m1n1o1p1q1h/Q         ",
"      , r1s1t1u1v1w1x1y1z1A1B1C1D1E1F1G1H1I1J1K1L1M1N1O1P1Q1R1S1T1U1V1W1X1Y1Z1Z1`1 2.2+2@2#2$2%2&2*2=2-2;2>2,2'2)2m&]$          ",
"      d|!2@+{ ~2{2]2^2/2(2_2:2<2[2}2|212223242526272829202a2b2c2d2e2f2g2h2i2j2j2k2l2m2n2o2p2q2r2s2t2u2v2w2x2y2z29=t[n@          ",
"        , p A2N B2C2D2E2F2G2H2I2J2J2K2I<L2M2N2O2P2Q2R2S2T2U2V2W2X2Y2Z2`2 3.3+3@3#3$3%3&3*3=3-3;3>3,3'3)3!3~3{34%]3+             ",
"        d|t#^3/3(3~._3:3<3[3}3|313233343536373839303a3b3c3d3e3f3g3h3i3j3k3l3m3n3o3p3q3r3s3t3u3v3w3x3y3z3A3B3C3D3E3              ",
"          F3t#R #+G3H3I3J3K3L3M3N3O3P3Q3R3S3T3U3V3W3X3Y3Z3`3 4.4+4@4#4$4%4&4*4=4-4;4>4,4'4)4!4~4{4]4^4/4(4N _4:4].              ",
"          d|F3<4t##+4%[4}4|414243444546474849404a4b4c4d4e4f4g4h4i4j4k4l4m4n4o4p4q4r4s4t4u4v4w4x4y4z4A4t1B4% 2 C4                ",
"            d|n , @ p D4[4E4f F4G4H4I4J4K4L4M4N4O4P4Q4R4S4T4U4V4W4X4Y4Z4`4 5.5+5@5#5$5%5&5*5=5-5;5>5,55 '52 ' .                 ",
"              =#d|d|, ; 4%~.)5!5~5{5]5^5/5(5_5:5<5[5}5|515253545556575859505a5b5c5d5e5f5g5h5i5j5k5l5m5n5t#, .                   ",
"                    d|Q #+o5p5q5r5s5t5u5v5w5x5y5z5A5B5C5D5E5F5G5H5I5J5K5L5M5N5O5P5Q5R5S5T5U5V5W5X5Y5Z5' . .                     ",
"                      d|, `5 6.6j5+6@6#6$6%6&6*6=6-6;6>6,6'6)6!6~6{6]6^6/6(6_6:6<6[6}6|616263646566676.                         ",
"                        s.869606a6b6c6d6e6f6g6h6i6j6k6l6m6n6o6p6q6r6s6t6u6v6i5w6x6y6z6A6B6C6D6E6F6G6@@                          ",
"                            Q G$H6I6J6K6L6M6N6N6m5G*B4O6P6Q6R6S6T6U6V6W6X6Y6Z6`6 7.7+7m5@7#7m ' $7@@                            "};
