/* XPM */
static char * player_xpm[] = {
"64 64 1907 2",
"  	c #000000",
". 	c #5F605A",
"+ 	c #7D7D77",
"@ 	c #4F4F4B",
"# 	c #010102",
"$ 	c #010101",
"% 	c #010100",
"& 	c #B1B6AE",
"* 	c #E0E1D8",
"= 	c #94938E",
"- 	c #171615",
"; 	c #010001",
"> 	c #0A0305",
", 	c #1B0A10",
"' 	c #1F090F",
") 	c #060101",
"! 	c #020101",
"~ 	c #6D9A92",
"{ 	c #608A83",
"] 	c #213331",
"^ 	c #212422",
"/ 	c #9EC4BB",
"( 	c #CFEAE0",
"_ 	c #B1BBB3",
": 	c #61615C",
"< 	c #0A0206",
"[ 	c #300F20",
"} 	c #501D33",
"| 	c #5A2136",
"1 	c #642334",
"2 	c #722529",
"3 	c #481311",
"4 	c #000001",
"5 	c #030101",
"6 	c #7AAFA7",
"7 	c #74ACAB",
"8 	c #2A4343",
"9 	c #383C39",
"0 	c #93C2BA",
"a 	c #ABE0D6",
"b 	c #CADBD3",
"c 	c #8B8B87",
"d 	c #330B21",
"e 	c #571B38",
"f 	c #5D2239",
"g 	c #5E2339",
"h 	c #62253A",
"i 	c #874555",
"j 	c #B66B7B",
"k 	c #2F1417",
"l 	c #010303",
"m 	c #87C2B9",
"n 	c #6CA7AB",
"o 	c #253F42",
"p 	c #282A29",
"q 	c #90C0B7",
"r 	c #9CDCD2",
"s 	c #CAE7DE",
"t 	c #A7AEA8",
"u 	c #4A4947",
"v 	c #020002",
"w 	c #350F24",
"x 	c #551D38",
"y 	c #552032",
"z 	c #5A2235",
"A 	c #5E2439",
"B 	c #84465B",
"C 	c #C57C93",
"D 	c #936272",
"E 	c #010000",
"F 	c #253430",
"G 	c #8FD0C8",
"H 	c #5C97A1",
"I 	c #1C353C",
"J 	c #0B0C0B",
"K 	c #7FADA6",
"L 	c #95D6CD",
"M 	c #AFE1D8",
"N 	c #BDCEC5",
"O 	c #7F7F7A",
"P 	c #13030C",
"Q 	c #3A1022",
"R 	c #6D2031",
"S 	c #942C32",
"T 	c #A12F2D",
"U 	c #9C2E2F",
"V 	c #802935",
"W 	c #783D51",
"X 	c #B7738A",
"Y 	c #C07D94",
"Z 	c #547770",
"` 	c #8ACECA",
" .	c #4B7E8C",
"..	c #132831",
"+.	c #3B3937",
"@.	c #9A9991",
"#.	c #9DAFA8",
"$.	c #95CCC4",
"%.	c #9ADAD2",
"&.	c #C5E3D9",
"*.	c #9BA39B",
"=.	c #32312F",
"-.	c #180311",
";.	c #47132E",
">.	c #7B2538",
",.	c #A22F2E",
"'.	c #B2322A",
").	c #B53328",
"!.	c #B43229",
"~.	c #A7302D",
"{.	c #8C3541",
"].	c #A56379",
"^.	c #DB90A9",
"/.	c #5C3E48",
"(.	c #000101",
"_.	c #73A59F",
":.	c #7EC2C3",
"<.	c #6198A2",
"[.	c #679A9C",
"}.	c #375253",
"|.	c #0C1415",
"1.	c #6F706C",
"2.	c #AFC9C0",
"3.	c #ABD5CC",
"4.	c #96CEC6",
"5.	c #93D6CD",
"6.	c #ADE0D6",
"7.	c #AFC4BC",
"8.	c #737570",
"9.	c #3F0F2C",
"0.	c #75213D",
"a.	c #9E2D31",
"b.	c #B53229",
"c.	c #B73227",
"d.	c #B63328",
"e.	c #B73328",
"f.	c #9F3031",
"g.	c #924D5F",
"h.	c #DB879D",
"i.	c #9F5E6B",
"j.	c #61414A",
"k.	c #202E2C",
"l.	c #8CC8C1",
"m.	c #69ACBA",
"n.	c #5394AC",
"o.	c #5696AC",
"p.	c #355B68",
"q.	c #0F1D22",
"r.	c #606360",
"s.	c #9AC9C0",
"t.	c #9EDDD3",
"u.	c #95D8CE",
"v.	c #94D9CF",
"w.	c #99DCD2",
"x.	c #B6DCD2",
"y.	c #909E98",
"z.	c #2E2C2B",
"A.	c #220517",
"B.	c #531736",
"C.	c #8D293C",
"D.	c #B0322A",
"E.	c #B83F35",
"F.	c #BD584F",
"G.	c #BD5A52",
"H.	c #B73327",
"I.	c #A8302C",
"J.	c #8C3F4D",
"K.	c #CA6F7C",
"L.	c #A14E55",
"M.	c #A86A78",
"N.	c #060C0B",
"O.	c #5E837E",
"P.	c #89CCC9",
"Q.	c #5499B0",
"R.	c #488EAD",
"S.	c #478BA7",
"T.	c #234856",
"U.	c #061014",
"V.	c #2F3130",
"W.	c #7EADA5",
"X.	c #93D4CB",
"Y.	c #95DBD1",
"Z.	c #A3DDD4",
"`.	c #A2C1BA",
" +	c #6C7571",
".+	c #330F2D",
"++	c #5D1F40",
"@+	c #932C37",
"#+	c #BB4D43",
"$+	c #C9887D",
"%+	c #CF978C",
"&+	c #AC302B",
"*+	c #8F3A44",
"=+	c #C46672",
"-+	c #B96D7C",
";+	c #C67483",
">+	c #090103",
",+	c #020404",
"'+	c #223131",
")+	c #86C0B8",
"!+	c #6FB3BD",
"~+	c #4B91AD",
"{+	c #478EAC",
"]+	c #3C738B",
"^+	c #162F3A",
"/+	c #010203",
"(+	c #161004",
"_+	c #433515",
":+	c #463717",
"<+	c #211707",
"[+	c #4B6863",
"}+	c #7CB1AA",
"|+	c #92D4CB",
"1+	c #96DBD1",
"2+	c #A1D7CE",
"3+	c #89A8A1",
"4+	c #58525E",
"5+	c #56244B",
"6+	c #8D2E3A",
"7+	c #BF655B",
"8+	c #C37167",
"9+	c #B63327",
"0+	c #A9322B",
"a+	c #8A3D44",
"b+	c #C2636E",
"c+	c #B26572",
"d+	c #CC6E7B",
"e+	c #4D333B",
"f+	c #111D1B",
"g+	c #628E88",
"h+	c #85C7C6",
"i+	c #5499B1",
"j+	c #488FAD",
"k+	c #427E98",
"l+	c #244757",
"m+	c #07131A",
"n+	c #302811",
"o+	c #755B26",
"p+	c #A1732F",
"q+	c #B9792B",
"r+	c #C37722",
"s+	c #C2731C",
"t+	c #B76B1C",
"u+	c #945719",
"v+	c #53300C",
"w+	c #101817",
"x+	c #456460",
"y+	c #6A9892",
"z+	c #81BBB3",
"A+	c #90D1C7",
"B+	c #94D9D0",
"C+	c #98DCD2",
"D+	c #96CDC4",
"E+	c #799696",
"F+	c #4E475F",
"G+	c #742E46",
"H+	c #A7312E",
"I+	c #B73429",
"J+	c #B7362B",
"K+	c #B23B29",
"L+	c #A04F32",
"M+	c #A15E50",
"N+	c #C56A79",
"O+	c #9A4950",
"P+	c #C8636E",
"Q+	c #6D4E56",
"R+	c #44635F",
"S+	c #85C2BE",
"T+	c #65A9B7",
"U+	c #498FAB",
"V+	c #4588A6",
"W+	c #38667A",
"X+	c #10242B",
"Y+	c #2D2611",
"Z+	c #7C5F29",
"`+	c #B07A2F",
" @	c #CB822A",
".@	c #DA8629",
"+@	c #E48725",
"@@	c #E7841E",
"#@	c #E7811A",
"$@	c #E4801C",
"%@	c #D5791B",
"&@	c #B36517",
"*@	c #713E0E",
"=@	c #040100",
"-@	c #1D1406",
";@	c #4C2F0F",
">@	c #39210A",
",@	c #130802",
"'@	c #2B3F3C",
")@	c #658F8A",
"!@	c #89C5BC",
"~@	c #94D8CF",
"{@	c #98DAD1",
"]@	c #8DC4BD",
"^@	c #6C8785",
"/@	c #623B42",
"(@	c #823436",
"_@	c #9E2F2B",
":@	c #AE3228",
"<@	c #AE3226",
"[@	c #A94329",
"}@	c #B56630",
"|@	c #C17532",
"1@	c #B56C5A",
"2@	c #D28094",
"3@	c #8C4A44",
"4@	c #BA6069",
"5@	c #7C6A70",
"6@	c #77AEA9",
"7@	c #73B5BF",
"8@	c #4B92AC",
"9@	c #478EAB",
"0@	c #468AA7",
"a@	c #3D738A",
"b@	c #122A33",
"c@	c #030201",
"d@	c #685324",
"e@	c #A8772F",
"f@	c #CC842E",
"g@	c #E08929",
"h@	c #E6851F",
"i@	c #E27F1A",
"j@	c #D7781A",
"k@	c #CB701B",
"l@	c #C66E1E",
"m@	c #CA701D",
"n@	c #D6771A",
"o@	c #DB7A1B",
"p@	c #B96816",
"q@	c #6A3A0D",
"r@	c #57421B",
"s@	c #AB8134",
"t@	c #C09037",
"u@	c #B47525",
"v@	c #794813",
"w@	c #301904",
"x@	c #000100",
"y@	c #567975",
"z@	c #86C2B9",
"A@	c #95DAD0",
"B@	c #96DBD2",
"C@	c #95DBD2",
"D@	c #94D8CE",
"E@	c #84B2AA",
"F@	c #84705E",
"G@	c #9C5C2F",
"H@	c #AC602B",
"I@	c #BD652E",
"J@	c #C3723B",
"K@	c #C98039",
"L@	c #D0802E",
"M@	c #CD772C",
"N@	c #B46961",
"O@	c #E090A7",
"P@	c #985940",
"Q@	c #B5664E",
"R@	c #856E67",
"S@	c #75B5BC",
"T@	c #5095AF",
"U@	c #468CA9",
"V@	c #43849F",
"W@	c #356579",
"X@	c #0F232B",
"Y@	c #2D250E",
"Z@	c #8C692E",
"`@	c #BE822F",
" #	c #DD8B2C",
".#	c #E68520",
"+#	c #DB7A19",
"@#	c #C26C1E",
"##	c #AA5D27",
"$#	c #9A512B",
"%#	c #93492D",
"&#	c #92472D",
"*#	c #97492B",
"=#	c #A05129",
"-#	c #B15F25",
";#	c #BF6A1E",
">#	c #A65D17",
",#	c #4B2808",
"'#	c #9F823A",
")#	c #E2A841",
"!#	c #ECB84A",
"~#	c #E8AC42",
"{#	c #C78128",
"]#	c #7A4811",
"^#	c #2C1603",
"/#	c #39514E",
"(#	c #66958D",
"_#	c #7EB7AF",
":#	c #89C6BE",
"<#	c #8ECFC6",
"[#	c #93D7CD",
"}#	c #91CCC2",
"|#	c #AFA689",
"1#	c #CA8432",
"2#	c #BA772D",
"3#	c #B87832",
"4#	c #D09C58",
"5#	c #E6B871",
"6#	c #E2A14E",
"7#	c #C26F2E",
"8#	c #AD6565",
"9#	c #E997AF",
"0#	c #A45F3D",
"a#	c #BD6A2B",
"b#	c #835D47",
"c#	c #5292A8",
"d#	c #468EAB",
"e#	c #4789A6",
"f#	c #336276",
"g#	c #2B576A",
"h#	c #18303B",
"i#	c #030A0E",
"j#	c #4E3F1C",
"k#	c #A07430",
"l#	c #D08A32",
"m#	c #E38825",
"n#	c #E17F1C",
"o#	c #C96E1E",
"p#	c #AF5A25",
"q#	c #9A4529",
"r#	c #8F322C",
"s#	c #932C2F",
"t#	c #9B2D2F",
"u#	c #9F2E2E",
"v#	c #9F2E2D",
"w#	c #9D2D2D",
"x#	c #9D362A",
"y#	c #A94C26",
"z#	c #AA5820",
"A#	c #7A4516",
"B#	c #180C03",
"C#	c #C19740",
"D#	c #E8AE42",
"E#	c #ECBA4A",
"F#	c #ECBD4C",
"G#	c #E9A93E",
"H#	c #BF7723",
"I#	c #63370C",
"J#	c #100601",
"K#	c #273936",
"L#	c #466661",
"M#	c #59817B",
"N#	c #72A39D",
"O#	c #8CCAC1",
"P#	c #99D8CC",
"Q#	c #C0C5A2",
"R#	c #D9A44F",
"S#	c #B68137",
"T#	c #9C693B",
"U#	c #AB8C60",
"V#	c #B7A274",
"W#	c #BF9A5A",
"X#	c #B5783A",
"Y#	c #A66468",
"Z#	c #EC9AB3",
"`#	c #91573A",
" $	c #9D5824",
".$	c #8C5B3A",
"+$	c #427B94",
"@$	c #468EAC",
"#$	c #447F99",
"$$	c #0A1A22",
"%$	c #5D4B20",
"&$	c #AD7C32",
"*$	c #DA8F32",
"=$	c #E5861F",
"-$	c #DD7A1B",
";$	c #C86720",
">$	c #AC4B25",
",$	c #A1352A",
"'$	c #A8302A",
")$	c #B03229",
"!$	c #AF3228",
"~$	c #A63C26",
"{$	c #8E4220",
"]$	c #371C0E",
"^$	c #040203",
"/$	c #C99D41",
"($	c #E9BA4B",
"_$	c #ECBE4D",
":$	c #ECBD4D",
"<$	c #E39B3A",
"[$	c #9C5F1E",
"}$	c #482715",
"|$	c #13070E",
"1$	c #030103",
"2$	c #11020A",
"3$	c #465B5A",
"4$	c #73968F",
"5$	c #8CADA0",
"6$	c #BAA882",
"7$	c #D49849",
"8$	c #BB813B",
"9$	c #AE7348",
"0$	c #A87657",
"a$	c #9A6D53",
"b$	c #A87547",
"c$	c #BA7C40",
"d$	c #B0725C",
"e$	c #D1888E",
"f$	c #975B34",
"g$	c #885326",
"h$	c #B97C3D",
"i$	c #39667B",
"j$	c #3B768E",
"k$	c #2D576A",
"l$	c #040F14",
"m$	c #5C4C21",
"n$	c #B48235",
"o$	c #DF8F30",
"p$	c #DE771C",
"q$	c #C76022",
"r$	c #B44126",
"s$	c #B43428",
"t$	c #B43227",
"u$	c #A33025",
"v$	c #71251C",
"w$	c #1D0505",
"x$	c #372D14",
"y$	c #D8B24D",
"z$	c #EBC250",
"A$	c #ECC351",
"B$	c #EECE7D",
"C$	c #EDCA6F",
"D$	c #ECB966",
"E$	c #CA833A",
"F$	c #763F25",
"G$	c #2E1522",
"H$	c #170B16",
"I$	c #1A0613",
"J$	c #370E24",
"K$	c #47142E",
"L$	c #491A32",
"M$	c #563536",
"N$	c #8A5A35",
"O$	c #C4772F",
"P$	c #CA7625",
"Q$	c #B8773D",
"R$	c #D69559",
"S$	c #DA955B",
"T$	c #D4915B",
"U$	c #D58D50",
"V$	c #D88F50",
"W$	c #D19054",
"X$	c #CC8B56",
"Y$	c #C9864B",
"Z$	c #A66D37",
"`$	c #C88C3C",
" %	c #223F4B",
".%	c #203D49",
"+%	c #03070B",
"@%	c #4E3F1D",
"#%	c #B28335",
"$%	c #E29130",
"%%	c #E8841E",
"&%	c #DF761F",
"*%	c #CA5B24",
"=%	c #B93D27",
"-%	c #B83327",
";%	c #A02D24",
">%	c #621A15",
",%	c #050101",
"'%	c #635428",
")%	c #E5BD50",
"!%	c #ECC252",
"~%	c #F3E3B1",
"{%	c #F2DDA6",
"]%	c #F1D49A",
"^%	c #E39D5B",
"/%	c #95562F",
"(%	c #522532",
"_%	c #41192F",
":%	c #381527",
"<%	c #471831",
"[%	c #541D38",
"}%	c #511E37",
"|%	c #462131",
"1%	c #7E4A29",
"2%	c #AF6A28",
"3%	c #9F6227",
"4%	c #9D6D41",
"5%	c #DA9D61",
"6%	c #EBA865",
"7%	c #EBA764",
"8%	c #E8A462",
"9%	c #E09E5D",
"0%	c #DB9959",
"a%	c #E7A462",
"b%	c #E0A161",
"c%	c #9F7344",
"d%	c #A27547",
"e%	c #623539",
"f%	c #66363A",
"g%	c #5D3236",
"h%	c #44362D",
"i%	c #A67E39",
"j%	c #E19332",
"k%	c #E6841D",
"l%	c #E27D24",
"m%	c #CA5C27",
"n%	c #BA3B27",
"o%	c #B33227",
"p%	c #972D26",
"q%	c #4C2020",
"r%	c #6C5729",
"s%	c #E5B94C",
"t%	c #EBC251",
"u%	c #ECC251",
"v%	c #F5E5BA",
"w%	c #F8EECE",
"x%	c #F4E1B4",
"y%	c #EBB377",
"z%	c #AF733D",
"A%	c #6B3733",
"B%	c #4E1D36",
"C%	c #3E1C32",
"D%	c #2E1D35",
"E%	c #2E203C",
"F%	c #2B223F",
"G%	c #251D36",
"H%	c #2E1828",
"I%	c #371B23",
"J%	c #2E1920",
"K%	c #614432",
"L%	c #AF7E50",
"M%	c #DE9F61",
"N%	c #EAA764",
"O%	c #E6A362",
"P%	c #DA995D",
"Q%	c #D29157",
"R%	c #D9995F",
"S%	c #C98B5C",
"T%	c #A06449",
"U%	c #9F514E",
"V%	c #A54D50",
"W%	c #A6494B",
"X%	c #974547",
"Y%	c #9A876E",
"Z%	c #DEA349",
"`%	c #E68E27",
" &	c #E58525",
".&	c #CE692D",
"+&	c #BB4028",
"@&	c #FFFFFF",
"#&	c #B13935",
"$&	c #8E4144",
"%&	c #291A1F",
"&&	c #482D0E",
"*&	c #DEA23D",
"=&	c #EBBE4E",
"-&	c #ECC350",
";&	c #F1D693",
">&	c #F9EECD",
",&	c #F1DFAB",
"'&	c #EEC791",
")&	c #C58B54",
"!&	c #724229",
"~&	c #2D1C35",
"{&	c #262242",
"]&	c #252A50",
"^&	c #242C54",
"/&	c #232C55",
"(&	c #202547",
"_&	c #32192D",
":&	c #441D24",
"<&	c #532B1B",
"[&	c #674320",
"}&	c #82613A",
"|&	c #AA7C50",
"1&	c #CC9159",
"2&	c #D4935A",
"3&	c #D28F5B",
"4&	c #C98553",
"5&	c #BD7951",
"6&	c #AC5349",
"7&	c #C0575C",
"8&	c #D26B79",
"9&	c #C35053",
"0&	c #B63429",
"a&	c #A46059",
"b&	c #DED2B5",
"c&	c #E9B658",
"d&	c #E89E37",
"e&	c #D88033",
"f&	c #BC4729",
"g&	c #BB3E3B",
"h&	c #B7575E",
"i&	c #754E5B",
"j&	c #0B0301",
"k&	c #C27521",
"l&	c #E5A73E",
"m&	c #E9B94C",
"n&	c #ECC355",
"o&	c #F2D899",
"p&	c #F0D38A",
"q&	c #F1D19F",
"r&	c #D49562",
"s&	c #79452A",
"t&	c #242649",
"u&	c #242C55",
"v&	c #232E59",
"w&	c #212C56",
"x&	c #212A52",
"y&	c #1F284B",
"z&	c #553235",
"A&	c #854A21",
"B&	c #A56828",
"C&	c #BD8A36",
"D&	c #B18F4A",
"E&	c #72644C",
"F&	c #6B4634",
"G&	c #894F37",
"H&	c #924736",
"I&	c #964434",
"J&	c #953130",
"K&	c #9D3439",
"L&	c #B45B69",
"M&	c #DC869E",
"N&	c #C85A61",
"O&	c #AD372D",
"P&	c #BEB1A8",
"Q&	c #F9F3DD",
"R&	c #EFD38B",
"S&	c #E5AD51",
"T&	c #C36032",
"U&	c #B83829",
"V&	c #BB3E3A",
"W&	c #C86570",
"X&	c #BD7D93",
"Y&	c #201417",
"Z&	c #8A4D14",
"`&	c #D77B1E",
" *	c #E09A39",
".*	c #E5B047",
"+*	c #E9B64A",
"@*	c #EBB94C",
"#*	c #EEC784",
"$*	c #DA9554",
"%*	c #7E4624",
"&*	c #222649",
"**	c #222B53",
"=*	c #202A50",
"-*	c #222C54",
";*	c #20294E",
">*	c #372941",
",*	c #975837",
"'*	c #D2853C",
")*	c #E2A54A",
"!*	c #EABB4D",
"~*	c #E1BD61",
"{*	c #B39E6F",
"]*	c #66554D",
"^*	c #371524",
"/*	c #481923",
"(*	c #76252F",
"_*	c #702536",
":*	c #60263A",
"<*	c #6F3448",
"[*	c #8B3B49",
"}*	c #B4362B",
"|*	c #9D5B51",
"1*	c #EBE3CD",
"2*	c #F5E5BD",
"3*	c #F2DFA9",
"4*	c #D18D54",
"5*	c #BB432D",
"6*	c #BF4747",
"7*	c #DB7A8B",
"8*	c #E395AF",
"9*	c #60404B",
"0*	c #291706",
"a*	c #B36417",
"b*	c #D4761C",
"c*	c #D98027",
"d*	c #E18E30",
"e*	c #E69B35",
"f*	c #E8B456",
"g*	c #DA9039",
"h*	c #7F4616",
"i*	c #1D182F",
"j*	c #21274C",
"k*	c #1E2546",
"l*	c #242342",
"m*	c #2E2748",
"n*	c #61363B",
"o*	c #B97C58",
"p*	c #E8B483",
"q*	c #E8C380",
"r*	c #E5B95A",
"s*	c #E4B555",
"t*	c #D7AF6C",
"u*	c #A78B77",
"v*	c #5D3A43",
"w*	c #47142C",
"x*	c #772347",
"y*	c #6D2247",
"z*	c #672241",
"A*	c #612239",
"B*	c #732635",
"C*	c #B34331",
"D*	c #AE9478",
"E*	c #F0D197",
"F*	c #EBBD5B",
"G*	c #E7BB6B",
"H*	c #BF5836",
"I*	c #B73527",
"J*	c #B93831",
"K*	c #CB5F69",
"L*	c #F296AF",
"M*	c #F09BB8",
"N*	c #A36C7E",
"O*	c #432409",
"P*	c #A65F17",
"Q*	c #D0751D",
"R*	c #DD7E20",
"S*	c #E09A38",
"T*	c #E7AE43",
"U*	c #D5892C",
"V*	c #7A410E",
"W*	c #0B050C",
"X*	c #100F1D",
"Y*	c #191322",
"Z*	c #3D1B36",
"`*	c #4F203B",
" =	c #7A3F41",
".=	c #CA9C92",
"+=	c #EEC8BA",
"@=	c #DCB09C",
"#=	c #CD8963",
"$=	c #C66E3F",
"%=	c #C3633D",
"&=	c #C2695D",
"*=	c #AB6772",
"==	c #6B314C",
"-=	c #8A1D60",
";=	c #921D66",
">=	c #861F5B",
",=	c #712A3D",
"'=	c #974330",
")=	c #B25A2A",
"!=	c #D0A25B",
"~=	c #EBA53D",
"{=	c #E79931",
"]=	c #D5863D",
"^=	c #BA422A",
"/=	c #BF4748",
"(=	c #DD7B8D",
"_=	c #FBA3C1",
":=	c #F6A0BD",
"<=	c #CC869E",
"[=	c #0E0709",
"}=	c #0B0604",
"|=	c #76431F",
"1=	c #B1722C",
"2=	c #DAAC48",
"3=	c #E2A840",
"4=	c #BC7827",
"5=	c #65360C",
"6=	c #1B0713",
"7=	c #531A36",
"8=	c #662741",
"9=	c #995A6E",
"0=	c #DB8EA7",
"a=	c #E4899E",
"b=	c #C04A4C",
"c=	c #BA3C38",
"d=	c #BC555D",
"e=	c #A26072",
"f=	c #7B1C55",
"g=	c #972366",
"h=	c #9F3462",
"i=	c #A34E3F",
"j=	c #CC7022",
"k=	c #A96F2B",
"l=	c #E59B38",
"m=	c #E88E26",
"n=	c #E67F1C",
"o=	c #C25028",
"p=	c #B93527",
"q=	c #C14D50",
"r=	c #E28296",
"s=	c #FCA3C1",
"t=	c #FAA3C1",
"u=	c #E396B0",
"v=	c #3B272D",
"w=	c #25130A",
"x=	c #884D18",
"y=	c #BA832F",
"z=	c #B57728",
"A=	c #734715",
"B=	c #281505",
"C=	c #240716",
"D=	c #521A34",
"E=	c #74374F",
"F=	c #C77D97",
"G=	c #F79EBC",
"H=	c #EB8EA6",
"I=	c #CD626D",
"J=	c #B8372F",
"K=	c #C14B4E",
"L=	c #CD6A77",
"M=	c #BB6F7C",
"N=	c #562C1B",
"O=	c #7A3C25",
"P=	c #A95C29",
"Q=	c #CA712A",
"R=	c #AF6630",
"S=	c #A27E38",
"T=	c #E78C24",
"U=	c #E78118",
"V=	c #E2781B",
"W=	c #BA3C27",
"X=	c #D46D7C",
"Y=	c #F9A0BC",
"Z=	c #ED99B6",
"`=	c #714E59",
" -	c #010103",
".-	c #3D1227",
"+-	c #794056",
"@-	c #C87C94",
"#-	c #E5899F",
"$-	c #CC606B",
"%-	c #B93832",
"&-	c #BB423F",
"*-	c #CB6671",
"=-	c #CF7C8F",
"--	c #A06370",
";-	c #523028",
">-	c #7A4725",
",-	c #71422D",
"'-	c #403248",
")-	c #403B54",
"!-	c #BB8E3F",
"~-	c #E88118",
"{-	c #E78117",
"]-	c #DA6E1D",
"^-	c #BA3A27",
"/-	c #C35258",
"(-	c #EA8DA2",
"_-	c #EF9BB8",
":-	c #8F6170",
"<-	c #020001",
"[-	c #2E0F1C",
"}-	c #7E3A47",
"|-	c #AA4349",
"1-	c #B33229",
"2-	c #B6342A",
"3-	c #B5362F",
"4-	c #B04041",
"5-	c #AB545D",
"6-	c #8C5360",
"7-	c #2C1A2C",
"8-	c #28192C",
"9-	c #311A2D",
"0-	c #371F2B",
"a-	c #101428",
"b-	c #41343B",
"c-	c #CA8F38",
"d-	c #E78017",
"e-	c #D2631F",
"f-	c #B93827",
"g-	c #B83228",
"h-	c #B73933",
"i-	c #BA403E",
"j-	c #C5575F",
"k-	c #E5869B",
"l-	c #F09CB8",
"m-	c #9D697A",
"n-	c #18060A",
"o-	c #5B1B20",
"p-	c #902B2A",
"q-	c #A52F2A",
"r-	c #A93A3A",
"s-	c #AC4D53",
"t-	c #99505A",
"u-	c #663A47",
"v-	c #31192B",
"w-	c #2C1727",
"x-	c #2D1725",
"y-	c #502B33",
"z-	c #6F444D",
"A-	c #30181D",
"B-	c #492E19",
"C-	c #D8903B",
"D-	c #E57F19",
"E-	c #CA5822",
"F-	c #B83728",
"G-	c #B53327",
"H-	c #B23228",
"I-	c #B03228",
"J-	c #AB3229",
"K-	c #A5302A",
"L-	c #A43836",
"M-	c #A9484B",
"N-	c #AF5B66",
"O-	c #C6788A",
"P-	c #DF8EA7",
"Q-	c #F59EBB",
"R-	c #FAA2C1",
"S-	c #F29DB9",
"T-	c #A86E82",
"U-	c #030001",
"V-	c #050102",
"W-	c #110604",
"X-	c #21111A",
"Y-	c #4F1C27",
"Z-	c #712528",
"`-	c #6B2429",
" ;	c #441B28",
".;	c #35192C",
"+;	c #461F31",
"@;	c #3E1E2A",
"#;	c #331B29",
"$;	c #632129",
"%;	c #A53633",
"&;	c #A33D3F",
"*;	c #9E5762",
"=;	c #825550",
"-;	c #CF8A42",
";;	c #D17125",
">;	c #E47E1A",
",;	c #C65125",
"';	c #B83627",
");	c #B63228",
"!;	c #B43228",
"~;	c #B1332A",
"{;	c #A8312A",
"];	c #9B2E2B",
"^;	c #8C2A2B",
"/;	c #7C262B",
"(;	c #6C232D",
"_;	c #5B212E",
":;	c #481D2F",
"<;	c #3D1B30",
"[;	c #3C1C31",
"};	c #3A1C31",
"|;	c #371B30",
"1;	c #31192E",
"2;	c #40273A",
"3;	c #8B5B70",
"4;	c #E295B1",
"5;	c #F19DB8",
"6;	c #AC7083",
"7;	c #040002",
"8;	c #080204",
"9;	c #12040B",
"0;	c #270A19",
"a;	c #31101D",
"b;	c #32141C",
"c;	c #5F3725",
"d;	c #683928",
"e;	c #491A23",
"f;	c #3B1825",
"g;	c #341828",
"h;	c #471F2D",
"i;	c #552B36",
"j;	c #5D3B3C",
"k;	c #64422E",
"l;	c #783C24",
"m;	c #992C26",
"n;	c #A4312B",
"o;	c #B73229",
"p;	c #AA322C",
"q;	c #80472F",
"r;	c #D0883E",
"s;	c #C56B2C",
"t;	c #D07225",
"u;	c #C04626",
"v;	c #B73427",
"w;	c #B43329",
"x;	c #AE312A",
"y;	c #5B2234",
"z;	c #562136",
"A;	c #5C2338",
"B;	c #532136",
"C;	c #452438",
"D;	c #8C5A6E",
"E;	c #EC9AB6",
"F;	c #A76D81",
"G;	c #2B051E",
"H;	c #521137",
"I;	c #692649",
"J;	c #7C3D59",
"K;	c #6D334A",
"L;	c #531E33",
"M;	c #5A1F2B",
"N;	c #812928",
"O;	c #9E2F2A",
"P;	c #A8312B",
"Q;	c #A2312A",
"R;	c #A4552A",
"S;	c #CA8B47",
"T;	c #E5B075",
"U;	c #E2B783",
"V;	c #C88A45",
"W;	c #9B572C",
"X;	c #AB332B",
"Y;	c #AD312B",
"Z;	c #B43527",
"`;	c #984C2C",
" >	c #D0863D",
".>	c #C66B2B",
"+>	c #C66C29",
"@>	c #A3392C",
"#>	c #8F2C31",
"$>	c #7D2835",
"%>	c #6C2436",
"&>	c #5F2339",
"*>	c #5D2339",
"=>	c #562037",
"->	c #704558",
";>	c #CE87A0",
">>	c #9D677A",
",>	c #17030F",
"'>	c #661147",
")>	c #881B5F",
"!>	c #6F1E4B",
"~>	c #4C1B30",
"{>	c #371422",
"]>	c #200A12",
"^>	c #250E16",
"/>	c #762526",
"(>	c #A7312A",
"_>	c #B1322A",
":>	c #AA312C",
"<>	c #9F3028",
"[>	c #752E24",
"}>	c #402E2B",
"|>	c #402F30",
"1>	c #4F2829",
"2>	c #802A25",
"3>	c #A9302B",
"4>	c #B63329",
"5>	c #AD352A",
"6>	c #84492E",
"7>	c #D0873D",
"8>	c #C66C2A",
"9>	c #C46C2D",
"0>	c #772D38",
"a>	c #62243A",
"b>	c #602339",
"c>	c #5E2338",
"d>	c #5A2238",
"e>	c #713F55",
"f>	c #B87891",
"g>	c #8F606F",
"h>	c #210416",
"i>	c #781556",
"j>	c #8A1964",
"k>	c #631246",
"l>	c #2E071F",
"m>	c #12040A",
"n>	c #0E040D",
"o>	c #1A0B14",
"p>	c #431928",
"q>	c #872A2E",
"r>	c #AF322A",
"s>	c #BA3C36",
"t>	c #BB3E39",
"u>	c #9B2D2C",
"v>	c #732328",
"w>	c #241628",
"x>	c #25162A",
"y>	c #4B1A23",
"z>	c #8C2923",
"A>	c #A6312E",
"B>	c #B5332A",
"C>	c #A42F2E",
"D>	c #772934",
"E>	c #6C4234",
"F>	c #D1883F",
"G>	c #C56B2E",
"H>	c #782B3F",
"I>	c #60233A",
"J>	c #743E52",
"K>	c #AB6F84",
"L>	c #6C4853",
"M>	c #180511",
"N>	c #791656",
"O>	c #8A1A62",
"P>	c #580E3D",
"Q>	c #230417",
"R>	c #150A16",
"S>	c #140A1C",
"T>	c #1A0C1C",
"U>	c #391725",
"V>	c #532034",
"W>	c #742736",
"X>	c #9E302F",
"Y>	c #D57283",
"Z>	c #DF7D91",
"`>	c #A93D3F",
" ,	c #78272F",
".,	c #4F1C2D",
"+,	c #1C0F22",
"@,	c #180D1F",
"#,	c #43131E",
"$,	c #7F2626",
"%,	c #8B2C30",
"&,	c #852933",
"*,	c #6A2438",
"=,	c #5E2437",
"-,	c #623831",
";,	c #D08D42",
">,	c #C56C2A",
",,	c #C66B2D",
"',	c #863444",
"),	c #62233A",
"!,	c #733D50",
"~,	c #A0697B",
"{,	c #2A1A1F",
"],	c #040204",
"^,	c #6C134D",
"/,	c #8B1963",
"(,	c #5B0E3F",
"_,	c #230418",
":,	c #1A0F1D",
"<,	c #1C1023",
"[,	c #170B20",
"},	c #26111F",
"|,	c #491C2F",
"1,	c #5B2238",
"2,	c #622339",
"3,	c #6D2537",
"4,	c #AA6175",
"5,	c #B86D83",
"6,	c #783745",
"7,	c #531F2F",
"8,	c #411829",
"9,	c #12091B",
"0,	c #12081A",
"a,	c #2B0F21",
"b,	c #501D2A",
"c,	c #5B2132",
"d,	c #622437",
"e,	c #5C2337",
"f,	c #5F3131",
"g,	c #BE813D",
"h,	c #964047",
"i,	c #63263A",
"j,	c #60213A",
"k,	c #6C3649",
"l,	c #8B5867",
"m,	c #050203",
"n,	c #520F3A",
"o,	c #8D1A66",
"p,	c #671149",
"q,	c #2B051D",
"r,	c #1A0E1B",
"s,	c #180C21",
"t,	c #14091C",
"u,	c #381727",
"v,	c #542035",
"w,	c #6D3246",
"x,	c #6F3649",
"y,	c #5A2537",
"z,	c #4B1C2E",
"A,	c #311222",
"B,	c #12081B",
"C,	c #160B1F",
"D,	c #210F22",
"E,	c #3E1728",
"F,	c #582136",
"G,	c #521F32",
"H,	c #5D2338",
"I,	c #643036",
"J,	c #AD7A3B",
"K,	c #A74B48",
"L,	c #66273A",
"M,	c #7E2057",
"N,	c #6E2447",
"O,	c #60223B",
"P,	c #612C3D",
"Q,	c #5F3B45",
"R,	c #220617",
"S,	c #86175F",
"T,	c #7E175A",
"U,	c #3E082A",
"V,	c #160A16",
"W,	c #1C1022",
"X,	c #190C22",
"Y,	c #15091F",
"Z,	c #1E0D1E",
"`,	c #481930",
" '	c #5B2139",
".'	c #5E233A",
"+'	c #60233B",
"@'	c #692142",
"#'	c #6B2145",
"$'	c #5C203A",
"%'	c #512032",
"&'	c #471B2D",
"*'	c #1A0A19",
"='	c #160A1C",
"-'	c #1F1225",
";'	c #201125",
">'	c #2E1123",
",'	c #511F32",
"''	c #5A2236",
")'	c #5E2239",
"!'	c #622C3A",
"~'	c #91663B",
"{'	c #C56D2B",
"]'	c #B75941",
"^'	c #702940",
"/'	c #89235E",
"('	c #B15483",
"_'	c #802959",
":'	c #65223F",
"<'	c #522233",
"['	c #241418",
"}'	c #030203",
"|'	c #5C113F",
"1'	c #921A69",
"2'	c #580E3E",
"3'	c #1D0514",
"4'	c #1D1122",
"5'	c #1A0E22",
"6'	c #160A1F",
"7'	c #15091E",
"8'	c #271020",
"9'	c #4E1A34",
"0'	c #5D213B",
"a'	c #62233D",
"b'	c #772051",
"c'	c #8A1D62",
"d'	c #851C5E",
"e'	c #6D1D4B",
"f'	c #501C33",
"g'	c #30101D",
"h'	c #060208",
"i'	c #0D0711",
"j'	c #1E1222",
"k'	c #23152A",
"l'	c #200E21",
"m'	c #391525",
"n'	c #532033",
"o'	c #592237",
"p'	c #602438",
"q'	c #663D32",
"r'	c #C17233",
"s'	c #C46C29",
"t'	c #C26634",
"u'	c #832E4A",
"v'	c #86205B",
"w'	c #E087AB",
"x'	c #AB477C",
"y'	c #851E5C",
"z'	c #582135",
"A'	c #35141F",
"B'	c #020202",
"C'	c #671449",
"D'	c #931C69",
"E'	c #731751",
"F'	c #37112B",
"G'	c #1D1124",
"H'	c #180B21",
"I'	c #2B1222",
"J'	c #511B37",
"K'	c #5F203C",
"L'	c #74204D",
"M'	c #8D1D64",
"N'	c #921B6A",
"O'	c #801B5C",
"P'	c #631C44",
"Q'	c #45152E",
"R'	c #110408",
"S'	c #050306",
"T'	c #180E1C",
"U'	c #26172C",
"V'	c #221429",
"W'	c #220F22",
"X'	c #3A1527",
"Y'	c #522032",
"Z'	c #552034",
"`'	c #5E2936",
" )	c #A76732",
".)	c #C46C2A",
"+)	c #C46C2B",
"@)	c #A1434C",
"#)	c #812454",
"$)	c #B85789",
"%)	c #EE93B7",
"&)	c #6E2147",
"*)	c #60223A",
"=)	c #4A1C2D",
"-)	c #130409",
";)	c #380726",
">)	c #520C39",
",)	c #480F33",
"')	c #2C142A",
"))	c #1B0E22",
"!)	c #2D1322",
"~)	c #551A3A",
"{)	c #651F42",
"])	c #821E5A",
"^)	c #911B69",
"/)	c #821C5D",
"()	c #6D1C4B",
"_)	c #531538",
":)	c #220715",
"<)	c #110A14",
"[)	c #241629",
"})	c #26182C",
"|)	c #231529",
"1)	c #241224",
"2)	c #361526",
"3)	c #4C1D2E",
"4)	c #532232",
"5)	c #734529",
"6)	c #C36C2B",
"7)	c #C56C29",
"8)	c #B95B42",
"9)	c #842A51",
"0)	c #9F2A70",
"a)	c #B85388",
"b)	c #BB578A",
"c)	c #A53177",
"d)	c #9E1A71",
"e)	c #9B1A6E",
"f)	c #8B1D60",
"g)	c #6F2148",
"h)	c #551F33",
"i)	c #2D101B",
"j)	c #040101",
"k)	c #020102",
"l)	c #060306",
"m)	c #1C0F1E",
"n)	c #1D1024",
"o)	c #2D1221",
"p)	c #5A1A3F",
"q)	c #6E1E4C",
"r)	c #811D5B",
"s)	c #801C5B",
"t)	c #6F1C4D",
"u)	c #58173B",
"v)	c #2D081D",
"w)	c #0A040A",
"x)	c #211220",
"y)	c #2D192D",
"z)	c #27182D",
"A)	c #25162B",
"B)	c #251428",
"C)	c #321528",
"D)	c #42192B",
"E)	c #582930",
"F)	c #AB6029",
"G)	c #C56B2A",
"H)	c #C36931",
"I)	c #9B3C51",
"J)	c #962066",
"K)	c #9D1A6F",
"L)	c #9E1A70",
"M)	c #9B1B6D",
"N)	c #8A1D5F",
"O)	c #592136",
"P)	c #3F1726",
"Q)	c #0D0306",
"R)	c #6A2020",
"S)	c #611E26",
"T)	c #3A151E",
"U)	c #201021",
"V)	c #531A39",
"W)	c #6C1D4B",
"X)	c #741D52",
"Y)	c #6E1C4D",
"Z)	c #56163B",
"`)	c #2F091F",
" !	c #030102",
".!	c #140710",
"+!	c #291424",
"@!	c #311A2E",
"#!	c #28182D",
"$!	c #301728",
"%!	c #601F27",
"&!	c #55212F",
"*!	c #774123",
"=!	c #C16A2C",
"-!	c #B65944",
";!	c #972A5F",
">!	c #9C1A6E",
",!	c #9A1B6D",
"'!	c #861E5D",
")!	c #6A2245",
"!!	c #1D0910",
"~!	c #3B100E",
"{!	c #7F292F",
"]!	c #6A2536",
"^!	c #562033",
"/!	c #431A2B",
"(!	c #240E1F",
"_!	c #17091E",
":!	c #1D0C1D",
"<!	c #521937",
"[!	c #6D1D4A",
"}!	c #661B46",
"|!	c #4D1335",
"1!	c #050103",
"2!	c #160810",
"3!	c #28121F",
"4!	c #2E192F",
"5!	c #27182E",
"6!	c #361727",
"7!	c #8F2A25",
"8!	c #742630",
"9!	c #59272F",
"0!	c #A45C29",
"a!	c #C46B2A",
"b!	c #C26831",
"c!	c #A94554",
"d!	c #9F236C",
"e!	c #981B6C",
"f!	c #801F57",
"g!	c #66223F",
"h!	c #5F2239",
"i!	c #5C2036",
"j!	c #481921",
"k!	c #5C1D17",
"l!	c #7B2834",
"m!	c #622439",
"n!	c #4A1C2E",
"o!	c #2B1021",
"p!	c #1C0C1D",
"q!	c #18091C",
"r!	c #190B1E",
"s!	c #1C0E1C",
"t!	c #3A1328",
"u!	c #4A1331",
"v!	c #3F0D2A",
"w!	c #1F0514",
"x!	c #0E0408",
"y!	c #240F1A",
"z!	c #301628",
"A!	c #371B2F",
"B!	c #421823",
"C!	c #AC3229",
"D!	c #982E2F",
"E!	c #5E2337",
"F!	c #733D2D",
"G!	c #B8662A",
"H!	c #BE603E",
"I!	c #A83862",
"J!	c #9F1E6E",
"K!	c #931C66",
"L!	c #75204D",
"M!	c #6C233A",
"N!	c #6F232C",
"O!	c #401313",
"P!	c #551916",
"Q!	c #832A32",
"R!	c #632439",
"S!	c #5C2238",
"T!	c #441A29",
"U!	c #461A2C",
"V!	c #491B2E",
"W!	c #4A1B2F",
"X!	c #4A1C2F",
"Y!	c #421926",
"Z!	c #290C14",
"`!	c #060102",
" ~	c #060103",
".~	c #1F0A14",
"+~	c #2F1320",
"@~	c #4A1821",
"#~	c #B3342A",
"$~	c #AF3229",
"%~	c #7A2735",
"&~	c #5C2436",
"*~	c #8F4F2B",
"=~	c #BF692B",
"-~	c #C2622D",
";~	c #B23E47",
">~	c #A32364",
",~	c #9E1B6F",
"'~	c #9C1B6E",
")~	c #821F59",
"!~	c #64223F",
"~~	c #5F233A",
"{~	c #63223E",
"]~	c #73233D",
"^~	c #832730",
"/~	c #6F211D",
"(~	c #210605",
"_~	c #300B0A",
":~	c #7A2727",
"<~	c #712636",
"[~	c #61233A",
"}~	c #5F2338",
"|~	c #622438",
"1~	c #4B1D2C",
"2~	c #572135",
"3~	c #5A2135",
"4~	c #561D28",
"5~	c #3A1013",
"6~	c #0F0306",
"7~	c #380F16",
"8~	c #922B25",
"9~	c #AF3128",
"0~	c #A02F2F",
"a~	c #6D2536",
"b~	c #652F32",
"c~	c #9A4F29",
"d~	c #BA512B",
"e~	c #B83A2C",
"f~	c #AE2C49",
"g~	c #A42064",
"h~	c #9F1B6F",
"i~	c #8B1D61",
"j~	c #6C2145",
"k~	c #63223D",
"l~	c #692140",
"m~	c #7B243D",
"n~	c #922A33",
"o~	c #882823",
"p~	c #48130E",
"q~	c #4D1512",
"r~	c #6C2227",
"s~	c #732734",
"t~	c #712637",
"u~	c #62232F",
"v~	c #401B2B",
"w~	c #471E31",
"x~	c #572134",
"y~	c #622435",
"z~	c #6C2635",
"A~	c #762734",
"B~	c #7E292F",
"C~	c #641F20",
"D~	c #2E0908",
"E~	c #140408",
"F~	c #501C24",
"G~	c #84282C",
"H~	c #8B292A",
"I~	c #662330",
"J~	c #531F31",
"K~	c #582225",
"L~	c #9A3827",
"M~	c #B43828",
"N~	c #B6332C",
"O~	c #AF2B48",
"P~	c #A6235E",
"Q~	c #A01C6B",
"R~	c #8D1D62",
"S~	c #72204A",
"T~	c #6A2241",
"U~	c #762341",
"V~	c #8C273C",
"W~	c #972C24",
"X~	c #621B16",
"Y~	c #070101",
"Z~	c #42120F",
"`~	c #601D1F",
" {	c #682129",
".{	c #4C1D26",
"+{	c #31182B",
"@{	c #2E1A2E",
"#{	c #3F1C2E",
"${	c #501F2F",
"%{	c #5E2230",
"&{	c #69232E",
"*{	c #6F242D",
"={	c #631F23",
"-{	c #3B0F0E",
";{	c #050205",
">{	c #231223",
",{	c #532035",
"'{	c #551F31",
"){	c #562132",
"!{	c #2B172A",
"~{	c #5E1E27",
"{{	c #972E26",
"]{	c #B13328",
"^{	c #B6322A",
"/{	c #B22E3D",
"({	c #AC2952",
"_{	c #A7245E",
":{	c #A42165",
"<{	c #A21F68",
"[{	c #A11F68",
"}{	c #96225A",
"|{	c #8B2546",
"1{	c #91293E",
"2{	c #9E2C37",
"3{	c #AA302D",
"4{	c #A12E24",
"5{	c #701F18",
"6{	c #1F0504",
"7{	c #0C0101",
"8{	c #2D0C0A",
"9{	c #26101D",
"0{	c #2E192E",
"a{	c #28182E",
"b{	c #361A2F",
"c{	c #3E1823",
"d{	c #2A0B0B",
"e{	c #190A15",
"f{	c #562238",
"g{	c #5D2438",
"h{	c #562137",
"i{	c #431D33",
"j{	c #2F192D",
"k{	c #5B1F28",
"l{	c #8E2A27",
"m{	c #AC3127",
"n{	c #B6322C",
"o{	c #B32F39",
"p{	c #B02D45",
"q{	c #AE2B4B",
"r{	c #AD2B4C",
"s{	c #AC2C44",
"t{	c #AB2E36",
"u{	c #B0312A",
"v{	c #B33328",
"w{	c #A02E24",
"x{	c #721F19",
"y{	c #2C0907",
"z{	c #0D0307",
"A{	c #331421",
"B{	c #391A2C",
"C{	c #2E192D",
"D{	c #361B2E",
"E{	c #2E141F",
"F{	c #0F0404",
"G{	c #0A0205",
"H{	c #431A29",
"I{	c #592238",
"J{	c #491E34",
"K{	c #4C1C29",
"L{	c #802627",
"M{	c #9E2D26",
"N{	c #AF3127",
"O{	c #AE3126",
"P{	c #972A21",
"Q{	c #6A1D16",
"R{	c #280806",
"S{	c #351523",
"T{	c #361A2E",
"U{	c #2C192E",
"V{	c #351A2E",
"W{	c #270F1C",
"X{	c #1B060E",
"Y{	c #471A2A",
"Z{	c #5D2238",
"`{	c #5C2239",
" ]	c #4F1F35",
".]	c #401C32",
"+]	c #37192C",
"@]	c #602029",
"#]	c #852828",
"$]	c #982C26",
"%]	c #A22E25",
"&]	c #A62E24",
"*]	c #A72E24",
"=]	c #A42D24",
"-]	c #9A2B22",
";]	c #82231D",
">]	c #531411",
",]	c #120302",
"']	c #17060D",
")]	c #361828",
"!]	c #31192D",
"~]	c #371A2E",
"{]	c #290F1D",
"]]	c #0E0407",
"^]	c #381521",
"/]	c #4C1B2D",
"(]	c #562034",
"_]	c #4B1E35",
":]	c #3E1C31",
"<]	c #36192D",
"[]	c #461B27",
"}]	c #5E1C1C",
"|]	c #6C1C15",
"1]	c #6F1D16",
"2]	c #681A16",
"3]	c #491210",
"4]	c #1A0505",
"5]	c #270F1A",
"6]	c #32172A",
"7]	c #2C192D",
"8]	c #2E1323",
"9]	c #11040A",
"0]	c #17070C",
"a]	c #3A1421",
"b]	c #4D1D2F",
"c]	c #5A2137",
"d]	c #5A2239",
"e]	c #532137",
"f]	c #461E33",
"g]	c #31192C",
"h]	c #140B16",
"i]	c #351726",
"j]	c #321A2E",
"k]	c #2C182E",
"l]	c #32182B",
"m]	c #250F1B",
"n]	c #1C0911",
"o]	c #3A1628",
"p]	c #451D31",
"q]	c #481E34",
"r]	c #441D33",
"s]	c #381B30",
"t]	c #2B192D",
"u]	c #170C1A",
"v]	c #331321",
"w]	c #38192C",
"x]	c #2F192C",
"y]	c #29182C",
"z]	c #2D1626",
"A]	c #1A0912",
"B]	c #040205",
"C]	c #190F1D",
"D]	c #27182C",
"E]	c #0B060E",
"F]	c #240605",
"G]	c #48161C",
"H]	c #501D2D",
"I]	c #481C2E",
"J]	c #3A1A2B",
"K]	c #31182C",
"L]	c #39192B",
"M]	c #2E111B",
"N]	c #170E1A",
"O]	c #190E1B",
"P]	c #070409",
"Q]	c #170403",
"R]	c #360C0A",
"S]	c #5D1A19",
"T]	c #7B272D",
"U]	c #6D2637",
"V]	c #4F1E31",
"W]	c #551F2E",
"X]	c #4B1921",
"Y]	c #1E0605",
"Z]	c #030104",
"`]	c #1D1121",
" ^	c #30182A",
".^	c #311118",
"+^	c #090305",
"@^	c #070204",
"#^	c #1B070B",
"$^	c #441515",
"%^	c #732425",
"&^	c #802830",
"*^	c #6B2437",
"=^	c #5B2237",
"-^	c #5B2133",
";^	c #551F27",
">^	c #37120F",
",^	c #140C17",
"'^	c #221527",
")^	c #531D27",
"!^	c #9C2E28",
"~^	c #A33027",
"{^	c #74221E",
"]^	c #360D0F",
"^^	c #1B0910",
"/^	c #431922",
"(^	c #5F1F29",
"_^	c #561D2C",
":^	c #531F32",
"<^	c #562035",
"[^	c #521E32",
"}^	c #461A2A",
"|^	c #35131F",
"1^	c #0B0306",
"2^	c #060307",
"3^	c #1F101E",
"4^	c #6B222A",
"5^	c #B73228",
"6^	c #AC3027",
"7^	c #7B221B",
"8^	c #360B09",
"9^	c #120202",
"0^	c #12060A",
"a^	c #240C15",
"b^	c #260E16",
"c^	c #16070B",
"d^	c #130609",
"e^	c #110609",
"f^	c #060303",
"g^	c #2F0F1B",
"h^	c #61202F",
"i^	c #992D2F",
"j^	c #AB3127",
"k^	c #81251F",
"l^	c #441110",
"m^	c #120304",
"n^	c #1B070E",
"o^	c #401727",
"p^	c #5D2032",
"q^	c #872931",
"r^	c #A4302C",
"s^	c #A12E28",
"t^	c #8A2926",
"u^	c #6A2225",
"v^	c #3D1319",
"w^	c #34141E",
"x^	c #34131D",
"y^	c #361421",
"z^	c #3C1725",
"A^	c #341320",
"B^	c #1E0910",
"                  . + @                                               # $                                                       ",
"                % & * = -                 ; > , ' ) ;               ! ~ { ]                                                     ",
"                ^ / ( _ :               < [ } | 1 2 3 4             5 6 7 8                                                     ",
"                9 0 a b c $             d e f g h i j k             l m n o                                                     ",
"                p q r s t u           v w x y z A B C D E           F G H I                                                     ",
"                J K L M N O         P Q R S T U V W X Y E           Z `  ...                                                    ",
"              +.@.#.$.%.&.*.=.    -.;.>.,.'.).!.~.{.].^./.(.      $ _.:.<.[.}.|.                                                ",
"              1.2.3.4.5.6.7.8.  ; 9.0.a.b.c.d.e.!.f.g.h.i.j.    $ k.l.m.n.o.p.q.                                                ",
"              r.s.t.u.v.w.x.y.z.A.B.C.D.E.F.G.H.H.I.J.K.L.M.E   N.O.P.Q.R.S.T.U.                                                ",
"              V.W.X.Y.Y.Y.Z.`. +.+++@+d.#+$+%+H.H.&+*+=+-+;+>+,+'+)+!+~+{+]+^+/+            4 (+_+:+<+E                         ",
"              E [+}+|+1+Y.1+2+3+4+5+6+).E.7+8+9+e.0+a+b+c+d+e+f+g+h+i+j+k+l+m+          n+o+p+q+r+s+t+u+v+E                     ",
"                w+x+y+z+A+B+C+D+E+F+G+H+9+I+J+H.K+L+M+N+O+P+Q+R+S+T+U+V+W+X+(.      Y+Z+`+ @.@+@@@#@$@%@&@*@=@                  ",
"      -@;@>@,@      '@)@!@~@Y.{@]@^@/@(@_@:@<@[@}@|@1@2@3@4@5@6@7@8@9@0@a@b@    c@d@e@f@g@h@i@j@k@l@m@n@o@p@q@4                 ",
"    r@s@t@u@v@w@    x@y@z@A@B@C@D@E@F@G@H@I@J@K@L@M@N@O@P@Q@R@S@T@U@S.V@W@X@  Y@Z@`@ #.#+#@###$#%#&#*#=#-#;#>#,#                ",
"  ; '#)#!#~#{#]#^#    /#(#_#:#<#[#}#|#1#2#3#4#5#6#7#8#9#0#a#b#c#d#e#f#g#h#i#j#k#l#m#n#o#p#q#r#s#t#u#v#w#x#y#z#A#B#              ",
"  ! C#D#E#F#G#H#I#J#    K#L#M#N#O#P#Q#R#S#T#U#V#W#X#Y#Z#`# $.$+$@$#$$$; $ %$&$*$=$-$;$>$,$'$)$).e.H.H.e.d.!$~${$]$              ",
"  ^$/$($_$:$F#<$[$}$|$1$  E 2$3$4$5$6$7$8$9$0$a$b$c$d$e$f$g$h$i$j$k$l$  m$n$o$@@p$q$r$s$H.H.H.H.H.H.H.H.H.H.t$u$v$w$            ",
"  x$y$z$A$B$C$D$E$F$G$H$I$J$K$L$M$N$O$P$Q$R$S$T$U$V$W$X$Y$Z$`$ %.%+%  @%#%$%%%&%*%=%H.-%H.H.H.H.H.H.H.H.H.H.H.t$;%>%,%          ",
"  '%)%A$!%~%{%]%^%/%(%_%:%<%[%}%|%1%2%3%4%5%6%7%8%9%0%a%b%c%d%e%f%g%h%i%j%k%l%m%n%H.H.H.H.H.H.H.H.H.H.H.H.H.H.H.o%p%q%          ",
"  r%s%t%u%v%w%x%y%z%A%B%C%D%E%F%G%H%I%J%K%L%M%N%O%P%Q%R%S%T%U%V%W%X%Y%Z%`% &.&+&H.H.H.@&H.H.H.H.@&@&@&@&@&@&@&H.e.#&$&%&        ",
"  &&*&=&-&;&>&,&'&)&!&~&{&]&^&/&(&_&:&<&[&}&|&1&2&3&4&5&6&7&8&9&0&a&b&c&d&e&f&H.H.H.@&@&@&H.H.H.H.@&@&H.H.H.@&H.H.g&h&i&        ",
"  j&k&l&m&n&o&p&q&r&s&t&u&v&w&x&y&z&A&B&C&D&E&F&G&H&I&J&K&L&M&N&O&P&Q&R&S&T&U&H.H.H.@&@&@&H.H.H.H.@&@&H.H.H.@&H.H.V&W&X&Y&      ",
"  4 Z&`& *.*+*@*#*$*%*&***=*-*;*>*,*'*)*!*~*{*]*^*/*(*_*:*<*[*}*|*1*2*3*4*5*H.H.H.H.@&@&@&H.H.H.H.@&@&H.H.H.H.H.H.6*7*8*9*      ",
"    0*a*b*c*d*e*f*g*h*i*j*k*l*m*n*o*p*q*r*s*t*u*v*w*x*y*z*A*B*C*D*E*F*G*H*I*H.H.H.@&H.H.@&@&H.H.H.@&@&H.H.@&H.H.J*K*L*M*N*$     ",
"      O*P*Q*R*S*T*U*V*W*X*Y*Z*`* =.=+=@=#=$=%=&=*===-=;=>=,='=)=!=~={=]=^=H.H.H.H.@&H.H.@&@&H.H.H.@&@&@&@&@&H.H./=(=_=:=<=[=    ",
"        }=|=1=2=3=4=5=    6=7=8=9=0=a=b=H.H.e.c=d=e=f=g=h=i=j=k=l=m=n=o=p=H.H.H.H.@&@&@&@&@&H.H.H.@&@&H.H.@&H.H.q=r=s=t=u=v=    ",
"          w=x=y=z=A=B=    C=D=E=F=G=H=I=H.H.J=K=L=M=N=O=P=Q=R=S=T=U=V=W=H.H.H.H.@&H.H.H.H.@&@&H.H.@&@&H.H.H.H.H.g&X=Y=_=Z=`=    ",
"            (. -$         $ .-+-@-#-$-%-H.H.&-*-=---;->-,-'-)-!-~-{-]-^-H.H.H.H.@&H.H.H.H.@&@&H.H.@&@&H.H.H.@&H.H./-(-_=_-:-    ",
"                            <-[-}-|-1-).2-3-4-5-6-7-8-9-0-a-b-c-d-d-e-f-g-H.H.@&@&@&H.H.@&@&@&@&@&@&@&@&@&@&@&h-i-j-k-_=l-m-    ",
"                                n-o-p-q-r-s-t-u-v-w-x-y-z-A-B-C-D-d-E-F-H.H.H.H.H.H.H.H.9+G-t$o%o%H-I-J-K-L-M-N-O-P-Q-R-S-T-$   ",
"                        E U-V-V-W-X-Y-Z-`- ;.;+;@;#;$;%;&;*;=;-;;;>;,;';H.H.H.d.);!;!;~;{;];^;/;(;_;:;<;[;[;};|;1;2;3;4;5;6;4   ",
"                  ; 7;8;9;0;a;b;c;d;e;f;g;h;i;j;k;l;m;n;o;p;q;r;s;t;u;v;9+w;x;@&@&@&@&y;z;@&@&@&@&g g g @&@&@&@&A;B;C;D;E;F;    ",
"                4 G;H;I;J;K;L;M;N;O;P;Q;R;S;T;U;V;W;X;Y;H.Z;`; >.>+>@>#>$>%>@&@&&>&>@&@&g g @&@&g g g @&@&g g @&@&*>=>->;>>>    ",
"              ,>'>)>!>~>{>]>^>/>(>)._>:><>[>}>|>1>2>3>4>c.5>6>7>8>9>0>a>b>@&@&g g g @&@&g g @&@&g g g @&@&g g g @&c>d>e>f>g>    ",
"            h>i>j>k>l>m>n>o>p>q>r>s>t>r>u>v>w>x>y>z>A>B>C>D>E>F>+>G>H>I>g @&@&g g g g g g g @&@&g g g @&@&@&g g g g g J>K>L>    ",
"          M>N>O>P>Q>R>S>T>U>V>W>X>Y>Z>`> ,.,+,@,#,$,%,&,*,=,-,;,>,,,',),c>@&@&g g g g g g g @&@&g g g g @&@&@&g g g g !,~,{,    ",
"        ],^,/,(,_,:,<,[,},|,1,2,3,4,5,6,7,8,9,0,a,b,c,d,c>e,f,g,>,>,h,i,j,@&@&g g @&@&@&g g @&@&g g g g g @&@&@&g g g k,l,m,    ",
"      ! n,o,p,q,r,+,s,t,u,v,g g &>w,x,y,z,A,B,C,D,E,F,G,g H,I,J,>,>,K,L,M,@&@&N,O,g @&@&g g @&@&g g g g g g g @&@&g g P,Q,      ",
"      R,S,T,U,V,W,X,Y,Z,`, '.'+'@'#'$'%'&'*'='-';'>'G,,''')'!'~'{'>,]'^'/'@&@&('_':'@&@&g g @&@&g g g @&@&g g @&@&g *><'['      ",
"    }'|'1'2'3'4'5'6'7'8'9'0'a'b'c'd'e'f'g'h'i'j'k'l'm'n'G,o'p'q'r's't'u'v'w'@&@&x'y'@&@&g g @&@&g g g @&@&g g @&@&g z'A'E       ",
"    B'C'D'E'F'G'H'Y,7'I'J'K'L'M'N'O'P'Q'R'  S'T'U'V'W'X'Y'n'Z'`' ).)+)@)#)$)%)@&@&@&@&&)*)@&@&@&@&g g g @&@&@&@&g 1,=)-)        ",
"    E ;)>),)')))6'7'Y,!)~){)])^)/)()_):)    # <)[)})|)1)2)3)F,4)5)6)7)8)9)0)a)b)c)d)e)f)g)*)g g g g g g g g g g g h)i)          ",
"    j)k)l)m)n)[,Y,Y,Y,o)p)q)r)s)t)u)v)!       w)x)y)z)A)B)C)D)G,E)F)G)H)I)J)K)L)L)L)L)M)N)&)g g g g g g g g g g O)P)Q)          ",
"  j)R)S)T)U)[,Y,Y,Y,Y,8'V)W)X)Y)Z)`) !        k).!+!@!#!U'x>$!%!&!*!=!>,-!;!>!L)L)L)L)L),!'!)!g g g g g g g &>1,z,!!            ",
"  ~!{!]!^!/!(!_!Y,Y,Y,:!<![!}!|!v) !            1!2!3!v-4!5!6!7!8!9!0!a!b!c!d!L)L)L)L)L)L)e!f!g!c>g g g .'g h!i!j!!             ",
"  k!l!m!.'O)n!o!p!q!r!s!t!u!v!w!;                 ; x!y!z!A!B!C!D!E!F!G!+)H!I!J!L)L)L)L)L)L)K!L!&>g g g g O,M!N!O!              ",
"  P!Q!R!.'&>S!T!U!V!W!X!Y!Z!`!                         ~.~+~@~#~$~%~&~*~=~-~;~>~,~L)L)L)L)L)'~)~!~g g ~~{~]~^~/~(~              ",
"  _~:~<~[~}~|~1~2~g g *>3~4~5~)                         <-6~7~8~9~0~a~b~c~d~e~f~g~h~L)L)L)L)d)i~j~}~k~l~m~n~o~p~                ",
"    q~r~s~t~u~v~w~x~y~z~A~B~C~D~                            E~F~G~H~I~J~K~L~M~N~O~P~Q~L)L)L)d)R~S~T~U~V~a.W~X~Y~                ",
"    E Z~`~ {.{+{@{#{${%{&{*{={-{                            ;{>{,{'{){X!!{~{{{]{^{/{({_{:{<{[{}{|{1{2{3{4{5{6{                  ",
"        7{8{9{.;0{#!#!a{a{b{c{d{                            k)e{f{g g{h{i{j{k{l{m{9+n{o{p{q{r{s{t{u{v{w{x{y{                    ",
"            z{A{B{C{#!z)#!D{E{F{                              G{H{S!*>c>I{J{b{K{L{M{N{9+H.H.e.e.e.O{P{Q{R{                      ",
"              Q)S{T{U{z)z)V{W{E                               <-X{Y{Z'Z{h!`{ ].]+]@]#]$]%]&]*]=]-];]>],]                        ",
"                '])]!]#!z)~]{]E                                   ]]^]/](]H,g I{_]:]<][]}]|]1]2]3]4]                            ",
"                  5]6]7]z)b{8]9]                                      0]a]b]z'c]d]e]f]g]h]4                                     ",
"                  > i]j]#!k]l]m]8;                                      $ n]o]p]q]r]s]t]u]}'                                    ",
"                  (.v]w]x]y]C{z]A]                                          B]C]w>D]z)z)j'E];                                   ",
"                  F]G]H]I]J]K]L]M]V-                                          1$N][)z)z)[)O]P];                                 ",
"              Q]R]S]T]U]g ''V]W]X]Y]                                            Z]`]U' ^Y-F~.^+^                                ",
"          @^#^$^%^&^*^.'*>=^O)-^;^>^                                            4 ,^'^)^!^~^{^]^,%                              ",
"        (.^^/^(^_^:^<^z'[^}^|^]>1^E                                               2^3^4^q-5^6^7^8^9^                            ",
"          $ 0^a^b^c^d^e^f^$                                                       $ g^h^i^_>d.j^k^l^m^E                         ",
"                                                                                    n^o^p^q^r^s^t^u^v^m,                        ",
"                                                                                      B'a^w^x^y^z^A^B^5                         "};
