/* XPM */
static char * player2_xpm[] = {
"64 64 1897 2",
"  	c #000000",
". 	c #010101",
"+ 	c #010102",
"@ 	c #4F4F4B",
"# 	c #7D7D77",
"$ 	c #5F605A",
"% 	c #213331",
"& 	c #608A83",
"* 	c #6D9A92",
"= 	c #020101",
"- 	c #010001",
"; 	c #060101",
"> 	c #1F090F",
", 	c #1B0A10",
"' 	c #0A0305",
") 	c #171615",
"! 	c #94938E",
"~ 	c #E0E1D8",
"{ 	c #B1B6AE",
"] 	c #010100",
"^ 	c #2A4343",
"/ 	c #74ACAB",
"( 	c #7AAFA7",
"_ 	c #030101",
": 	c #000001",
"< 	c #481311",
"[ 	c #722529",
"} 	c #642334",
"| 	c #5A2136",
"1 	c #501D33",
"2 	c #300F20",
"3 	c #0A0206",
"4 	c #61615C",
"5 	c #B1BBB3",
"6 	c #CFEAE0",
"7 	c #9EC4BB",
"8 	c #212422",
"9 	c #253F42",
"0 	c #6CA7AB",
"a 	c #87C2B9",
"b 	c #010303",
"c 	c #2F1417",
"d 	c #B66B7B",
"e 	c #874555",
"f 	c #62253A",
"g 	c #5E2339",
"h 	c #5D2239",
"i 	c #571B38",
"j 	c #330B21",
"k 	c #8B8B87",
"l 	c #CADBD3",
"m 	c #ABE0D6",
"n 	c #93C2BA",
"o 	c #383C39",
"p 	c #1C353C",
"q 	c #5C97A1",
"r 	c #8FD0C8",
"s 	c #253430",
"t 	c #010000",
"u 	c #936272",
"v 	c #C57C93",
"w 	c #84465B",
"x 	c #5E2439",
"y 	c #5A2235",
"z 	c #552032",
"A 	c #551D38",
"B 	c #350F24",
"C 	c #020002",
"D 	c #4A4947",
"E 	c #A7AEA8",
"F 	c #CAE7DE",
"G 	c #9CDCD2",
"H 	c #90C0B7",
"I 	c #282A29",
"J 	c #132831",
"K 	c #4B7E8C",
"L 	c #8ACECA",
"M 	c #547770",
"N 	c #C07D94",
"O 	c #B7738A",
"P 	c #783D51",
"Q 	c #802935",
"R 	c #9C2E2F",
"S 	c #A12F2D",
"T 	c #942C32",
"U 	c #6D2031",
"V 	c #3A1022",
"W 	c #13030C",
"X 	c #7F7F7A",
"Y 	c #BDCEC5",
"Z 	c #AFE1D8",
"` 	c #95D6CD",
" .	c #7FADA6",
"..	c #0B0C0B",
"+.	c #0C1415",
"@.	c #375253",
"#.	c #679A9C",
"$.	c #6198A2",
"%.	c #7EC2C3",
"&.	c #73A59F",
"*.	c #000101",
"=.	c #5C3E48",
"-.	c #DB90A9",
";.	c #A56379",
">.	c #8C3541",
",.	c #A7302D",
"'.	c #B43229",
").	c #B53328",
"!.	c #B2322A",
"~.	c #A22F2E",
"{.	c #7B2538",
"].	c #47132E",
"^.	c #180311",
"/.	c #32312F",
"(.	c #9BA39B",
"_.	c #C5E3D9",
":.	c #9ADAD2",
"<.	c #95CCC4",
"[.	c #9DAFA8",
"}.	c #9A9991",
"|.	c #3B3937",
"1.	c #0F1D22",
"2.	c #355B68",
"3.	c #5696AC",
"4.	c #5394AC",
"5.	c #69ACBA",
"6.	c #8CC8C1",
"7.	c #202E2C",
"8.	c #61414A",
"9.	c #9F5E6B",
"0.	c #DB879D",
"a.	c #924D5F",
"b.	c #9F3031",
"c.	c #B73328",
"d.	c #B63328",
"e.	c #B73227",
"f.	c #B53229",
"g.	c #9E2D31",
"h.	c #75213D",
"i.	c #3F0F2C",
"j.	c #737570",
"k.	c #AFC4BC",
"l.	c #ADE0D6",
"m.	c #93D6CD",
"n.	c #96CEC6",
"o.	c #ABD5CC",
"p.	c #AFC9C0",
"q.	c #6F706C",
"r.	c #061014",
"s.	c #234856",
"t.	c #478BA7",
"u.	c #488EAD",
"v.	c #5499B0",
"w.	c #89CCC9",
"x.	c #5E837E",
"y.	c #060C0B",
"z.	c #A86A78",
"A.	c #A14E55",
"B.	c #CA6F7C",
"C.	c #8C3F4D",
"D.	c #A8302C",
"E.	c #B73327",
"F.	c #BD5A52",
"G.	c #BD584F",
"H.	c #B83F35",
"I.	c #B0322A",
"J.	c #8D293C",
"K.	c #531736",
"L.	c #220517",
"M.	c #2E2C2B",
"N.	c #909E98",
"O.	c #B6DCD2",
"P.	c #99DCD2",
"Q.	c #94D9CF",
"R.	c #95D8CE",
"S.	c #9EDDD3",
"T.	c #9AC9C0",
"U.	c #606360",
"V.	c #211707",
"W.	c #463717",
"X.	c #433515",
"Y.	c #161004",
"Z.	c #010203",
"`.	c #162F3A",
" +	c #3C738B",
".+	c #478EAC",
"++	c #4B91AD",
"@+	c #6FB3BD",
"#+	c #86C0B8",
"$+	c #223131",
"%+	c #020404",
"&+	c #090103",
"*+	c #C67483",
"=+	c #B96D7C",
"-+	c #C46672",
";+	c #8F3A44",
">+	c #AC302B",
",+	c #CF978C",
"'+	c #C9887D",
")+	c #BB4D43",
"!+	c #932C37",
"~+	c #5D1F40",
"{+	c #330F2D",
"]+	c #6C7571",
"^+	c #A2C1BA",
"/+	c #A3DDD4",
"(+	c #95DBD1",
"_+	c #93D4CB",
":+	c #7EADA5",
"<+	c #2F3130",
"[+	c #53300C",
"}+	c #945719",
"|+	c #B76B1C",
"1+	c #C2731C",
"2+	c #C37722",
"3+	c #B9792B",
"4+	c #A1732F",
"5+	c #755B26",
"6+	c #302811",
"7+	c #07131A",
"8+	c #244757",
"9+	c #427E98",
"0+	c #488FAD",
"a+	c #5499B1",
"b+	c #85C7C6",
"c+	c #628E88",
"d+	c #111D1B",
"e+	c #4D333B",
"f+	c #CC6E7B",
"g+	c #B26572",
"h+	c #C2636E",
"i+	c #8A3D44",
"j+	c #A9322B",
"k+	c #B63327",
"l+	c #C37167",
"m+	c #BF655B",
"n+	c #8D2E3A",
"o+	c #56244B",
"p+	c #58525E",
"q+	c #89A8A1",
"r+	c #A1D7CE",
"s+	c #96DBD1",
"t+	c #92D4CB",
"u+	c #7CB1AA",
"v+	c #4B6863",
"w+	c #040100",
"x+	c #713E0E",
"y+	c #B36517",
"z+	c #D5791B",
"A+	c #E4801C",
"B+	c #E7811A",
"C+	c #E7841E",
"D+	c #E48725",
"E+	c #DA8629",
"F+	c #CB822A",
"G+	c #B07A2F",
"H+	c #7C5F29",
"I+	c #2D2611",
"J+	c #10242B",
"K+	c #38667A",
"L+	c #4588A6",
"M+	c #498FAB",
"N+	c #65A9B7",
"O+	c #85C2BE",
"P+	c #44635F",
"Q+	c #6D4E56",
"R+	c #C8636E",
"S+	c #9A4950",
"T+	c #C56A79",
"U+	c #A15E50",
"V+	c #A04F32",
"W+	c #B23B29",
"X+	c #B7362B",
"Y+	c #B73429",
"Z+	c #A7312E",
"`+	c #742E46",
" @	c #4E475F",
".@	c #799696",
"+@	c #96CDC4",
"@@	c #98DCD2",
"#@	c #94D9D0",
"$@	c #90D1C7",
"%@	c #81BBB3",
"&@	c #6A9892",
"*@	c #456460",
"=@	c #101817",
"-@	c #6A3A0D",
";@	c #B96816",
">@	c #DB7A1B",
",@	c #D6771A",
"'@	c #CA701D",
")@	c #C66E1E",
"!@	c #CB701B",
"~@	c #D7781A",
"{@	c #E27F1A",
"]@	c #E6851F",
"^@	c #E08929",
"/@	c #CC842E",
"(@	c #A8772F",
"_@	c #685324",
":@	c #030201",
"<@	c #122A33",
"[@	c #3D738A",
"}@	c #468AA7",
"|@	c #478EAB",
"1@	c #4B92AC",
"2@	c #73B5BF",
"3@	c #77AEA9",
"4@	c #7C6A70",
"5@	c #BA6069",
"6@	c #8C4A44",
"7@	c #D28094",
"8@	c #B56C5A",
"9@	c #C17532",
"0@	c #B56630",
"a@	c #A94329",
"b@	c #AE3226",
"c@	c #AE3228",
"d@	c #9E2F2B",
"e@	c #823436",
"f@	c #623B42",
"g@	c #6C8785",
"h@	c #8DC4BD",
"i@	c #98DAD1",
"j@	c #94D8CF",
"k@	c #89C5BC",
"l@	c #658F8A",
"m@	c #2B3F3C",
"n@	c #130802",
"o@	c #39210A",
"p@	c #4C2F0F",
"q@	c #1D1406",
"r@	c #4B2808",
"s@	c #A65D17",
"t@	c #BF6A1E",
"u@	c #B15F25",
"v@	c #A05129",
"w@	c #97492B",
"x@	c #92472D",
"y@	c #93492D",
"z@	c #9A512B",
"A@	c #AA5D27",
"B@	c #C26C1E",
"C@	c #DB7A19",
"D@	c #E68520",
"E@	c #DD8B2C",
"F@	c #BE822F",
"G@	c #8C692E",
"H@	c #2D250E",
"I@	c #0F232B",
"J@	c #356579",
"K@	c #43849F",
"L@	c #468CA9",
"M@	c #5095AF",
"N@	c #75B5BC",
"O@	c #856E67",
"P@	c #B5664E",
"Q@	c #985940",
"R@	c #E090A7",
"S@	c #B46961",
"T@	c #CD772C",
"U@	c #D0802E",
"V@	c #C98039",
"W@	c #C3723B",
"X@	c #BD652E",
"Y@	c #AC602B",
"Z@	c #9C5C2F",
"`@	c #84705E",
" #	c #84B2AA",
".#	c #94D8CE",
"+#	c #95DBD2",
"@#	c #96DBD2",
"##	c #95DAD0",
"$#	c #86C2B9",
"%#	c #567975",
"&#	c #000100",
"*#	c #301904",
"=#	c #794813",
"-#	c #B47525",
";#	c #C09037",
">#	c #AB8134",
",#	c #57421B",
"'#	c #180C03",
")#	c #7A4516",
"!#	c #AA5820",
"~#	c #A94C26",
"{#	c #9D362A",
"]#	c #9D2D2D",
"^#	c #9F2E2D",
"/#	c #9F2E2E",
"(#	c #9B2D2F",
"_#	c #932C2F",
":#	c #8F322C",
"<#	c #9A4529",
"[#	c #AF5A25",
"}#	c #C96E1E",
"|#	c #E17F1C",
"1#	c #E38825",
"2#	c #D08A32",
"3#	c #A07430",
"4#	c #4E3F1C",
"5#	c #030A0E",
"6#	c #18303B",
"7#	c #2B576A",
"8#	c #336276",
"9#	c #4789A6",
"0#	c #468EAB",
"a#	c #5292A8",
"b#	c #835D47",
"c#	c #BD6A2B",
"d#	c #A45F3D",
"e#	c #E997AF",
"f#	c #AD6565",
"g#	c #C26F2E",
"h#	c #E2A14E",
"i#	c #E6B871",
"j#	c #D09C58",
"k#	c #B87832",
"l#	c #BA772D",
"m#	c #CA8432",
"n#	c #AFA689",
"o#	c #91CCC2",
"p#	c #93D7CD",
"q#	c #8ECFC6",
"r#	c #89C6BE",
"s#	c #7EB7AF",
"t#	c #66958D",
"u#	c #39514E",
"v#	c #2C1603",
"w#	c #7A4811",
"x#	c #C78128",
"y#	c #E8AC42",
"z#	c #ECB84A",
"A#	c #E2A841",
"B#	c #9F823A",
"C#	c #371C0E",
"D#	c #8E4220",
"E#	c #A63C26",
"F#	c #AF3228",
"G#	c #B03229",
"H#	c #A8302A",
"I#	c #A1352A",
"J#	c #AC4B25",
"K#	c #C86720",
"L#	c #DD7A1B",
"M#	c #E5861F",
"N#	c #DA8F32",
"O#	c #AD7C32",
"P#	c #5D4B20",
"Q#	c #0A1A22",
"R#	c #447F99",
"S#	c #468EAC",
"T#	c #427B94",
"U#	c #8C5B3A",
"V#	c #9D5824",
"W#	c #91573A",
"X#	c #EC9AB3",
"Y#	c #A66468",
"Z#	c #B5783A",
"`#	c #BF9A5A",
" $	c #B7A274",
".$	c #AB8C60",
"+$	c #9C693B",
"@$	c #B68137",
"#$	c #D9A44F",
"$$	c #C0C5A2",
"%$	c #99D8CC",
"&$	c #8CCAC1",
"*$	c #72A39D",
"=$	c #59817B",
"-$	c #466661",
";$	c #273936",
">$	c #100601",
",$	c #63370C",
"'$	c #BF7723",
")$	c #E9A93E",
"!$	c #ECBD4C",
"~$	c #ECBA4A",
"{$	c #E8AE42",
"]$	c #C19740",
"^$	c #1D0505",
"/$	c #71251C",
"($	c #A33025",
"_$	c #B43227",
":$	c #B43428",
"<$	c #B44126",
"[$	c #C76022",
"}$	c #DE771C",
"|$	c #DF8F30",
"1$	c #B48235",
"2$	c #5C4C21",
"3$	c #040F14",
"4$	c #2D576A",
"5$	c #3B768E",
"6$	c #39667B",
"7$	c #B97C3D",
"8$	c #885326",
"9$	c #975B34",
"0$	c #D1888E",
"a$	c #B0725C",
"b$	c #BA7C40",
"c$	c #A87547",
"d$	c #9A6D53",
"e$	c #A87657",
"f$	c #AE7348",
"g$	c #BB813B",
"h$	c #D49849",
"i$	c #BAA882",
"j$	c #8CADA0",
"k$	c #73968F",
"l$	c #465B5A",
"m$	c #11020A",
"n$	c #030103",
"o$	c #13070E",
"p$	c #482715",
"q$	c #9C5F1E",
"r$	c #E39B3A",
"s$	c #ECBD4D",
"t$	c #ECBE4D",
"u$	c #E9BA4B",
"v$	c #C99D41",
"w$	c #050101",
"x$	c #621A15",
"y$	c #A02D24",
"z$	c #B83327",
"A$	c #B93D27",
"B$	c #CA5B24",
"C$	c #DF761F",
"D$	c #E8841E",
"E$	c #E29130",
"F$	c #B28335",
"G$	c #4E3F1D",
"H$	c #03070B",
"I$	c #203D49",
"J$	c #223F4B",
"K$	c #C88C3C",
"L$	c #A66D37",
"M$	c #C9864B",
"N$	c #CC8B56",
"O$	c #D19054",
"P$	c #D88F50",
"Q$	c #D58D50",
"R$	c #D4915B",
"S$	c #DA955B",
"T$	c #D69559",
"U$	c #B8773D",
"V$	c #CA7625",
"W$	c #C4772F",
"X$	c #8A5A35",
"Y$	c #563536",
"Z$	c #491A32",
"`$	c #47142E",
" %	c #370E24",
".%	c #1A0613",
"+%	c #170B16",
"@%	c #2E1522",
"#%	c #763F25",
"$%	c #CA833A",
"%%	c #ECB966",
"&%	c #EDCA6F",
"*%	c #EECE7D",
"=%	c #ECC351",
"-%	c #EBC250",
";%	c #D8B24D",
">%	c #4C2020",
",%	c #972D26",
"'%	c #B33227",
")%	c #BA3B27",
"!%	c #CA5C27",
"~%	c #E27D24",
"{%	c #E6841D",
"]%	c #E19332",
"^%	c #A67E39",
"/%	c #44362D",
"(%	c #5D3236",
"_%	c #66363A",
":%	c #623539",
"<%	c #A27547",
"[%	c #9F7344",
"}%	c #E0A161",
"|%	c #E7A462",
"1%	c #DB9959",
"2%	c #E09E5D",
"3%	c #E8A462",
"4%	c #EBA764",
"5%	c #EBA865",
"6%	c #DA9D61",
"7%	c #9D6D41",
"8%	c #9F6227",
"9%	c #AF6A28",
"0%	c #7E4A29",
"a%	c #462131",
"b%	c #511E37",
"c%	c #541D38",
"d%	c #471831",
"e%	c #381527",
"f%	c #41192F",
"g%	c #522532",
"h%	c #95562F",
"i%	c #E39D5B",
"j%	c #F1D49A",
"k%	c #F2DDA6",
"l%	c #F3E3B1",
"m%	c #ECC252",
"n%	c #E5BD50",
"o%	c #291A1F",
"p%	c #8E4144",
"q%	c #B13935",
"r%	c #BB4028",
"s%	c #CE692D",
"t%	c #E58525",
"u%	c #E68E27",
"v%	c #DEA349",
"w%	c #9A876E",
"x%	c #974547",
"y%	c #A6494B",
"z%	c #A54D50",
"A%	c #9F514E",
"B%	c #A06449",
"C%	c #C98B5C",
"D%	c #D9995F",
"E%	c #D29157",
"F%	c #DA995D",
"G%	c #E6A362",
"H%	c #EAA764",
"I%	c #DE9F61",
"J%	c #AF7E50",
"K%	c #614432",
"L%	c #2E1920",
"M%	c #371B23",
"N%	c #2E1828",
"O%	c #251D36",
"P%	c #2B223F",
"Q%	c #2E203C",
"R%	c #2E1D35",
"S%	c #3E1C32",
"T%	c #4E1D36",
"U%	c #6B3733",
"V%	c #AF733D",
"W%	c #EBB377",
"X%	c #F4E1B4",
"Y%	c #F8EECE",
"Z%	c #F5E5BA",
"`%	c #ECC251",
" &	c #EBC251",
".&	c #E5B94C",
"+&	c #754E5B",
"@&	c #B7575E",
"#&	c #BB3E3B",
"$&	c #FFFFFF",
"%&	c #BC4729",
"&&	c #D88033",
"*&	c #E89E37",
"=&	c #E9B658",
"-&	c #DED2B5",
";&	c #A46059",
">&	c #B63429",
",&	c #C35053",
"'&	c #D26B79",
")&	c #C0575C",
"!&	c #AC5349",
"~&	c #BD7951",
"{&	c #C98553",
"]&	c #D28F5B",
"^&	c #D4935A",
"/&	c #CC9159",
"(&	c #AA7C50",
"_&	c #82613A",
":&	c #674320",
"<&	c #532B1B",
"[&	c #441D24",
"}&	c #32192D",
"|&	c #202547",
"1&	c #232C55",
"2&	c #242C54",
"3&	c #252A50",
"4&	c #262242",
"5&	c #2D1C35",
"6&	c #724229",
"7&	c #C58B54",
"8&	c #EEC791",
"9&	c #F1DFAB",
"0&	c #F9EECD",
"a&	c #F1D693",
"b&	c #ECC350",
"c&	c #EBBE4E",
"d&	c #DEA23D",
"e&	c #201417",
"f&	c #BD7D93",
"g&	c #C86570",
"h&	c #BB3E3A",
"i&	c #B83829",
"j&	c #C36032",
"k&	c #E5AD51",
"l&	c #EFD38B",
"m&	c #F9F3DD",
"n&	c #BEB1A8",
"o&	c #AD372D",
"p&	c #C85A61",
"q&	c #DC869E",
"r&	c #B45B69",
"s&	c #9D3439",
"t&	c #953130",
"u&	c #964434",
"v&	c #924736",
"w&	c #894F37",
"x&	c #6B4634",
"y&	c #72644C",
"z&	c #B18F4A",
"A&	c #BD8A36",
"B&	c #A56828",
"C&	c #854A21",
"D&	c #553235",
"E&	c #1F284B",
"F&	c #212A52",
"G&	c #212C56",
"H&	c #232E59",
"I&	c #242C55",
"J&	c #242649",
"K&	c #79452A",
"L&	c #D49562",
"M&	c #F1D19F",
"N&	c #F0D38A",
"O&	c #F2D899",
"P&	c #ECC355",
"Q&	c #E9B94C",
"R&	c #E5A73E",
"S&	c #C27521",
"T&	c #60404B",
"U&	c #E395AF",
"V&	c #DB7A8B",
"W&	c #BF4747",
"X&	c #BB432D",
"Y&	c #D18D54",
"Z&	c #F2DFA9",
"`&	c #F5E5BD",
" *	c #EBE3CD",
".*	c #9D5B51",
"+*	c #B4362B",
"@*	c #8B3B49",
"#*	c #6F3448",
"$*	c #60263A",
"%*	c #702536",
"&*	c #76252F",
"**	c #481923",
"=*	c #371524",
"-*	c #66554D",
";*	c #B39E6F",
">*	c #E1BD61",
",*	c #EABB4D",
"'*	c #E2A54A",
")*	c #D2853C",
"!*	c #975837",
"~*	c #372941",
"{*	c #20294E",
"]*	c #222C54",
"^*	c #202A50",
"/*	c #222B53",
"(*	c #222649",
"_*	c #7E4624",
":*	c #DA9554",
"<*	c #EEC784",
"[*	c #EBB94C",
"}*	c #E9B64A",
"|*	c #E5B047",
"1*	c #E09A39",
"2*	c #D77B1E",
"3*	c #8A4D14",
"4*	c #A36C7E",
"5*	c #F09BB8",
"6*	c #F296AF",
"7*	c #CB5F69",
"8*	c #B93831",
"9*	c #B73527",
"0*	c #BF5836",
"a*	c #E7BB6B",
"b*	c #EBBD5B",
"c*	c #F0D197",
"d*	c #AE9478",
"e*	c #B34331",
"f*	c #732635",
"g*	c #612239",
"h*	c #672241",
"i*	c #6D2247",
"j*	c #772347",
"k*	c #47142C",
"l*	c #5D3A43",
"m*	c #A78B77",
"n*	c #D7AF6C",
"o*	c #E4B555",
"p*	c #E5B95A",
"q*	c #E8C380",
"r*	c #E8B483",
"s*	c #B97C58",
"t*	c #61363B",
"u*	c #2E2748",
"v*	c #242342",
"w*	c #1E2546",
"x*	c #21274C",
"y*	c #1D182F",
"z*	c #7F4616",
"A*	c #DA9039",
"B*	c #E8B456",
"C*	c #E69B35",
"D*	c #E18E30",
"E*	c #D98027",
"F*	c #D4761C",
"G*	c #B36417",
"H*	c #291706",
"I*	c #0E0709",
"J*	c #CC869E",
"K*	c #F6A0BD",
"L*	c #FBA3C1",
"M*	c #DD7B8D",
"N*	c #BF4748",
"O*	c #BA422A",
"P*	c #D5863D",
"Q*	c #E79931",
"R*	c #EBA53D",
"S*	c #D0A25B",
"T*	c #B25A2A",
"U*	c #974330",
"V*	c #712A3D",
"W*	c #861F5B",
"X*	c #921D66",
"Y*	c #8A1D60",
"Z*	c #6B314C",
"`*	c #AB6772",
" =	c #C2695D",
".=	c #C3633D",
"+=	c #C66E3F",
"@=	c #CD8963",
"#=	c #DCB09C",
"$=	c #EEC8BA",
"%=	c #CA9C92",
"&=	c #7A3F41",
"*=	c #4F203B",
"==	c #3D1B36",
"-=	c #191322",
";=	c #100F1D",
">=	c #0B050C",
",=	c #7A410E",
"'=	c #D5892C",
")=	c #E7AE43",
"!=	c #E09A38",
"~=	c #DD7E20",
"{=	c #D0751D",
"]=	c #A65F17",
"^=	c #432409",
"/=	c #3B272D",
"(=	c #E396B0",
"_=	c #FAA3C1",
":=	c #FCA3C1",
"<=	c #E28296",
"[=	c #C14D50",
"}=	c #B93527",
"|=	c #C25028",
"1=	c #E67F1C",
"2=	c #E88E26",
"3=	c #E59B38",
"4=	c #A96F2B",
"5=	c #CC7022",
"6=	c #A34E3F",
"7=	c #9F3462",
"8=	c #972366",
"9=	c #7B1C55",
"0=	c #A26072",
"a=	c #BC555D",
"b=	c #BA3C38",
"c=	c #C04A4C",
"d=	c #E4899E",
"e=	c #DB8EA7",
"f=	c #995A6E",
"g=	c #662741",
"h=	c #531A36",
"i=	c #1B0713",
"j=	c #65360C",
"k=	c #BC7827",
"l=	c #E2A840",
"m=	c #DAAC48",
"n=	c #B1722C",
"o=	c #76431F",
"p=	c #0B0604",
"q=	c #714E59",
"r=	c #ED99B6",
"s=	c #F9A0BC",
"t=	c #D46D7C",
"u=	c #BA3C27",
"v=	c #E2781B",
"w=	c #E78118",
"x=	c #E78C24",
"y=	c #A27E38",
"z=	c #AF6630",
"A=	c #CA712A",
"B=	c #A95C29",
"C=	c #7A3C25",
"D=	c #562C1B",
"E=	c #BB6F7C",
"F=	c #CD6A77",
"G=	c #C14B4E",
"H=	c #B8372F",
"I=	c #CD626D",
"J=	c #EB8EA6",
"K=	c #F79EBC",
"L=	c #C77D97",
"M=	c #74374F",
"N=	c #521A34",
"O=	c #240716",
"P=	c #281505",
"Q=	c #734715",
"R=	c #B57728",
"S=	c #BA832F",
"T=	c #884D18",
"U=	c #25130A",
"V=	c #8F6170",
"W=	c #EF9BB8",
"X=	c #EA8DA2",
"Y=	c #C35258",
"Z=	c #BA3A27",
"`=	c #DA6E1D",
" -	c #E78117",
".-	c #E88118",
"+-	c #BB8E3F",
"@-	c #403B54",
"#-	c #403248",
"$-	c #71422D",
"%-	c #7A4725",
"&-	c #523028",
"*-	c #A06370",
"=-	c #CF7C8F",
"--	c #CB6671",
";-	c #BB423F",
">-	c #B93832",
",-	c #CC606B",
"'-	c #E5899F",
")-	c #C87C94",
"!-	c #794056",
"~-	c #3D1227",
"{-	c #010103",
"]-	c #9D697A",
"^-	c #F09CB8",
"/-	c #E5869B",
"(-	c #C5575F",
"_-	c #BA403E",
":-	c #B73933",
"<-	c #B6362D",
"[-	c #B83228",
"}-	c #B93827",
"|-	c #D2631F",
"1-	c #E78017",
"2-	c #CA8F38",
"3-	c #41343B",
"4-	c #101428",
"5-	c #371F2B",
"6-	c #311A2D",
"7-	c #28192C",
"8-	c #2C1A2C",
"9-	c #8C5360",
"0-	c #AB545D",
"a-	c #B04041",
"b-	c #B5362F",
"c-	c #B6342A",
"d-	c #B33229",
"e-	c #AA4349",
"f-	c #7E3A47",
"g-	c #2E0F1C",
"h-	c #020001",
"i-	c #A86E82",
"j-	c #F29DB9",
"k-	c #FAA2C1",
"l-	c #F59EBB",
"m-	c #DF8EA7",
"n-	c #C6788A",
"o-	c #AF5B66",
"p-	c #AB3229",
"q-	c #B03228",
"r-	c #B83728",
"s-	c #CA5822",
"t-	c #E57F19",
"u-	c #D8903B",
"v-	c #492E19",
"w-	c #30181D",
"x-	c #6F444D",
"y-	c #502B33",
"z-	c #2D1725",
"A-	c #2C1727",
"B-	c #31192B",
"C-	c #663A47",
"D-	c #99505A",
"E-	c #AC4D53",
"F-	c #A93A3A",
"G-	c #A52F2A",
"H-	c #902B2A",
"I-	c #5B1B20",
"J-	c #18060A",
"K-	c #AC7083",
"L-	c #F19DB8",
"M-	c #E295B1",
"N-	c #8B5B70",
"O-	c #40273A",
"P-	c #31192E",
"Q-	c #371B30",
"R-	c #3A1C31",
"S-	c #3C1C31",
"T-	c #3D1B30",
"U-	c #481D2F",
"V-	c #5B212E",
"W-	c #6C232D",
"X-	c #7C262B",
"Y-	c #8C2A2B",
"Z-	c #9B2E2B",
"`-	c #A8312A",
" ;	c #B1332A",
".;	c #B43228",
"+;	c #B63228",
"@;	c #B83627",
"#;	c #C65125",
"$;	c #E47E1A",
"%;	c #D17125",
"&;	c #CF8A42",
"*;	c #825550",
"=;	c #9E5762",
"-;	c #A33D3F",
";;	c #A53633",
">;	c #632129",
",;	c #331B29",
"';	c #3E1E2A",
");	c #461F31",
"!;	c #35192C",
"~;	c #441B28",
"{;	c #6B2429",
"];	c #712528",
"^;	c #4F1C27",
"/;	c #21111A",
"(;	c #110604",
"_;	c #050102",
":;	c #030001",
"<;	c #A76D81",
"[;	c #EC9AB6",
"};	c #8C5A6E",
"|;	c #452438",
"1;	c #532136",
"2;	c #5C2338",
"3;	c #5E2338",
"4;	c #5D2439",
"5;	c #5B2339",
"6;	c #582238",
"7;	c #562136",
"8;	c #5B2234",
"9;	c #6C2634",
"0;	c #7F2832",
"a;	c #912C30",
"b;	c #A22E2D",
"c;	c #AE312A",
"d;	c #B43329",
"e;	c #B73427",
"f;	c #C04626",
"g;	c #D07225",
"h;	c #C56B2C",
"i;	c #D0883E",
"j;	c #80472F",
"k;	c #AA322C",
"l;	c #B73229",
"m;	c #A4312B",
"n;	c #992C26",
"o;	c #783C24",
"p;	c #64422E",
"q;	c #5D3B3C",
"r;	c #552B36",
"s;	c #471F2D",
"t;	c #341828",
"u;	c #3B1825",
"v;	c #491A23",
"w;	c #683928",
"x;	c #5F3725",
"y;	c #32141C",
"z;	c #31101D",
"A;	c #270A19",
"B;	c #12040B",
"C;	c #080204",
"D;	c #040002",
"E;	c #9D677A",
"F;	c #CE87A0",
"G;	c #704558",
"H;	c #562037",
"I;	c #5D2339",
"J;	c #6C2436",
"K;	c #7D2835",
"L;	c #8F2C31",
"M;	c #A3392C",
"N;	c #C66C29",
"O;	c #C66B2B",
"P;	c #D0863D",
"Q;	c #984C2C",
"R;	c #B43527",
"S;	c #AD312B",
"T;	c #AB332B",
"U;	c #9B572C",
"V;	c #C88A45",
"W;	c #E2B783",
"X;	c #E5B075",
"Y;	c #CA8B47",
"Z;	c #A4552A",
"`;	c #A2312A",
" >	c #A8312B",
".>	c #9E2F2A",
"+>	c #812928",
"@>	c #5A1F2B",
"#>	c #531E33",
"$>	c #6D334A",
"%>	c #7C3D59",
"&>	c #692649",
"*>	c #521137",
"=>	c #2B051E",
"->	c #8F606F",
";>	c #B87891",
">>	c #713F55",
",>	c #5A2238",
"'>	c #602339",
")>	c #62243A",
"!>	c #772D38",
"~>	c #C46C2D",
"{>	c #C66C2A",
"]>	c #D0873D",
"^>	c #84492E",
"/>	c #AD352A",
"(>	c #B63329",
"_>	c #A9302B",
":>	c #802A25",
"<>	c #4F2829",
"[>	c #402F30",
"}>	c #402E2B",
"|>	c #752E24",
"1>	c #9F3028",
"2>	c #AA312C",
"3>	c #B1322A",
"4>	c #A7312A",
"5>	c #762526",
"6>	c #250E16",
"7>	c #200A12",
"8>	c #371422",
"9>	c #4C1B30",
"0>	c #6F1E4B",
"a>	c #881B5F",
"b>	c #661147",
"c>	c #17030F",
"d>	c #6C4853",
"e>	c #AB6F84",
"f>	c #743E52",
"g>	c #60233A",
"h>	c #782B3F",
"i>	c #C56B2E",
"j>	c #D1883F",
"k>	c #6C4234",
"l>	c #772934",
"m>	c #A42F2E",
"n>	c #B5332A",
"o>	c #A6312E",
"p>	c #8C2923",
"q>	c #4B1A23",
"r>	c #25162A",
"s>	c #241628",
"t>	c #732328",
"u>	c #9B2D2C",
"v>	c #AF322A",
"w>	c #BB3E39",
"x>	c #BA3C36",
"y>	c #872A2E",
"z>	c #431928",
"A>	c #1A0B14",
"B>	c #0E040D",
"C>	c #12040A",
"D>	c #2E071F",
"E>	c #631246",
"F>	c #8A1964",
"G>	c #781556",
"H>	c #210416",
"I>	c #2A1A1F",
"J>	c #A0697B",
"K>	c #733D50",
"L>	c #5F223A",
"M>	c #62233A",
"N>	c #863444",
"O>	c #C66B2D",
"P>	c #C56C2A",
"Q>	c #D08D42",
"R>	c #623831",
"S>	c #5E2437",
"T>	c #6A2438",
"U>	c #852933",
"V>	c #8B2C30",
"W>	c #7F2626",
"X>	c #43131E",
"Y>	c #180D1F",
"Z>	c #1C0F22",
"`>	c #4F1C2D",
" ,	c #78272F",
".,	c #A93D3F",
"+,	c #DF7D91",
"@,	c #D57283",
"#,	c #9E302F",
"$,	c #742736",
"%,	c #532034",
"&,	c #391725",
"*,	c #1A0C1C",
"=,	c #140A1C",
"-,	c #150A16",
";,	c #230417",
">,	c #580E3D",
",,	c #8A1A62",
"',	c #791656",
"),	c #180511",
"!,	c #050203",
"~,	c #8B5867",
"{,	c #6C3649",
"],	c #60223B",
"^,	c #60213A",
"/,	c #63263A",
"(,	c #964047",
"_,	c #BE813D",
":,	c #5F3131",
"<,	c #5C2337",
"[,	c #622437",
"},	c #5B2132",
"|,	c #501D2A",
"1,	c #2B0F21",
"2,	c #12081A",
"3,	c #12091B",
"4,	c #411829",
"5,	c #531F2F",
"6,	c #783745",
"7,	c #B86D83",
"8,	c #AA6175",
"9,	c #6D2537",
"0,	c #622339",
"a,	c #5B2238",
"b,	c #491C2F",
"c,	c #26111F",
"d,	c #170B20",
"e,	c #1C1023",
"f,	c #1A0F1D",
"g,	c #230418",
"h,	c #5B0E3F",
"i,	c #8B1963",
"j,	c #6C134D",
"k,	c #040204",
"l,	c #5F3B45",
"m,	c #612C3D",
"n,	c #B15684",
"o,	c #7E2057",
"p,	c #66273A",
"q,	c #A74B48",
"r,	c #AD7A3B",
"s,	c #643036",
"t,	c #5D2338",
"u,	c #521F32",
"v,	c #582136",
"w,	c #3E1728",
"x,	c #210F22",
"y,	c #160B1F",
"z,	c #12081B",
"A,	c #311222",
"B,	c #4B1C2E",
"C,	c #5A2537",
"D,	c #6F3649",
"E,	c #6D3246",
"F,	c #5F2339",
"G,	c #542035",
"H,	c #381727",
"I,	c #14091C",
"J,	c #180C21",
"K,	c #1A0E1B",
"L,	c #2B051D",
"M,	c #671149",
"N,	c #8D1A66",
"O,	c #520F3A",
"P,	c #241418",
"Q,	c #522233",
"R,	c #5E233A",
"S,	c #65223F",
"T,	c #802959",
"U,	c #B15483",
"V,	c #89235E",
"W,	c #702940",
"X,	c #B75941",
"Y,	c #C56D2B",
"Z,	c #91663B",
"`,	c #622C3A",
" '	c #5E2239",
".'	c #5A2236",
"+'	c #511F32",
"@'	c #2E1123",
"#'	c #201125",
"$'	c #1F1225",
"%'	c #160A1C",
"&'	c #1A0A19",
"*'	c #471B2D",
"='	c #512032",
"-'	c #5C203A",
";'	c #6B2145",
">'	c #692142",
",'	c #60233B",
"''	c #5B2139",
")'	c #481930",
"!'	c #1E0D1E",
"~'	c #15091F",
"{'	c #190C22",
"]'	c #1C1022",
"^'	c #160A16",
"/'	c #3E082A",
"('	c #7E175A",
"_'	c #86175F",
":'	c #220617",
"<'	c #35141F",
"['	c #582135",
"}'	c #5F2239",
"|'	c #AB477C",
"1'	c #E68CB1",
"2'	c #86205B",
"3'	c #832E4A",
"4'	c #C26634",
"5'	c #C46C29",
"6'	c #C17233",
"7'	c #663D32",
"8'	c #602438",
"9'	c #592237",
"0'	c #532033",
"a'	c #391525",
"b'	c #200E21",
"c'	c #23152A",
"d'	c #1E1222",
"e'	c #0D0711",
"f'	c #060208",
"g'	c #30101D",
"h'	c #501C33",
"i'	c #6D1D4B",
"j'	c #851C5E",
"k'	c #8A1D62",
"l'	c #772051",
"m'	c #62233D",
"n'	c #5D213B",
"o'	c #4E1A34",
"p'	c #271020",
"q'	c #15091E",
"r'	c #160A1F",
"s'	c #1A0E22",
"t'	c #1D1122",
"u'	c #1D0514",
"v'	c #580E3E",
"w'	c #921A69",
"x'	c #5C113F",
"y'	c #030203",
"z'	c #130409",
"A'	c #4A1C2D",
"B'	c #60223A",
"C'	c #6E2147",
"D'	c #B64F85",
"E'	c #F196BA",
"F'	c #812454",
"G'	c #A1434C",
"H'	c #C46C2B",
"I'	c #C46C2A",
"J'	c #A76732",
"K'	c #5E2936",
"L'	c #552034",
"M'	c #522032",
"N'	c #3A1527",
"O'	c #220F22",
"P'	c #221429",
"Q'	c #26172C",
"R'	c #180E1C",
"S'	c #050306",
"T'	c #110408",
"U'	c #45152E",
"V'	c #631C44",
"W'	c #801B5C",
"X'	c #921B6A",
"Y'	c #8D1D64",
"Z'	c #74204D",
"`'	c #5F203C",
" )	c #511B37",
".)	c #2B1222",
"+)	c #180B21",
"@)	c #1D1124",
"#)	c #37112B",
"$)	c #731751",
"%)	c #931C69",
"&)	c #671449",
"*)	c #020202",
"=)	c #2D101B",
"-)	c #551F33",
";)	c #6F2148",
">)	c #8B1D60",
",)	c #9B1A6E",
"')	c #9F2A70",
"))	c #842A51",
"!)	c #B95B42",
"~)	c #C56C29",
"{)	c #C36C2B",
"])	c #734529",
"^)	c #532232",
"/)	c #4C1D2E",
"()	c #361526",
"_)	c #241224",
":)	c #231529",
"<)	c #26182C",
"[)	c #241629",
"})	c #110A14",
"|)	c #220715",
"1)	c #531538",
"2)	c #6D1C4B",
"3)	c #821C5D",
"4)	c #911B69",
"5)	c #821E5A",
"6)	c #651F42",
"7)	c #551A3A",
"8)	c #2D1322",
"9)	c #1B0E22",
"0)	c #2C142A",
"a)	c #480F33",
"b)	c #520C39",
"c)	c #380726",
"d)	c #0D0306",
"e)	c #3F1726",
"f)	c #592136",
"g)	c #8A1D5F",
"h)	c #9B1B6D",
"i)	c #9E1A70",
"j)	c #9D1A6F",
"k)	c #962066",
"l)	c #9B3C51",
"m)	c #C36931",
"n)	c #C56B2A",
"o)	c #AB6029",
"p)	c #582930",
"q)	c #42192B",
"r)	c #321528",
"s)	c #251428",
"t)	c #25162B",
"u)	c #27182D",
"v)	c #2D192D",
"w)	c #211220",
"x)	c #0A040A",
"y)	c #2D081D",
"z)	c #58173B",
"A)	c #6F1C4D",
"B)	c #801C5B",
"C)	c #811D5B",
"D)	c #6E1E4C",
"E)	c #5A1A3F",
"F)	c #2D1221",
"G)	c #1D1024",
"H)	c #1C0F1E",
"I)	c #060306",
"J)	c #020102",
"K)	c #040101",
"L)	c #1D0910",
"M)	c #6A2245",
"N)	c #861E5D",
"O)	c #9A1B6D",
"P)	c #9C1A6E",
"Q)	c #972A5F",
"R)	c #B65944",
"S)	c #C16A2C",
"T)	c #774123",
"U)	c #55212F",
"V)	c #601F27",
"W)	c #301728",
"X)	c #28182D",
"Y)	c #311A2E",
"Z)	c #291424",
"`)	c #140710",
" !	c #030102",
".!	c #2F091F",
"+!	c #56163B",
"@!	c #6E1C4D",
"#!	c #741D52",
"$!	c #6C1D4B",
"%!	c #531A39",
"&!	c #201021",
"*!	c #3A151E",
"=!	c #611E26",
"-!	c #6A2020",
";!	c #481921",
">!	c #5C2036",
",!	c #66223F",
"'!	c #801F57",
")!	c #981B6C",
"!!	c #9F236C",
"~!	c #A94554",
"{!	c #C26831",
"]!	c #C46B2A",
"^!	c #A45C29",
"/!	c #59272F",
"(!	c #742630",
"_!	c #8F2A25",
":!	c #361727",
"<!	c #27182E",
"[!	c #2E192F",
"}!	c #28121F",
"|!	c #160810",
"1!	c #050103",
"2!	c #4D1335",
"3!	c #661B46",
"4!	c #6D1D4A",
"5!	c #521937",
"6!	c #1D0C1D",
"7!	c #17091E",
"8!	c #240E1F",
"9!	c #431A2B",
"0!	c #562033",
"a!	c #6A2536",
"b!	c #7F292F",
"c!	c #401313",
"d!	c #6F232C",
"e!	c #6C233A",
"f!	c #75204D",
"g!	c #931C66",
"h!	c #9F1E6E",
"i!	c #A83862",
"j!	c #BE603E",
"k!	c #B8662A",
"l!	c #733D2D",
"m!	c #5E2337",
"n!	c #982E2F",
"o!	c #AC3229",
"p!	c #421823",
"q!	c #371B2F",
"r!	c #301628",
"s!	c #240F1A",
"t!	c #0E0408",
"u!	c #1F0514",
"v!	c #3F0D2A",
"w!	c #4A1331",
"x!	c #3A1328",
"y!	c #1C0E1C",
"z!	c #190B1E",
"A!	c #18091C",
"B!	c #1C0C1D",
"C!	c #2B1021",
"D!	c #4A1C2E",
"E!	c #622439",
"F!	c #7B2834",
"G!	c #210605",
"H!	c #6F211D",
"I!	c #832730",
"J!	c #73233D",
"K!	c #63223E",
"L!	c #5F233A",
"M!	c #64223F",
"N!	c #821F59",
"O!	c #9C1B6E",
"P!	c #9E1B6F",
"Q!	c #A32364",
"R!	c #B23E47",
"S!	c #C2622D",
"T!	c #BF692B",
"U!	c #8F4F2B",
"V!	c #5C2436",
"W!	c #7A2735",
"X!	c #AF3229",
"Y!	c #B3342A",
"Z!	c #4A1821",
"`!	c #2F1320",
" ~	c #1F0A14",
".~	c #060103",
"+~	c #060102",
"@~	c #290C14",
"#~	c #421926",
"$~	c #4A1C2F",
"%~	c #4A1B2F",
"&~	c #491B2E",
"*~	c #461A2C",
"=~	c #441A29",
"-~	c #5C2238",
";~	c #632439",
">~	c #832A32",
",~	c #48130E",
"'~	c #882823",
")~	c #922A33",
"!~	c #7B243D",
"~~	c #692140",
"{~	c #63223D",
"]~	c #5F2338",
"^~	c #6C2145",
"/~	c #8B1D61",
"(~	c #9E1A71",
"_~	c #9F1B6F",
":~	c #A42064",
"<~	c #AE2C49",
"[~	c #B83A2C",
"}~	c #BA512B",
"|~	c #9A4F29",
"1~	c #652F32",
"2~	c #6D2536",
"3~	c #A02F2F",
"4~	c #AF3128",
"5~	c #922B25",
"6~	c #380F16",
"7~	c #0F0306",
"8~	c #3A1013",
"9~	c #561D28",
"0~	c #5A2135",
"a~	c #572135",
"b~	c #4B1D2C",
"c~	c #622438",
"d~	c #61233A",
"e~	c #712636",
"f~	c #7A2727",
"g~	c #070101",
"h~	c #621B16",
"i~	c #972C24",
"j~	c #8C273C",
"k~	c #762341",
"l~	c #6A2241",
"m~	c #72204A",
"n~	c #8D1D62",
"o~	c #A01C6B",
"p~	c #A6235E",
"q~	c #AF2B48",
"r~	c #B6332C",
"s~	c #B43828",
"t~	c #9A3827",
"u~	c #582225",
"v~	c #531F31",
"w~	c #662330",
"x~	c #8B292A",
"y~	c #84282C",
"z~	c #501C24",
"A~	c #140408",
"B~	c #2E0908",
"C~	c #641F20",
"D~	c #7E292F",
"E~	c #762734",
"F~	c #6C2635",
"G~	c #622435",
"H~	c #572134",
"I~	c #471E31",
"J~	c #401B2B",
"K~	c #62232F",
"L~	c #712637",
"M~	c #732734",
"N~	c #6C2227",
"O~	c #4D1512",
"P~	c #1F0504",
"Q~	c #701F18",
"R~	c #A12E24",
"S~	c #AA302D",
"T~	c #9E2C37",
"U~	c #91293E",
"V~	c #8B2546",
"W~	c #96225A",
"X~	c #A11F68",
"Y~	c #A21F68",
"Z~	c #A42165",
"`~	c #A7245E",
" {	c #AC2952",
".{	c #B22E3D",
"+{	c #B6322A",
"@{	c #B13328",
"#{	c #972E26",
"${	c #5E1E27",
"%{	c #2B172A",
"&{	c #562132",
"*{	c #551F31",
"={	c #532035",
"-{	c #231223",
";{	c #050205",
">{	c #3B0F0E",
",{	c #631F23",
"'{	c #6F242D",
"){	c #69232E",
"!{	c #5E2230",
"~{	c #501F2F",
"{{	c #3F1C2E",
"]{	c #2E1A2E",
"^{	c #31182B",
"/{	c #4C1D26",
"({	c #682129",
"_{	c #601D1F",
":{	c #42120F",
"<{	c #2C0907",
"[{	c #721F19",
"}{	c #A02E24",
"|{	c #B33328",
"1{	c #B0312A",
"2{	c #AB2E36",
"3{	c #AC2C44",
"4{	c #AD2B4C",
"5{	c #AE2B4B",
"6{	c #B02D45",
"7{	c #B32F39",
"8{	c #B6322C",
"9{	c #AC3127",
"0{	c #8E2A27",
"a{	c #5B1F28",
"b{	c #2F192D",
"c{	c #431D33",
"d{	c #562137",
"e{	c #5D2438",
"f{	c #562238",
"g{	c #190A15",
"h{	c #2A0B0B",
"i{	c #3E1823",
"j{	c #361A2F",
"k{	c #28182E",
"l{	c #2E192E",
"m{	c #26101D",
"n{	c #2D0C0A",
"o{	c #0C0101",
"p{	c #280806",
"q{	c #6A1D16",
"r{	c #972A21",
"s{	c #AE3126",
"t{	c #AF3127",
"u{	c #9E2D26",
"v{	c #802627",
"w{	c #4C1C29",
"x{	c #491E34",
"y{	c #592238",
"z{	c #431A29",
"A{	c #0A0205",
"B{	c #0F0404",
"C{	c #2E141F",
"D{	c #361B2E",
"E{	c #2E192D",
"F{	c #391A2C",
"G{	c #331421",
"H{	c #0D0307",
"I{	c #120302",
"J{	c #531411",
"K{	c #82231D",
"L{	c #9A2B22",
"M{	c #A42D24",
"N{	c #A72E24",
"O{	c #A62E24",
"P{	c #A22E25",
"Q{	c #982C26",
"R{	c #852828",
"S{	c #602029",
"T{	c #37192C",
"U{	c #401C32",
"V{	c #4F1F35",
"W{	c #5C2239",
"X{	c #5D2238",
"Y{	c #471A2A",
"Z{	c #1B060E",
"`{	c #270F1C",
" ]	c #351A2E",
".]	c #2C192E",
"+]	c #361A2E",
"@]	c #351523",
"#]	c #1A0505",
"$]	c #491210",
"%]	c #681A16",
"&]	c #6F1D16",
"*]	c #6C1C15",
"=]	c #5E1C1C",
"-]	c #461B27",
";]	c #36192D",
">]	c #3E1C31",
",]	c #4B1E35",
"']	c #562034",
")]	c #4C1B2D",
"!]	c #381521",
"~]	c #0E0407",
"{]	c #290F1D",
"]]	c #371A2E",
"^]	c #31192D",
"/]	c #361828",
"(]	c #17060D",
"_]	c #140B16",
":]	c #31192C",
"<]	c #461E33",
"[]	c #532137",
"}]	c #5A2239",
"|]	c #5A2137",
"1]	c #4D1D2F",
"2]	c #3A1421",
"3]	c #17070C",
"4]	c #11040A",
"5]	c #2E1323",
"6]	c #2C192D",
"7]	c #32172A",
"8]	c #270F1A",
"9]	c #170C1A",
"0]	c #2B192D",
"a]	c #381B30",
"b]	c #441D33",
"c]	c #481E34",
"d]	c #451D31",
"e]	c #3A1628",
"f]	c #1C0911",
"g]	c #250F1B",
"h]	c #32182B",
"i]	c #2C182E",
"j]	c #321A2E",
"k]	c #351726",
"l]	c #0B060E",
"m]	c #27182C",
"n]	c #190F1D",
"o]	c #040205",
"p]	c #1A0912",
"q]	c #2D1626",
"r]	c #29182C",
"s]	c #2F192C",
"t]	c #38192C",
"u]	c #331321",
"v]	c #070409",
"w]	c #190E1B",
"x]	c #170E1A",
"y]	c #2E111B",
"z]	c #39192B",
"A]	c #31182C",
"B]	c #3A1A2B",
"C]	c #481C2E",
"D]	c #501D2D",
"E]	c #48161C",
"F]	c #240605",
"G]	c #090305",
"H]	c #311118",
"I]	c #30182A",
"J]	c #1D1121",
"K]	c #030104",
"L]	c #1E0605",
"M]	c #4B1921",
"N]	c #551F2E",
"O]	c #4F1E31",
"P]	c #6D2637",
"Q]	c #7B272D",
"R]	c #5D1A19",
"S]	c #360C0A",
"T]	c #170403",
"U]	c #360D0F",
"V]	c #74221E",
"W]	c #A33027",
"X]	c #9C2E28",
"Y]	c #531D27",
"Z]	c #221527",
"`]	c #140C17",
" ^	c #37120F",
".^	c #551F27",
"+^	c #5B2133",
"@^	c #5B2237",
"#^	c #6B2437",
"$^	c #802830",
"%^	c #732425",
"&^	c #441515",
"*^	c #1B070B",
"=^	c #070204",
"-^	c #120202",
";^	c #360B09",
">^	c #7B221B",
",^	c #AC3027",
"'^	c #B73228",
")^	c #6B222A",
"!^	c #1F101E",
"~^	c #060307",
"{^	c #0B0306",
"]^	c #35131F",
"^^	c #461A2A",
"/^	c #521E32",
"(^	c #562035",
"_^	c #531F32",
":^	c #561D2C",
"<^	c #5F1F29",
"[^	c #431922",
"}^	c #1B0910",
"|^	c #120304",
"1^	c #441110",
"2^	c #81251F",
"3^	c #AB3127",
"4^	c #992D2F",
"5^	c #61202F",
"6^	c #2F0F1B",
"7^	c #060303",
"8^	c #110609",
"9^	c #130609",
"0^	c #16070B",
"a^	c #260E16",
"b^	c #240C15",
"c^	c #12060A",
"d^	c #3D1319",
"e^	c #6A2225",
"f^	c #8A2926",
"g^	c #A12E28",
"h^	c #A4302C",
"i^	c #872931",
"j^	c #5D2032",
"k^	c #401727",
"l^	c #1B070E",
"m^	c #1E0910",
"n^	c #341320",
"o^	c #3C1725",
"p^	c #361421",
"q^	c #34131D",
"r^	c #34141E",
"                                                          . +                                               @ # $               ",
"                                                        % & * =               - ; > , ' -                 ) ! ~ { ]             ",
"                                                        ^ / ( _             : < [ } | 1 2 3               4 5 6 7 8             ",
"                                                        9 0 a b             c d e f g h i j             . k l m n o             ",
"                                                        p q r s           t u v w x y z A B C           D E F G H I             ",
"                                                        J K L M           t N O P Q R S T U V W         X Y Z `  ...            ",
"                                                    +.@.#.$.%.&..       *.=.-.;.>.,.'.).!.~.{.].^.    /.(._.:.<.[.}.|.          ",
"                                                    1.2.3.4.5.6.7..     8.9.0.a.b.'.c.d.e.f.g.h.i.-   j.k.l.m.n.o.p.q.          ",
"                                                    r.s.t.u.v.w.x.y.  t z.A.B.C.D.E.E.F.G.H.I.J.K.L.M.N.O.P.Q.R.S.T.U.          ",
"                            t V.W.X.Y.:             Z.`. +.+++@+#+$+%+&+*+=+-+;+>+E.E.,+'+)+d.!+~+{+]+^+/+(+(+(+_+:+<+          ",
"                        t [+}+|+1+2+3+4+5+6+          7+8+9+0+a+b+c+d+e+f+g+h+i+j+c.k+l+m+H.).n+o+p+q+r+s+(+s+t+u+v+t           ",
"                      w+x+y+z+A+B+C+D+E+F+G+H+I+      *.J+K+L+M+N+O+P+Q+R+S+T+U+V+W+E.X+Y+k+Z+`+ @.@+@@@#@$@%@&@*@=@            ",
"                    : -@;@>@,@'@)@!@~@{@]@^@/@(@_@:@    <@[@}@|@1@2@3@4@5@6@7@8@9@0@a@b@c@d@e@f@g@h@i@(+j@k@l@m@      n@o@p@q@  ",
"                    r@s@t@u@v@w@x@y@z@A@B@C@D@E@F@G@H@  I@J@K@t.L@M@N@O@P@Q@R@S@T@U@V@W@X@Y@Z@`@ #.#+#@###$#%#&#    *#=#-#;#>#,#",
"                  '#)#!#~#{#]#^#/#(#_#:#<#[#}#|#1#2#3#4#5#6#7#8#9#0#a#b#c#d#e#f#g#h#i#j#k#l#m#n#o#p#q#r#s#t#u#    v#w#x#y#z#A#B#",
"                  C#D#E#F#d.c.E.E.c.).G#H#I#J#K#L#M#N#O#P#. - Q#R#S#T#U#V#W#X#Y#Z#`# $.$+$@$#$$$%$&$*$=$-$;$    >$,$'$)$!$~${$]$",
"                ^$/$($_$E.E.E.E.E.E.E.E.E.E.:$<$[$}$C+|$1$2$  3$4$5$6$7$8$9$0$a$b$c$d$e$f$g$h$i$j$k$l$m$t   n$o$p$q$r$!$s$t$u$v$",
"              w$x$y$_$E.E.E.E.E.E.E.E.E.E.E.z$E.A$B$C$D$E$F$G$  H$I$J$K$L$M$N$O$P$Q$R$S$T$U$V$W$X$Y$Z$`$ %.%+%@%#%$%%%&%*%=%-%;%",
"              >%,%'%E.E.E.E.E.E.E.E.E.E.E.E.E.E.E.)%!%~%{%]%^%/%(%_%:%<%[%}%|%1%2%3%4%5%6%7%8%9%0%a%b%c%d%e%f%g%h%i%j%k%l%m%=%n%",
"            o%p%q%c.E.E.E.E.E.E.E.E.E.E.E.E.E.E.E.E.r%s%t%u%v%w%x%y%z%A%B%C%D%E%F%G%H%I%J%K%L%M%N%O%P%Q%R%S%T%U%V%W%X%Y%Z%`% &.&",
"            +&@&#&E.E.E.E.E.E.$&E.E.E.E.$&$&$&$&$&$&$&%&&&*&=&-&;&>&,&'&)&!&~&{&]&^&/&(&_&:&<&[&}&|&1&2&3&4&5&6&7&8&9&0&a&b&c&d&",
"          e&f&g&h&E.E.E.E.E.$&$&$&E.E.E.E.$&$&E.E.E.$&i&j&k&l&m&n&o&p&q&r&s&t&u&v&w&x&y&z&A&B&C&D&E&F&G&H&I&J&K&L&M&N&O&P&Q&R&S&",
"          T&U&V&W&E.E.E.E.E.$&$&$&E.E.E.E.$&$&E.E.E.$&E.X&Y&Z&`& *.*+*@*#*$*%*&***=*-*;*>*,*'*)*!*~*{*]*^*/*(*_*:*<*[*}*|*1*2*3*",
"        . 4*5*6*7*8*E.E.E.E.$&$&$&E.E.E.E.$&$&E.E.E.E.E.9*0*a*b*c*d*e*f*g*h*i*j*k*l*m*n*o*p*q*r*s*t*u*v*w*x*y*z*A*B*C*D*E*F*G*H*",
"        I*J*K*L*M*N*E.E.E.$&E.E.$&$&E.E.E.$&$&E.E.$&E.E.E.O*P*Q*R*S*T*U*V*W*X*Y*Z*`* =.=+=@=#=$=%=&=*===-=;=>=,='=)=!=~={=]=^=  ",
"        /=(=_=:=<=[=E.E.E.$&E.E.$&$&E.E.E.$&$&$&$&$&E.E.E.}=|=1=2=3=4=5=6=7=8=9=0=a=b=c.E.E.c=d=e=f=g=h=i=    j=k=l=m=n=o=p=    ",
"        q=r=L*s=t=#&E.E.E.$&$&$&$&$&E.E.E.$&$&E.E.$&E.E.E.E.u=v=w=x=y=z=A=B=C=D=E=F=G=H=E.E.I=J=K=L=M=N=O=    P=Q=R=S=T=U=      ",
"        V=W=L*X=Y=E.E.E.$&E.E.E.E.$&$&E.E.$&$&E.E.E.E.E.E.E.Z=`= -.-+-@-#-$-%-&-*-=---;-E.E.>-,-'-)-!-~-.         . {-*.        ",
"        ]-^-L*/-(-_-:-<-$&d.k+E.E.$&$&E.E.$&$&E.E.E.$&E.E.[-}-|-1-1-2-3-4-5-6-7-8-9-0-a-b-c-).d-e-f-g-h-                        ",
"      . i-j-k-l-m-n-o-$&$&$&p-q-$&$&$&$&$&$&$&$&$&$&$&E.E.E.r-s-1-t-u-v-w-x-y-z-A-B-C-D-E-F-G-H-I-J-                            ",
"      : K-L-M-N-O-P-Q-R-S-S-T-U-V-W-X-Y-Z-`- ;.;.;+;d.E.E.E.@;#;$;%;&;*;=;-;;;>;,;';);!;~;{;];^;/;(;_;_;:;t                     ",
"        <;[;};|;1;2;g g 3;g g g g g 4;5;6;7;8;9;0;a;b;c;d;k+e;f;g;h;i;j;k;l;m;n;o;p;q;r;s;t;u;v;w;x;y;z;A;B;C;D;-               ",
"        E;F;G;H;I;g g $&$&$&$&g g $&$&$&$&g g g $&$&$&$&J;K;L;M;N;O;P;Q;R;E.S;T;U;V;W;X;Y;Z;`; >.>+>@>#>$>%>&>*>=>:             ",
"        ->;>>>,>3;g $&$&g g $&$&g g $&$&g g g $&$&g g $&$&'>)>!>~>{>]>^>/>e.(>_>:><>[>}>|>1>2>3>).4>5>6>7>8>9>0>a>b>c>          ",
"        d>e>f>g g $&$&g g g $&$&g g $&$&g g g $&$&g g g $&g g>h>i>N;j>k>l>m>n>o>p>q>r>s>t>u>v>w>x>v>y>z>A>B>C>D>E>F>G>H>        ",
"        I>J>K>g g $&$&g g g g g g g $&$&g g g $&$&$&g L>L>3;M>N>O>P>Q>R>S>T>U>V>W>X>Y>Z>`> ,.,+,@,#,$,%,&,*,=,-,;,>,,,',),      ",
"        !,~,{,g g $&$&g g g g g g g $&$&g g g g $&$&$&g ],^,/,(,P>P>_,:,<,3;[,},|,1,2,3,4,5,6,7,8,9,0,a,b,c,d,e,f,g,h,i,j,k,    ",
"          l,m,g g $&$&g g $&$&$&g g $&$&g g g g g $&$&$&n,o,p,q,P>P>r,s,t,g u,v,w,x,y,z,A,B,C,D,E,F,g g G,H,I,J,Z>K,L,M,N,O,=   ",
"          P,Q,I;g $&$&g g g $&$&g g $&$&g g g R,S,T,U,$&$&V,W,X,P>Y,Z,`, '.'+'u,@'#'$'%'&'*'='-';'>','R,'')'!'~'{']'^'/'('_':'  ",
"          t <'['g $&$&g g g $&$&g g $&$&g g }'$&$&|'1'$&$&2'3'4'5'6'7'8'9'u,0'a'b'c'd'e'f'g'h'i'j'k'l'm'n'o'p'q'r's't'u'v'w'x'y'",
"            z'A'a,g $&$&g g $&$&g g $&$&g B'C'$&$&D'E'$&$&F'G'H'I'J'K'L'0'M'N'O'P'Q'R'S'  T'U'V'W'X'Y'Z'`' ).)q'~'+)@)#)$)%)&)*)",
"              =)-)g g $&$&$&$&g g $&$&$&$&;)>),)$&$&$&$&')))!)~){)])^)v,/)()_):)<)[)})+     |)1)2)3)4)5)6)7)8)~'q'r'9)0)a)b)c)t ",
"              d)e)f)g g g g g g g g g g C'g)h)i)i)i)i)j)k)l)m)n)o)p)u,q)r)s)t)u)v)w)x)      = y)z)A)B)C)D)E)F)~'~'~'d,G)H)I)J)K)",
"                L)B,a,F,g g g g g g g M)N)O)i)i)i)i)i)P)Q)R)P>S)T)U)V)W)r>Q'X)Y)Z)`)J)         !.!+!@!#!$!%!p'~'~'~'~'d,&!*!=!-!",
"                = ;!>!}'g R,g g g 3;,!'!)!i)i)i)i)i)i)!!~!{!]!^!/!(!_!:!<![!B-}!|!1!             !y)2!3!4!5!6!~'~'~'7!8!9!0!a!b!",
"                  c!d!e!],g g g g F,f!g!i)i)i)i)i)i)h!i!j!H'k!l!m!n!o!p!q!r!s!t!-                 - u!v!w!x!y!z!A!B!C!D!f)R,E!F!",
"                  G!H!I!J!K!L!g g M!N!O!i)i)i)i)i)P!Q!R!S!T!U!V!W!X!Y!Z!`! ~.~                        +~@~#~$~%~&~*~=~-~F,R,;~>~",
"                    ,~'~)~!~~~{~]~^~/~(~i)i)i)i)_~:~<~[~}~|~1~2~3~4~5~6~7~h-                        ; 8~9~0~I;g g a~b~c~]~d~e~f~",
"                    g~h~i~g.j~k~l~m~n~(~i)i)i)o~p~q~r~s~t~u~v~w~x~y~z~A~                            B~C~D~E~F~G~H~I~J~K~L~M~N~O~",
"                      P~Q~R~S~T~U~V~W~X~Y~Z~`~ {.{+{@{#{${%{$~&{*{={-{;{                            >{,{'{){!{~{{{]{^{/{({_{:{t ",
"                        <{[{}{|{1{2{3{4{5{6{7{8{k+9{0{a{b{c{d{e{g f{g{J)                            h{i{j{k{k{X)X)l{!;m{n{o{    ",
"                          p{q{r{s{c.c.c.E.E.k+t{u{v{w{j{x{y{3;I;-~z{A{                              B{C{D{X)u)X)E{F{G{H{        ",
"                            I{J{K{L{M{N{O{P{Q{R{S{T{U{V{W{}'X{L'Y{Z{h-                              t `{ ]u)u).]+]@]d)          ",
"                                #]$]%]&]*]=]-];]>],]y{g t,'])]!]~]                                  t {]]]u)X)^]/](]            ",
"                                        : _]:]<][]}]|]['1]2]3]                                      4]5]j{u)6]7]8]              ",
"                                        y'9]0]a]b]c]d]e]f].                                       C;g]h]i]X)j]k]'               ",
"                                      - l]d'u)u)m]s>n]o]                                          p]q]E{r]s]t]u]*.              ",
"                                    - v]w][)u)u)[)x]n$                                          _;y]z]A]B]C]D]E]F]              ",
"                                    G]H]z~^;I]Q'J]K]                                            L]M]N]O].'g P]Q]R]S]T]          ",
"                                  w$U]V]W]X]Y]Z]`]:                                              ^.^+^f)@^I;R,#^$^%^&^*^=^      ",
"                                -^;^>^,^'^G-)^!^~^                                              t {^7>]^^^/^['(^_^:^<^[^}^*.    ",
"                            t |^1^2^3^d.3>4^5^6^.                                                       . 7^8^9^0^a^b^c^.       ",
"                            !,d^e^f^g^h^i^j^k^l^                                                                                ",
"                            _ m^n^o^p^q^r^b^*)                                                                                  "};
