/* XPM */
static char * wall_xpm[] = {
"64 64 3047 2",
"  	c #000000",
". 	c #363B2E",
"+ 	c #525B48",
"@ 	c #626D56",
"# 	c #6A775D",
"$ 	c #6E7B5F",
"% 	c #6F7C60",
"& 	c #636F56",
"* 	c #637062",
"= 	c #849471",
"- 	c #74785D",
"; 	c #6E735A",
"> 	c #6C795E",
", 	c #728362",
"' 	c #4C564A",
") 	c #3A443E",
"! 	c #586053",
"~ 	c #5D6559",
"{ 	c #5B6358",
"] 	c #576157",
"^ 	c #4C554F",
"/ 	c #404946",
"( 	c #343D3D",
"_ 	c #506152",
": 	c #7C8767",
"< 	c #717A5D",
"[ 	c #6B795B",
"} 	c #6C7557",
"| 	c #6D7556",
"1 	c #6E7457",
"2 	c #646D55",
"3 	c #5C6553",
"4 	c #5D6655",
"5 	c #5C6754",
"6 	c #5B6653",
"7 	c #5C6554",
"8 	c #5D6454",
"9 	c #5C6353",
"0 	c #5C6253",
"a 	c #596251",
"b 	c #5A6555",
"c 	c #596353",
"d 	c #596152",
"e 	c #576252",
"f 	c #5B6457",
"g 	c #656E5B",
"h 	c #6B785E",
"i 	c #37403B",
"j 	c #333C3B",
"k 	c #50574C",
"l 	c #586050",
"m 	c #575C50",
"n 	c #53554B",
"o 	c #4C4D43",
"p 	c #32362D",
"q 	c #26271C",
"r 	c #5A6049",
"s 	c #71775E",
"t 	c #69755B",
"u 	c #67725B",
"v 	c #64715A",
"w 	c #657058",
"x 	c #68735A",
"y 	c #626E54",
"z 	c #667261",
"A 	c #82906E",
"B 	c #71775B",
"C 	c #6D765B",
"D 	c #69765B",
"E 	c #738867",
"F 	c #576553",
"G 	c #444E44",
"H 	c #5C6355",
"I 	c #5D6659",
"J 	c #5B645A",
"K 	c #545E55",
"L 	c #4C534E",
"M 	c #3F4946",
"N 	c #353D3E",
"O 	c #61745F",
"P 	c #7D8766",
"Q 	c #6F7A5B",
"R 	c #6B7658",
"S 	c #6C7255",
"T 	c #6B7155",
"U 	c #687055",
"V 	c #666D54",
"W 	c #636953",
"X 	c #5F6553",
"Y 	c #5E6756",
"Z 	c #5C6654",
"` 	c #5D6353",
" .	c #5E6554",
"..	c #5D6553",
"+.	c #5E6757",
"@.	c #586151",
"#.	c #5A6153",
"$.	c #5A6152",
"%.	c #596252",
"&.	c #5A6358",
"*.	c #5C655A",
"=.	c #606A5B",
"-.	c #6C7760",
";.	c #39423C",
">.	c #2F3837",
",.	c #4C554A",
"'.	c #575E4F",
").	c #575F51",
"!.	c #575D52",
"~.	c #5B6154",
"{.	c #636759",
"].	c #666B5B",
"^.	c #545B49",
"/.	c #1B1F18",
"(.	c #26261B",
"_.	c #62634C",
":.	c #757C60",
"<.	c #727960",
"[.	c #6E775D",
"}.	c #66725B",
"|.	c #637058",
"1.	c #636E57",
"2.	c #647058",
"3.	c #626E55",
"4.	c #667761",
"5.	c #808D6B",
"6.	c #71785C",
"7.	c #6C7B5F",
"8.	c #67785D",
"9.	c #708765",
"0.	c #5D6D56",
"a.	c #4E584D",
"b.	c #5F6659",
"c.	c #5B675C",
"d.	c #57645A",
"e.	c #515D54",
"f.	c #48504B",
"g.	c #3D4745",
"h.	c #353D3C",
"i.	c #5B6D5A",
"j.	c #848E6B",
"k.	c #6F795A",
"l.	c #696D53",
"m.	c #656C54",
"n.	c #616C54",
"o.	c #626E56",
"p.	c #636F58",
"q.	c #606F57",
"r.	c #5E6D57",
"s.	c #5A6757",
"t.	c #5B6858",
"u.	c #63715B",
"v.	c #66735C",
"w.	c #606D58",
"x.	c #596352",
"y.	c #606C58",
"z.	c #5E6958",
"A.	c #5A6455",
"B.	c #5C6556",
"C.	c #5A6559",
"D.	c #5C665B",
"E.	c #5E6A5B",
"F.	c #6B7C64",
"G.	c #3B453D",
"H.	c #303837",
"I.	c #495347",
"J.	c #555C4D",
"K.	c #555F50",
"L.	c #566155",
"M.	c #596757",
"N.	c #5D6A59",
"O.	c #626D5B",
"P.	c #6B775F",
"Q.	c #485142",
"R.	c #080B0C",
"S.	c #5A5D46",
"T.	c #6C7158",
"U.	c #6F795F",
"V.	c #6E755D",
"W.	c #667059",
"X.	c #616D57",
"Y.	c #636F57",
"Z.	c #657159",
"`.	c #616D55",
" +	c #73866B",
".+	c #7F8D6A",
"++	c #737D60",
"@+	c #6C7A60",
"#+	c #67775B",
"$+	c #6D8462",
"%+	c #5D6C55",
"&+	c #505A4C",
"*+	c #606858",
"=+	c #596259",
"-+	c #566258",
";+	c #546056",
">+	c #4B554E",
",+	c #414A47",
"'+	c #384140",
")+	c #485549",
"!+	c #869370",
"~+	c #70795A",
"{+	c #6B7154",
"]+	c #666B53",
"^+	c #606A53",
"/+	c #5F6B53",
"(+	c #68745C",
"_+	c #626F56",
":+	c #616B56",
"<+	c #636F5B",
"[+	c #64715B",
"}+	c #5E6B57",
"|+	c #616957",
"1+	c #636C57",
"2+	c #5E6652",
"3+	c #5B6353",
"4+	c #5C6656",
"5+	c #5B6759",
"6+	c #5C685B",
"7+	c #5D695C",
"8+	c #5F6E5C",
"9+	c #718469",
"0+	c #3F4940",
"a+	c #2F3838",
"b+	c #485048",
"c+	c #565B4F",
"d+	c #545E50",
"e+	c #566357",
"f+	c #576959",
"g+	c #5E6D5C",
"h+	c #66735D",
"i+	c #6C785F",
"j+	c #5B6654",
"k+	c #1F2626",
"l+	c #3C3E30",
"m+	c #72775A",
"n+	c #6C7358",
"o+	c #727C61",
"p+	c #69755C",
"q+	c #6D765C",
"r+	c #6A745B",
"s+	c #636D58",
"t+	c #626D58",
"u+	c #66745B",
"v+	c #72846A",
"w+	c #82906D",
"x+	c #707E60",
"y+	c #6D7C60",
"z+	c #69785C",
"A+	c #728762",
"B+	c #5F6F55",
"C+	c #4C5649",
"D+	c #66715D",
"E+	c #5A6257",
"F+	c #556257",
"G+	c #505B52",
"H+	c #4F5951",
"I+	c #444D48",
"J+	c #3B4442",
"K+	c #4B584C",
"L+	c #8E9C7A",
"M+	c #737B5E",
"N+	c #6E785A",
"O+	c #686E54",
"P+	c #646D53",
"Q+	c #626F57",
"R+	c #647159",
"S+	c #636E56",
"T+	c #67715A",
"U+	c #6B755D",
"V+	c #6C755C",
"W+	c #69715B",
"X+	c #606756",
"Y+	c #626857",
"Z+	c #626655",
"`+	c #626656",
" @	c #606856",
".@	c #606B59",
"+@	c #5C6B5A",
"@@	c #5D6B5A",
"#@	c #606B5B",
"$@	c #7C8C6D",
"%@	c #424B41",
"&@	c #303939",
"*@	c #4A524B",
"=@	c #55594F",
"-@	c #545D51",
";@	c #576356",
">@	c #5D6B59",
",@	c #68735D",
"'@	c #6D775F",
")@	c #707D62",
"!@	c #2B3335",
"~@	c #394233",
"{@	c #5A5E4A",
"]@	c #70775C",
"^@	c #73785A",
"/@	c #70795E",
"(@	c #68745D",
"_@	c #687159",
":@	c #6B745C",
"<@	c #616753",
"[@	c #606855",
"}@	c #65735A",
"|@	c #5F7058",
"1@	c #839271",
"2@	c #6B7B5E",
"3@	c #66785D",
"4@	c #69785D",
"5@	c #758B66",
"6@	c #616E56",
"7@	c #4B574B",
"8@	c #6D7963",
"9@	c #596056",
"0@	c #535F54",
"a@	c #4D5750",
"b@	c #464F4A",
"c@	c #3F4744",
"d@	c #64755F",
"e@	c #8B9E7B",
"f@	c #6C7A5B",
"g@	c #6B785C",
"h@	c #6C7658",
"i@	c #697258",
"j@	c #677056",
"k@	c #687158",
"l@	c #6C765D",
"m@	c #6C7B60",
"n@	c #6B765C",
"o@	c #666E58",
"p@	c #646957",
"q@	c #646956",
"r@	c #656A57",
"s@	c #646B57",
"t@	c #656E5A",
"u@	c #626E59",
"v@	c #636F59",
"w@	c #666F5B",
"x@	c #66715C",
"y@	c #859674",
"z@	c #4B5647",
"A@	c #31393A",
"B@	c #424B45",
"C@	c #4C544B",
"D@	c #4D584D",
"E@	c #4D564B",
"F@	c #50594D",
"G@	c #4F5B4D",
"H@	c #525E4F",
"I@	c #586254",
"J@	c #4B554B",
"K@	c #273033",
"L@	c #56624C",
"M@	c #696E55",
"N@	c #6D745D",
"O@	c #71755A",
"P@	c #6F795E",
"Q@	c #64705B",
"R@	c #69725C",
"S@	c #666954",
"T@	c #636854",
"U@	c #626856",
"V@	c #647259",
"W@	c #63745B",
"X@	c #7D906E",
"Y@	c #6D7D5F",
"Z@	c #687A5F",
"`@	c #677A5D",
" #	c #6D8262",
".#	c #606956",
"+#	c #62705C",
"@#	c #4D554C",
"##	c #49524C",
"$#	c #4B524E",
"%#	c #4A514C",
"&#	c #454E49",
"*#	c #404845",
"=#	c #606F58",
"-#	c #68785E",
";#	c #5D6B53",
">#	c #5D6A53",
",#	c #616E53",
"'#	c #647156",
")#	c #697659",
"!#	c #6A775A",
"~#	c #6D7A5E",
"{#	c #6B785B",
"]#	c #6C795C",
"^#	c #6A775C",
"/#	c #67735B",
"(#	c #667159",
"_#	c #67725A",
":#	c #69735B",
"<#	c #69745B",
"[#	c #6E7B5E",
"}#	c #6E7F62",
"|#	c #63715A",
"1#	c #566350",
"2#	c #4E5849",
"3#	c #2F3735",
"4#	c #252C31",
"5#	c #242C31",
"6#	c #262E32",
"7#	c #262D31",
"8#	c #262E30",
"9#	c #272F32",
"0#	c #283032",
"a#	c #262E31",
"b#	c #657359",
"c#	c #6E725B",
"d#	c #696F5A",
"e#	c #6F755C",
"f#	c #6C775E",
"g#	c #65735C",
"h#	c #636E58",
"i#	c #646754",
"j#	c #646752",
"k#	c #616955",
"l#	c #637156",
"m#	c #5E6A54",
"n#	c #475144",
"o#	c #576250",
"p#	c #545F4F",
"q#	c #4F594B",
"r#	c #525C4E",
"s#	c #475145",
"t#	c #4C564B",
"u#	c #434B45",
"v#	c #454C47",
"w#	c #3F4942",
"x#	c #3D4442",
"y#	c #39403F",
"z#	c #373F3E",
"A#	c #363D3D",
"B#	c #2C3337",
"C#	c #2A3135",
"D#	c #303838",
"E#	c #333B3A",
"F#	c #343C3B",
"G#	c #363F3C",
"H#	c #353E3B",
"I#	c #37403C",
"J#	c #454F44",
"K#	c #4C5648",
"L#	c #55614D",
"M#	c #59644F",
"N#	c #5E6A53",
"O#	c #5D6953",
"P#	c #596451",
"Q#	c #566050",
"R#	c #525D4F",
"S#	c #4B574C",
"T#	c #455247",
"U#	c #2D3735",
"V#	c #252D31",
"W#	c #424C45",
"X#	c #6B7962",
"Y#	c #738169",
"Z#	c #718067",
"`#	c #707C66",
" $	c #6D7A64",
".$	c #6A7762",
"+$	c #687562",
"@$	c #63705D",
"#$	c #596656",
"$$	c #424D47",
"%$	c #252C33",
"&$	c #242B31",
"*$	c #6E7D60",
"=$	c #6A6F5B",
"-$	c #646B56",
";$	c #6A725B",
">$	c #68745E",
",$	c #63715C",
"'$	c #606B57",
")$	c #636856",
"!$	c #657358",
"~$	c #5A6652",
"{$	c #2D3535",
"]$	c #4D5A4D",
"^$	c #4F5D4D",
"/$	c #566455",
"($	c #5D6C5A",
"_$	c #60705C",
":$	c #62725C",
"<$	c #65725C",
"[$	c #6B7760",
"}$	c #758368",
"|$	c #748267",
"1$	c #7A896B",
"2$	c #7D8C6E",
"3$	c #758465",
"4$	c #6E7F60",
"5$	c #627157",
"6$	c #525E4E",
"7$	c #3E4743",
"8$	c #404A42",
"9$	c #404943",
"0$	c #3D4540",
"a$	c #3A423C",
"b$	c #343D3A",
"c$	c #333C39",
"d$	c #343D3C",
"e$	c #363F3D",
"f$	c #36403D",
"g$	c #454F49",
"h$	c #4D584C",
"i$	c #3A3F3A",
"j$	c #3A4240",
"k$	c #8A9C7B",
"l$	c #778669",
"m$	c #6C795F",
"n$	c #6D775E",
"o$	c #6F775F",
"p$	c #6A735C",
"q$	c #67705A",
"r$	c #666F5C",
"s$	c #646F5B",
"t$	c #66725D",
"u$	c #636F5D",
"v$	c #68745F",
"w$	c #434C45",
"x$	c #212830",
"y$	c #77876A",
"z$	c #656B59",
"A$	c #636955",
"B$	c #666D57",
"C$	c #616E58",
"D$	c #5F6E58",
"E$	c #5F6C58",
"F$	c #616A57",
"G$	c #656954",
"H$	c #636A56",
"I$	c #647257",
"J$	c #586352",
"K$	c #3C4841",
"L$	c #8EA17F",
"M$	c #748263",
"N$	c #748162",
"O$	c #717D5F",
"P$	c #727D60",
"Q$	c #747E5F",
"R$	c #71795D",
"S$	c #6D755C",
"T$	c #6A7158",
"U$	c #6B725B",
"V$	c #6B715A",
"W$	c #6F755A",
"X$	c #758163",
"Y$	c #5F6C56",
"Z$	c #293134",
"`$	c #303839",
" %	c #465046",
".%	c #4A5449",
"+%	c #485448",
"@%	c #475448",
"#%	c #475247",
"$%	c #444E43",
"%%	c #444D45",
"&%	c #424C44",
"*%	c #444E45",
"=%	c #495449",
"-%	c #535E50",
";%	c #596553",
">%	c #5B6956",
",%	c #2F3433",
"'%	c #889A7A",
")%	c #5C6756",
"!%	c #5C6555",
"~%	c #5B6555",
"{%	c #5B6453",
"]%	c #5F6555",
"^%	c #5E6358",
"/%	c #5D675A",
"(%	c #636E5D",
"_%	c #566051",
":%	c #242A32",
"<%	c #7B8C6F",
"[%	c #616857",
"}%	c #606654",
"|%	c #636855",
"1%	c #5E6955",
"2%	c #5F6A55",
"3%	c #5F6856",
"4%	c #626B56",
"5%	c #66745A",
"6%	c #35423E",
"7%	c #7D8C6D",
"8%	c #676D55",
"9%	c #606550",
"0%	c #606750",
"a%	c #61654F",
"b%	c #62654F",
"c%	c #636751",
"d%	c #606852",
"e%	c #616954",
"f%	c #606A54",
"g%	c #686E55",
"h%	c #6D715A",
"i%	c #70745B",
"j%	c #70765C",
"k%	c #5D6855",
"l%	c #2E3636",
"m%	c #4B554A",
"n%	c #4D574B",
"o%	c #4C5A4D",
"p%	c #4D594C",
"q%	c #4E594B",
"r%	c #4E5A4C",
"s%	c #546052",
"t%	c #4F5E4E",
"u%	c #516050",
"v%	c #546252",
"w%	c #586454",
"x%	c #5C6653",
"y%	c #5C6856",
"z%	c #5B6755",
"A%	c #2C3434",
"B%	c #7C8E6E",
"C%	c #546152",
"D%	c #566453",
"E%	c #545E51",
"F%	c #596255",
"G%	c #5B6258",
"H%	c #5B6357",
"I%	c #5A6259",
"J%	c #5E695A",
"K%	c #566152",
"L%	c #79896D",
"M%	c #616757",
"N%	c #5C6354",
"O%	c #616755",
"P%	c #5F6654",
"Q%	c #5F6853",
"R%	c #5F6757",
"S%	c #5E6553",
"T%	c #5F6955",
"U%	c #6B785D",
"V%	c #414F46",
"W%	c #778564",
"X%	c #676B54",
"Y%	c #60644E",
"Z%	c #606450",
"`%	c #626550",
" &	c #656A55",
".&	c #666B56",
"+&	c #686D58",
"@&	c #6A6F58",
"#&	c #6E7458",
"$&	c #707559",
"%&	c #72775D",
"&&	c #6E745A",
"*&	c #566151",
"=&	c #313939",
"-&	c #323B3B",
";&	c #4A554B",
">&	c #50594B",
",&	c #4F5A4A",
"'&	c #535E4E",
")&	c #586353",
"!&	c #56614F",
"~&	c #59614E",
"{&	c #5B6450",
"]&	c #5B644F",
"^&	c #5B634F",
"/&	c #5A614E",
"(&	c #5B604D",
"_&	c #5D634E",
":&	c #5B6150",
"<&	c #5A6654",
"[&	c #2F3737",
"}&	c #79866B",
"|&	c #525F52",
"1&	c #566352",
"2&	c #535E4F",
"3&	c #5B6958",
"4&	c #576355",
"5&	c #566457",
"6&	c #5A6457",
"7&	c #5C645A",
"8&	c #5F6A5C",
"9&	c #414A42",
"0&	c #293131",
"a&	c #7A896D",
"b&	c #606657",
"c&	c #5C6454",
"d&	c #5D6753",
"e&	c #606A57",
"f&	c #5F6656",
"g&	c #5E6656",
"h&	c #424D41",
"i&	c #4B574A",
"j&	c #727E5D",
"k&	c #6D7459",
"l&	c #656A54",
"m&	c #686D57",
"n&	c #696F57",
"o&	c #666C56",
"p&	c #687058",
"q&	c #686F57",
"r&	c #68705A",
"s&	c #666D58",
"t&	c #646C56",
"u&	c #616B55",
"v&	c #5D6958",
"w&	c #515C4E",
"x&	c #3C4842",
"y&	c #505C50",
"z&	c #4C5548",
"A&	c #4E5B4B",
"B&	c #54604F",
"C&	c #576351",
"D&	c #5B6551",
"E&	c #5B624E",
"F&	c #5B614D",
"G&	c #5A5F4C",
"H&	c #5D614E",
"I&	c #5C604E",
"J&	c #595D4C",
"K&	c #585D4C",
"L&	c #585E4E",
"M&	c #545B4D",
"N&	c #525D4E",
"O&	c #545F50",
"P&	c #3E4843",
"Q&	c #7A866A",
"R&	c #546253",
"S&	c #506252",
"T&	c #596250",
"U&	c #5A614F",
"V&	c #566052",
"W&	c #5A6254",
"X&	c #586356",
"Y&	c #5C6457",
"Z&	c #5F6A5B",
"`&	c #566255",
" *	c #2C3533",
".*	c #7B8B6E",
"+*	c #606556",
"@*	c #585E50",
"#*	c #576050",
"$*	c #596354",
"%*	c #5B6053",
"&*	c #5C6356",
"**	c #60675A",
"=*	c #69775E",
"-*	c #434E42",
";*	c #414C42",
">*	c #485447",
",*	c #4D584B",
"'*	c #4D574A",
")*	c #4B5648",
"!*	c #495648",
"~*	c #4B5748",
"{*	c #475347",
"]*	c #445045",
"^*	c #434D44",
"/*	c #404B41",
"(*	c #3F4B42",
"_*	c #353F3A",
":*	c #2C3436",
"<*	c #485749",
"[*	c #485247",
"}*	c #49554A",
"|*	c #4A564A",
"1*	c #475246",
"2*	c #4A5247",
"3*	c #4D5549",
"4*	c #4A5348",
"5*	c #474F44",
"6*	c #495246",
"7*	c #4B5348",
"8*	c #4B5247",
"9*	c #444C43",
"0*	c #3A403C",
"a*	c #242B2E",
"b*	c #37403E",
"c*	c #6D785F",
"d*	c #596151",
"e*	c #556254",
"f*	c #526250",
"g*	c #5C6250",
"h*	c #575F4D",
"i*	c #5B6156",
"j*	c #5C695A",
"k*	c #48534B",
"l*	c #2A3433",
"m*	c #7B8A6F",
"n*	c #5F6556",
"o*	c #575E50",
"p*	c #585D4E",
"q*	c #565C4E",
"r*	c #596052",
"s*	c #586052",
"t*	c #5B6054",
"u*	c #5E6257",
"v*	c #626A5B",
"w*	c #707D64",
"x*	c #454F42",
"y*	c #2D3739",
"z*	c #586C59",
"A*	c #667661",
"B*	c #616C5B",
"C*	c #576256",
"D*	c #535F55",
"E*	c #505C54",
"F*	c #4E5852",
"G*	c #4C5550",
"H*	c #4B5650",
"I*	c #48534E",
"J*	c #4C5552",
"K*	c #4C5551",
"L*	c #444D49",
"M*	c #3F4847",
"N*	c #3B4443",
"O*	c #30383A",
"P*	c #38453F",
"Q*	c #424F44",
"R*	c #323B38",
"S*	c #323C3A",
"T*	c #343E3B",
"U*	c #47524B",
"V*	c #566557",
"W*	c #566558",
"X*	c #525E53",
"Y*	c #4D584F",
"Z*	c #414B44",
"`*	c #323B37",
" =	c #2C3435",
".=	c #242B2F",
"+=	c #4E594D",
"@=	c #849273",
"#=	c #556050",
"$=	c #565D4D",
"%=	c #575D4E",
"&=	c #585F4F",
"*=	c #595F51",
"==	c #5B5F52",
"-=	c #5D6258",
";=	c #586257",
">=	c #4D584E",
",=	c #48514B",
"'=	c #273031",
")=	c #7D8B6D",
"!=	c #576052",
"~=	c #575B4E",
"{=	c #585B4E",
"]=	c #5B6052",
"^=	c #636B59",
"/=	c #6F7D61",
"(=	c #475143",
"_=	c #313B3A",
":=	c #667C61",
"<=	c #5F6857",
"[=	c #5E6856",
"}=	c #565C50",
"|=	c #50584F",
"1=	c #50574E",
"2=	c #4D554E",
"3=	c #4A534E",
"4=	c #444E4B",
"5=	c #3F4945",
"6=	c #363F3E",
"7=	c #2E3638",
"8=	c #596959",
"9=	c #7F9477",
"0=	c #7D9372",
"a=	c #7C8F71",
"b=	c #849978",
"c=	c #849877",
"d=	c #869777",
"e=	c #869776",
"f=	c #899B78",
"g=	c #889976",
"h=	c #879774",
"i=	c #879673",
"j=	c #899876",
"k=	c #8C9C7A",
"l=	c #8DA17E",
"m=	c #829675",
"n=	c #5A6756",
"o=	c #242B30",
"p=	c #5C6758",
"q=	c #79876A",
"r=	c #575E51",
"s=	c #5A5D4F",
"t=	c #585D50",
"u=	c #575D50",
"v=	c #595E50",
"w=	c #5C6154",
"x=	c #5B655B",
"y=	c #535C51",
"z=	c #485047",
"A=	c #47504C",
"B=	c #293133",
"C=	c #7C8C6E",
"D=	c #686E5B",
"E=	c #576051",
"F=	c #585E51",
"G=	c #595D4F",
"H=	c #5A5F53",
"I=	c #5C6257",
"J=	c #61695A",
"K=	c #626B5A",
"L=	c #6A775E",
"M=	c #525C4D",
"N=	c #38423F",
"O=	c #60735C",
"P=	c #575F52",
"Q=	c #535A4F",
"R=	c #4B4F49",
"S=	c #454945",
"T=	c #484C47",
"U=	c #484D48",
"V=	c #4A4E49",
"W=	c #4B514B",
"X=	c #4A504A",
"Y=	c #444B48",
"Z=	c #414A46",
"`=	c #3C4644",
" -	c #394241",
".-	c #353D3D",
"+-	c #2E3738",
"@-	c #6B7D65",
"#-	c #626E5A",
"$-	c #63705C",
"%-	c #6A775F",
"&-	c #6A765C",
"*-	c #6C745C",
"=-	c #6D7059",
"--	c #6C7058",
";-	c #6B6F57",
">-	c #6D6F58",
",-	c #6E7258",
"'-	c #73785C",
")-	c #72785C",
"!-	c #7C8969",
"~-	c #7D8B6A",
"{-	c #536052",
"]-	c #5B6656",
"^-	c #758367",
"/-	c #5B6253",
"(-	c #585F52",
"_-	c #576053",
":-	c #585C50",
"<-	c #595F52",
"[-	c #585F54",
"}-	c #565F52",
"|-	c #50564A",
"1-	c #474F47",
"2-	c #454F4A",
"3-	c #252E32",
"4-	c #7B906F",
"5-	c #748465",
"6-	c #5D6755",
"7-	c #5E6454",
"8-	c #606958",
"9-	c #656F5C",
"0-	c #6B785F",
"a-	c #505B4B",
"b-	c #39413E",
"c-	c #3F4D44",
"d-	c #37413D",
"e-	c #36403E",
"f-	c #333C3A",
"g-	c #353F3C",
"h-	c #37403D",
"i-	c #3B4541",
"j-	c #38443D",
"k-	c #38433F",
"l-	c #313B38",
"m-	c #2D3435",
"n-	c #323D3A",
"o-	c #6F7C64",
"p-	c #606853",
"q-	c #5B6754",
"r-	c #5C6755",
"s-	c #5E6858",
"t-	c #636958",
"u-	c #646755",
"v-	c #656756",
"w-	c #666956",
"x-	c #656856",
"y-	c #656A56",
"z-	c #686C55",
"A-	c #6A6E57",
"B-	c #6E735B",
"C-	c #70785D",
"D-	c #788265",
"E-	c #4B554C",
"F-	c #242C32",
"G-	c #4F594D",
"H-	c #5A6252",
"I-	c #555D51",
"J-	c #545C4F",
"K-	c #525A50",
"L-	c #515850",
"M-	c #50574F",
"N-	c #4F5950",
"O-	c #4F594F",
"P-	c #495247",
"Q-	c #434D48",
"R-	c #252B32",
"S-	c #6D8365",
"T-	c #5C6956",
"U-	c #62725A",
"V-	c #63705B",
"W-	c #65705C",
"X-	c #65705B",
"Y-	c #66705C",
"Z-	c #67705C",
"`-	c #646F5C",
" ;	c #636F5C",
".;	c #647059",
"+;	c #434D42",
"@;	c #3C4744",
"#;	c #6A7B66",
"$;	c #7A8E71",
"%;	c #788C70",
"&;	c #6E816A",
"*;	c #657662",
"=;	c #5C6E5C",
"-;	c #586A5A",
";;	c #5A6C5B",
">;	c #5E6F5B",
",;	c #6D8069",
"';	c #7B9076",
");	c #859A7D",
"!;	c #869A7A",
"~;	c #7D8D6F",
"{;	c #515A4C",
"];	c #333E3A",
"^;	c #737F62",
"/;	c #626A54",
"(;	c #5D6853",
"_;	c #596653",
":;	c #5C6757",
"<;	c #606655",
"[;	c #5F6655",
"};	c #636653",
"|;	c #626854",
"1;	c #656854",
"2;	c #686B56",
"3;	c #6C705B",
"4;	c #6E735C",
"5;	c #778467",
"6;	c #373F3D",
"7;	c #4D574C",
"8;	c #485249",
"9;	c #464F48",
"0;	c #465048",
"a;	c #484F4A",
"b;	c #4B514C",
"c;	c #464F49",
"d;	c #3F4844",
"e;	c #3F4845",
"f;	c #232930",
"g;	c #3F4A42",
"h;	c #323C39",
"i;	c #2C3634",
"j;	c #313A3B",
"k;	c #39443E",
"l;	c #4C584C",
"m;	c #4D594D",
"n;	c #4C584D",
"o;	c #3D4840",
"p;	c #2B3333",
"q;	c #2A3334",
"r;	c #677863",
"s;	c #90A07F",
"t;	c #6F765E",
"u;	c #697159",
"v;	c #707960",
"w;	c #767E63",
"x;	c #768265",
"y;	c #7A876A",
"z;	c #7E8B6D",
"A;	c #818D6E",
"B;	c #838C6D",
"C;	c #7A8264",
"D;	c #73795F",
"E;	c #737A61",
"F;	c #7A7F65",
"G;	c #6A735D",
"H;	c #2B3633",
"I;	c #717F65",
"J;	c #656E55",
"K;	c #5D6956",
"L;	c #5A6856",
"M;	c #606753",
"N;	c #5F6552",
"O;	c #626552",
"P;	c #5F6450",
"Q;	c #686C57",
"R;	c #666955",
"S;	c #696E59",
"T;	c #6B735B",
"U;	c #758366",
"V;	c #4E584B",
"W;	c #5E6C5A",
"X;	c #576350",
"Y;	c #333E3D",
"Z;	c #2F3B37",
"`;	c #35403B",
" >	c #586652",
".>	c #616F5B",
"+>	c #677560",
"@>	c #657360",
"#>	c #5C6A58",
"$>	c #515C4F",
"%>	c #3C4541",
"&>	c #8B9978",
"*>	c #78846C",
"=>	c #4D5C53",
"->	c #4D5A4F",
";>	c #4B574D",
">>	c #4C584E",
",>	c #4F5C50",
"'>	c #556155",
")>	c #5E6B58",
"!>	c #404941",
"~>	c #303A3A",
"{>	c #7B8D6F",
"]>	c #757E63",
"^>	c #626A56",
"/>	c #636B56",
"(>	c #646A55",
"_>	c #636956",
":>	c #616956",
"<>	c #646B55",
"[>	c #677058",
"}>	c #686E59",
"|>	c #6D715C",
"1>	c #6F765D",
"2>	c #2B3634",
"3>	c #748167",
"4>	c #656F56",
"5>	c #5E6753",
"6>	c #596655",
"7>	c #5D6A57",
"8>	c #616A55",
"9>	c #5F6350",
"0>	c #5F6752",
"a>	c #5E6551",
"b>	c #616653",
"c>	c #5F6352",
"d>	c #646756",
"e>	c #636957",
"f>	c #67715B",
"g>	c #778568",
"h>	c #505B4D",
"i>	c #242C30",
"j>	c #8FA17F",
"k>	c #818B68",
"l>	c #7D8566",
"m>	c #88916D",
"n>	c #8E9A76",
"o>	c #8A9875",
"p>	c #8D9C79",
"q>	c #90A07C",
"r>	c #919F7B",
"s>	c #8E9D78",
"t>	c #8B9B76",
"u>	c #8A9A76",
"v>	c #879572",
"w>	c #899773",
"x>	c #8D9B76",
"y>	c #8B9976",
"z>	c #748165",
"A>	c #66725E",
"B>	c #2D3537",
"C>	c #4A594F",
"D>	c #48534C",
"E>	c #49554C",
"F>	c #48544A",
"G>	c #525E52",
"H>	c #5C6857",
"I>	c #434C44",
"J>	c #323C3C",
"K>	c #727A61",
"L>	c #606554",
"M>	c #5D6550",
"N>	c #5E6552",
"O>	c #5E6655",
"P>	c #5D6752",
"Q>	c #5D6651",
"R>	c #636954",
"S>	c #676A55",
"T>	c #6C735A",
"U>	c #66725A",
"V>	c #2B3533",
"W>	c #768667",
"X>	c #677157",
"Y>	c #5C6854",
"Z>	c #5A6554",
"`>	c #596554",
" ,	c #5E6754",
".,	c #606552",
"+,	c #5D6251",
"@,	c #636655",
"#,	c #656D59",
"$,	c #758265",
"%,	c #4F5A4C",
"&,	c #3E4940",
"*,	c #8E9C79",
"=,	c #6F735A",
"-,	c #676B56",
";,	c #646954",
">,	c #666C58",
",,	c #657259",
"',	c #697359",
"),	c #6C7559",
"!,	c #6F795D",
"~,	c #727D5E",
"{,	c #738264",
"],	c #626F5A",
"^,	c #272E34",
"/,	c #46544B",
"(,	c #48534A",
"_,	c #4D594F",
":,	c #4C574D",
"<,	c #546053",
"[,	c #343C3D",
"},	c #748368",
"|,	c #768066",
"1,	c #5A6351",
"2,	c #586452",
"3,	c #5B6655",
"4,	c #5F6A56",
"5,	c #5F6551",
"6,	c #595C4A",
"7,	c #5C644F",
"8,	c #5A644F",
"9,	c #596450",
"0,	c #6A6F59",
"a,	c #656F58",
"b,	c #768669",
"c,	c #69745A",
"d,	c #5E6C56",
"e,	c #5B6856",
"f,	c #5E6350",
"g,	c #616854",
"h,	c #5E6453",
"i,	c #5E614F",
"j,	c #646856",
"k,	c #666C57",
"l,	c #717E62",
"m,	c #535F50",
"n,	c #3D4841",
"o,	c #85916F",
"p,	c #6C7057",
"q,	c #616654",
"r,	c #5D6554",
"s,	c #606755",
"t,	c #5E6352",
"u,	c #52584B",
"v,	c #5C6453",
"w,	c #5F6855",
"x,	c #616A53",
"y,	c #636B53",
"z,	c #6C755A",
"A,	c #768566",
"B,	c #45514B",
"C,	c #4E574E",
"D,	c #5A6755",
"E,	c #3D4640",
"F,	c #363E3E",
"G,	c #707F64",
"H,	c #768267",
"I,	c #5C6451",
"J,	c #586553",
"K,	c #5F6854",
"L,	c #616552",
"M,	c #606553",
"N,	c #5F6B55",
"O,	c #5B6650",
"P,	c #5B654F",
"Q,	c #5E624D",
"R,	c #636651",
"S,	c #636D57",
"T,	c #2A3233",
"U,	c #718064",
"V,	c #68745A",
"W,	c #5E6857",
"X,	c #5D6453",
"Y,	c #5C6351",
"Z,	c #5D6250",
"`,	c #5D6756",
" '	c #646855",
".'	c #646E57",
"+'	c #6E795F",
"@'	c #576353",
"#'	c #37413F",
"$'	c #859171",
"%'	c #6D7058",
"&'	c #5E6351",
"*'	c #616252",
"='	c #5E614E",
"-'	c #5D6854",
";'	c #666A54",
">'	c #676C55",
",'	c #6B765A",
"''	c #758264",
")'	c #626D5A",
"!'	c #232B31",
"~'	c #46514C",
"{'	c #475149",
"]'	c #505B51",
"^'	c #4F5A51",
"/'	c #39423E",
"('	c #343C3C",
"_'	c #6F7D62",
":'	c #747F64",
"<'	c #5E6451",
"['	c #576251",
"}'	c #606652",
"|'	c #636752",
"1'	c #5C6853",
"2'	c #5C6751",
"3'	c #59624C",
"4'	c #5B614B",
"5'	c #60634E",
"6'	c #666B55",
"7'	c #626B57",
"8'	c #728065",
"9'	c #6C785D",
"0'	c #616D59",
"a'	c #5E6A56",
"b'	c #5D6A56",
"c'	c #5F6451",
"d'	c #606752",
"e'	c #5F6957",
"f'	c #616B57",
"g'	c #626D57",
"h'	c #616F59",
"i'	c #6B7B5F",
"j'	c #2A3337",
"k'	c #6F7A64",
"l'	c #6E755A",
"m'	c #5F6652",
"n'	c #5A6050",
"o'	c #5D6152",
"p'	c #5F6153",
"q'	c #5D6151",
"r'	c #5F6453",
"s'	c #5E6956",
"t'	c #66715A",
"u'	c #6C745B",
"v'	c #6D745A",
"w'	c #6A755A",
"x'	c #6C795D",
"y'	c #7F8B68",
"z'	c #222931",
"A'	c #45524B",
"B'	c #465248",
"C'	c #4D564C",
"D'	c #4F574C",
"E'	c #525C51",
"F'	c #525D50",
"G'	c #39423D",
"H'	c #6C7C60",
"I'	c #737F67",
"J'	c #5C6552",
"K'	c #5A6350",
"L'	c #666D56",
"M'	c #616651",
"N'	c #616751",
"O'	c #5B6753",
"P'	c #5D644E",
"Q'	c #5D634D",
"R'	c #62644F",
"S'	c #686B54",
"T'	c #5C6550",
"U'	c #2C3333",
"V'	c #798468",
"W'	c #717D5E",
"X'	c #707F61",
"Y'	c #6F7D60",
"Z'	c #6F7E61",
"`'	c #6C7D60",
" )	c #6B7A60",
".)	c #6B795F",
"+)	c #6C7960",
"@)	c #6B7A5E",
"#)	c #6D7A5F",
"$)	c #6B795D",
"%)	c #6A785E",
"&)	c #69775D",
"*)	c #6F7F60",
"=)	c #566451",
"-)	c #3A4540",
";)	c #809171",
">)	c #5D6450",
",)	c #5B6151",
"')	c #5C6050",
"))	c #606351",
"!)	c #606653",
"~)	c #646B54",
"{)	c #6B795E",
"])	c #6D775A",
"^)	c #6D7759",
"/)	c #6A7558",
"()	c #6E795E",
"_)	c #79815E",
":)	c #6F7963",
"<)	c #435149",
"[)	c #434F46",
"})	c #4B5349",
"|)	c #4E564B",
"1)	c #545B4F",
"2)	c #5A6353",
"3)	c #3A433E",
"4)	c #2F3839",
"5)	c #6F8063",
"6)	c #767E69",
"7)	c #5B6251",
"8)	c #5D6754",
"9)	c #5E6550",
"0)	c #57634F",
"a)	c #5D604B",
"b)	c #60624D",
"c)	c #6A7057",
"d)	c #5C6652",
"e)	c #2B3330",
"f)	c #6E7A5F",
"g)	c #6F7C62",
"h)	c #65735B",
"i)	c #5F6C57",
"j)	c #5F6D56",
"k)	c #637159",
"l)	c #627057",
"m)	c #67765C",
"n)	c #68755B",
"o)	c #6F8062",
"p)	c #6F8162",
"q)	c #6E7F61",
"r)	c #475446",
"s)	c #7B8566",
"t)	c #666C55",
"u)	c #5C614F",
"v)	c #61624E",
"w)	c #62624E",
"x)	c #646851",
"y)	c #626B54",
"z)	c #69775C",
"A)	c #6D795B",
"B)	c #6C7456",
"C)	c #6B7356",
"D)	c #6B7156",
"E)	c #6E745B",
"F)	c #7A8260",
"G)	c #67735C",
"H)	c #44514A",
"I)	c #434F45",
"J)	c #4A5249",
"K)	c #565A4E",
"L)	c #5C6152",
"M)	c #3B443F",
"N)	c #2D3637",
"O)	c #78876B",
"P)	c #727C65",
"Q)	c #5A6452",
"R)	c #5B6452",
"S)	c #5D644F",
"T)	c #616650",
"U)	c #586654",
"V)	c #5C6753",
"W)	c #5B604C",
"X)	c #5A5D48",
"Y)	c #6B7159",
"Z)	c #2B3432",
"`)	c #3B443E",
" !	c #323B3A",
".!	c #2F3835",
"+!	c #2E3734",
"@!	c #303937",
"#!	c #313A38",
"$!	c #353F3D",
"%!	c #36413D",
"&!	c #39433F",
"*!	c #3B453F",
"=!	c #38423C",
"-!	c #2A3336",
";!	c #3C453E",
">!	c #768061",
",!	c #666E57",
"'!	c #5F6250",
")!	c #63634F",
"!!	c #62624D",
"~!	c #61644F",
"{!	c #656A52",
"]!	c #697056",
"^!	c #6D7257",
"/!	c #6A7257",
"(!	c #6B7357",
"_!	c #6C7056",
":!	c #6C7055",
"<!	c #7E8662",
"[!	c #6A765F",
"}!	c #46534C",
"|!	c #444F46",
"1!	c #4B534A",
"2!	c #52574B",
"3!	c #585F50",
"4!	c #5A604F",
"5!	c #5C6452",
"6!	c #2C3535",
"7!	c #7C8A6E",
"8!	c #5D6653",
"9!	c #596452",
"0!	c #5B6552",
"a!	c #5E644E",
"b!	c #60634D",
"c!	c #636550",
"d!	c #6C7359",
"e!	c #545D4E",
"f!	c #404A46",
"g!	c #424B46",
"h!	c #454E48",
"i!	c #4C564C",
"j!	c #4D574D",
"k!	c #4E564E",
"l!	c #4D564D",
"m!	c #4F584F",
"n!	c #576258",
"o!	c #47524C",
"p!	c #38413D",
"q!	c #788264",
"r!	c #656E57",
"s!	c #5F634E",
"t!	c #626751",
"u!	c #646952",
"v!	c #686C53",
"w!	c #6B6F55",
"x!	c #686E52",
"y!	c #6B7054",
"z!	c #6D7156",
"A!	c #6E7257",
"B!	c #858F69",
"C!	c #6D7961",
"D!	c #232A32",
"E!	c #48554C",
"F!	c #455047",
"G!	c #4C5449",
"H!	c #565A4C",
"I!	c #58604E",
"J!	c #3C4540",
"K!	c #303938",
"L!	c #676F5A",
"M!	c #5F6754",
"N!	c #5D6351",
"O!	c #586252",
"P!	c #596453",
"Q!	c #5B6352",
"R!	c #596551",
"S!	c #596552",
"T!	c #5F644F",
"U!	c #656853",
"V!	c #49524E",
"W!	c #545F54",
"X!	c #545F53",
"Y!	c #565E52",
"Z!	c #535E51",
"`!	c #535D51",
" ~	c #586152",
".~	c #556253",
"+~	c #536054",
"@~	c #525A52",
"#~	c #4F5851",
"$~	c #424B48",
"%~	c #2E3637",
"&~	c #7E896A",
"*~	c #6A7359",
"=~	c #646E56",
"-~	c #677057",
";~	c #6C745A",
">~	c #6F755B",
",~	c #6C755B",
"'~	c #6F785B",
")~	c #707C5E",
"!~	c #6F775A",
"~~	c #6E7154",
"{~	c #6F7152",
"]~	c #717657",
"^~	c #7B8262",
"/~	c #93A17D",
"(~	c #4A584F",
"_~	c #48544B",
":~	c #4F564A",
"<~	c #5B5E50",
"[~	c #596150",
"}~	c #3F4842",
"|~	c #7D8D6E",
"1~	c #696E56",
"2~	c #626753",
"3~	c #555B4C",
"4~	c #5B6454",
"5~	c #5A6651",
"6~	c #5A6450",
"7~	c #626651",
"8~	c #666A55",
"9~	c #4B5548",
"0~	c #536257",
"a~	c #58665B",
"b~	c #5B685A",
"c~	c #5E6658",
"d~	c #586354",
"e~	c #596454",
"f~	c #566150",
"g~	c #586150",
"h~	c #566253",
"i~	c #546154",
"j~	c #414A48",
"k~	c #293135",
"l~	c #7C8967",
"m~	c #738162",
"n~	c #778566",
"o~	c #738164",
"p~	c #6D7C5F",
"q~	c #728063",
"r~	c #768565",
"s~	c #7C8C6A",
"t~	c #7E8E6C",
"u~	c #7F8C6B",
"v~	c #808C6B",
"w~	c #83906D",
"x~	c #84916D",
"y~	c #8B9875",
"z~	c #8F9D78",
"A~	c #39423F",
"B~	c #232A30",
"C~	c #4C5B51",
"D~	c #4C574E",
"E~	c #51584C",
"F~	c #595E4F",
"G~	c #586051",
"H~	c #596051",
"I~	c #5A6453",
"J~	c #414A43",
"K~	c #7C8D70",
"L~	c #596555",
"M~	c #576253",
"N~	c #586451",
"O~	c #5D6551",
"P~	c #5F6550",
"Q~	c #656D57",
"R~	c #737E61",
"S~	c #454F43",
"T~	c #323A3B",
"U~	c #49544D",
"V~	c #4B5A51",
"W~	c #546459",
"X~	c #58685C",
"Y~	c #5F6B5C",
"Z~	c #606759",
"`~	c #5D6657",
" {	c #535C4C",
".{	c #52604F",
"+{	c #565E4F",
"@{	c #262D33",
"#{	c #313938",
"${	c #2B3434",
"%{	c #262D32",
"&{	c #293132",
"*{	c #343C3A",
"={	c #38413E",
"-{	c #38413C",
";{	c #38403C",
">{	c #4E5B52",
",{	c #4F5A4F",
"'{	c #575C4D",
"){	c #596350",
"!{	c #49574B",
"~{	c #7B8D70",
"{{	c #626954",
"]{	c #5C6352",
"^{	c #5F664F",
"/{	c #606650",
"({	c #777E62",
"_{	c #464E44",
":{	c #353D3B",
"<{	c #49544E",
"[{	c #4D5D52",
"}{	c #55655A",
"|{	c #596859",
"1{	c #5E6A5A",
"2{	c #626957",
"3{	c #626654",
"4{	c #5F6353",
"5{	c #5E6252",
"6{	c #5A5E4D",
"7{	c #55594A",
"8{	c #585B4C",
"9{	c #56584A",
"0{	c #555A4B",
"a{	c #57604F",
"b{	c #586251",
"c{	c #545E52",
"d{	c #48524C",
"e{	c #77866D",
"f{	c #75856C",
"g{	c #6F7F66",
"h{	c #61725B",
"i{	c #5E6E5B",
"j{	c #2B3334",
"k{	c #3A4340",
"l{	c #444E47",
"m{	c #4A554C",
"n{	c #4B564D",
"o{	c #414B47",
"p{	c #3A4341",
"q{	c #3B4440",
"r{	c #505B4C",
"s{	c #5E6959",
"t{	c #252D30",
"u{	c #4E5C52",
"v{	c #525B51",
"w{	c #5F6956",
"x{	c #60725D",
"y{	c #747C60",
"z{	c #5C6655",
"A{	c #616652",
"B{	c #696E58",
"C{	c #747B60",
"D{	c #3F473F",
"E{	c #4F5850",
"F{	c #525D53",
"G{	c #556157",
"H{	c #586256",
"I{	c #5C6557",
"J{	c #5A6151",
"K{	c #595F4F",
"L{	c #565B4C",
"M{	c #5B6050",
"N{	c #5E6654",
"O{	c #5D6856",
"P{	c #5C6858",
"Q{	c #48524B",
"R{	c #282F35",
"S{	c #7E8F71",
"T{	c #728365",
"U{	c #454D46",
"V{	c #4E554A",
"W{	c #4E574C",
"X{	c #4D554B",
"Y{	c #4E5651",
"Z{	c #4F5752",
"`{	c #525A55",
" ]	c #566053",
".]	c #525C50",
"+]	c #575F50",
"@]	c #3C453F",
"#]	c #5F6F58",
"$]	c #767A60",
"%]	c #626E57",
"&]	c #646953",
"*]	c #626855",
"=]	c #333937",
"-]	c #343B3B",
";]	c #525C52",
">]	c #566154",
",]	c #556152",
"']	c #576453",
")]	c #596455",
"!]	c #606A56",
"~]	c #657157",
"{]	c #3D4A43",
"]]	c #7E8C6B",
"^]	c #5B6751",
"/]	c #39413F",
"(]	c #434C46",
"_]	c #4D554A",
":]	c #505A50",
"<]	c #505750",
"[]	c #505652",
"}]	c #565E53",
"|]	c #5A6253",
"1]	c #2C3437",
"2]	c #49544A",
"3]	c #546151",
"4]	c #556452",
"5]	c #505C4E",
"6]	c #617058",
"7]	c #757B5F",
"8]	c #5C6852",
"9]	c #4E584A",
"0]	c #50584B",
"a]	c #575E4D",
"b]	c #5D6652",
"c]	c #5C6350",
"d]	c #5B604E",
"e]	c #4B5045",
"f]	c #323A38",
"g]	c #262C31",
"h]	c #2B3337",
"i]	c #3D463F",
"j]	c #404A41",
"k]	c #444E42",
"l]	c #485245",
"m]	c #525B4E",
"n]	c #6A7764",
"o]	c #687662",
"p]	c #5D6859",
"q]	c #2B3336",
"r]	c #646F54",
"s]	c #556351",
"t]	c #536250",
"u]	c #5E6650",
"v]	c #6A775B",
"w]	c #363E3C",
"x]	c #404A43",
"y]	c #4C5749",
"z]	c #4F5A4E",
"A]	c #505B4F",
"B]	c #4E5B4F",
"C]	c #4F5A50",
"D]	c #4F564F",
"E]	c #596053",
"F]	c #2B3338",
"G]	c #2D3638",
"H]	c #353E3D",
"I]	c #323B39",
"J]	c #303A38",
"K]	c #2E3836",
"L]	c #2C3635",
"M]	c #303D38",
"N]	c #303B36",
"O]	c #2F3A36",
"P]	c #333D39",
"Q]	c #333C38",
"R]	c #2F3533",
"S]	c #2A3030",
"T]	c #293031",
"U]	c #292F30",
"V]	c #292F2E",
"W]	c #282F2F",
"X]	c #272E31",
"Y]	c #717C61",
"Z]	c #798165",
"`]	c #787F62",
" ^	c #82876B",
".^	c #8B9174",
"+^	c #8B9375",
"@^	c #899577",
"#^	c #808C6F",
"$^	c #445047",
"%^	c #232B30",
"&^	c #414A45",
"*^	c #434F44",
"=^	c #4A5648",
"-^	c #505C4C",
";^	c #546051",
">^	c #556150",
",^	c #283031",
"'^	c #6F8064",
")^	c #5A6551",
"!^	c #506052",
"~^	c #506150",
"{^	c #5C6650",
"]^	c #2F3637",
"^^	c #535C54",
"/^	c #515B4F",
"(^	c #51564E",
"_^	c #51574E",
":^	c #5B6051",
"<^	c #283034",
"[^	c #2C3438",
"}^	c #445049",
"|^	c #6E7F68",
"1^	c #7A8C72",
"2^	c #76886F",
"3^	c #74876D",
"4^	c #798C71",
"5^	c #778B6F",
"6^	c #7D9174",
"7^	c #84987A",
"8^	c #849878",
"9^	c #859979",
"0^	c #899D7D",
"a^	c #77896B",
"b^	c #2F383A",
"c^	c #404B48",
"d^	c #454F4B",
"e^	c #454E4B",
"f^	c #283033",
"g^	c #526053",
"h^	c #899575",
"i^	c #858A68",
"j^	c #71745A",
"k^	c #6D7056",
"l^	c #76775C",
"m^	c #76795D",
"n^	c #787C5C",
"o^	c #797C5D",
"p^	c #7A7D5E",
"q^	c #757E62",
"r^	c #2D3538",
"s^	c #47504A",
"t^	c #485348",
"u^	c #4F5B4A",
"v^	c #515B4B",
"w^	c #535D4B",
"x^	c #2E3735",
"y^	c #748568",
"z^	c #5B6350",
"A^	c #5E654F",
"B^	c #2B3234",
"C^	c #505951",
"D^	c #4F554D",
"E^	c #575E53",
"F^	c #515B50",
"G^	c #50594E",
"H^	c #4F554A",
"I^	c #52584E",
"J^	c #5D624F",
"K^	c #606854",
"L^	c #3B4842",
"M^	c #7D9172",
"N^	c #6F7F64",
"O^	c #616856",
"P^	c #737C61",
"Q^	c #727F61",
"R^	c #646F57",
"S^	c #343C3F",
"T^	c #404947",
"U^	c #4B5551",
"V^	c #4E5953",
"W^	c #566156",
"X^	c #2D3635",
"Y^	c #93A380",
"Z^	c #72755B",
"`^	c #646C57",
" /	c #616952",
"./	c #626950",
"+/	c #656C52",
"@/	c #6A7255",
"#/	c #6F7555",
"$/	c #757C5C",
"%/	c #6A755C",
"&/	c #475049",
"*/	c #485248",
"=/	c #4C5247",
"-/	c #4B564B",
";/	c #4D594B",
">/	c #525C4B",
",/	c #2D3634",
"'/	c #77896C",
")/	c #5B6250",
"!/	c #566351",
"~/	c #60664F",
"{/	c #626F55",
"]/	c #637059",
"^/	c #2A3034",
"//	c #4C554C",
"(/	c #4B524B",
"_/	c #555B51",
":/	c #4E5A50",
"</	c #4F584D",
"[/	c #50564C",
"}/	c #50564B",
"|/	c #52584C",
"1/	c #2A3033",
"2/	c #5A6E59",
"3/	c #6B7A5C",
"4/	c #5B6553",
"5/	c #515B52",
"6/	c #525C54",
"7/	c #535D50",
"8/	c #545C50",
"9/	c #606C57",
"0/	c #69765E",
"a/	c #6D795F",
"b/	c #363E3F",
"c/	c #4B5954",
"d/	c #525D57",
"e/	c #343F39",
"f/	c #879974",
"g/	c #656D56",
"h/	c #5A6750",
"i/	c #5A6854",
"j/	c #5D664F",
"k/	c #5E6950",
"l/	c #5E6B4E",
"m/	c #697452",
"n/	c #747A5A",
"o/	c #667257",
"p/	c #3A4342",
"q/	c #444E49",
"r/	c #485149",
"s/	c #495048",
"t/	c #4C5349",
"u/	c #4C574B",
"v/	c #4E574D",
"w/	c #53594A",
"x/	c #4F5945",
"y/	c #758566",
"z/	c #586550",
"A/	c #5D674F",
"B/	c #637258",
"C/	c #63705A",
"D/	c #282F32",
"E/	c #485049",
"F/	c #4E534D",
"G/	c #535A53",
"H/	c #525B50",
"I/	c #4F584E",
"J/	c #4F554B",
"K/	c #50554B",
"L/	c #55594C",
"M/	c #5C614E",
"N/	c #2C3234",
"O/	c #697E63",
"P/	c #505850",
"Q/	c #4F574D",
"R/	c #4D574E",
"S/	c #4A534C",
"T/	c #4E594F",
"U/	c #545F4E",
"V/	c #6B705A",
"W/	c #6D765D",
"X/	c #657057",
"Y/	c #424C49",
"Z/	c #485752",
"`/	c #515E57",
" (	c #5A6658",
".(	c #869975",
"+(	c #5B6A52",
"@(	c #5A6855",
"#(	c #5B6652",
"$(	c #5D6851",
"%(	c #606A50",
"&(	c #677254",
"*(	c #69704F",
"=(	c #747A59",
"-(	c #5F6A53",
";(	c #273135",
">(	c #3E4644",
",(	c #4C5046",
"'(	c #4B5549",
")(	c #4C594E",
"!(	c #4D554D",
"~(	c #52584A",
"{(	c #4B5446",
"](	c #293335",
"^(	c #5D654F",
"/(	c #617057",
"((	c #51564F",
"_(	c #535952",
":(	c #535B4F",
"<(	c #51554A",
"[(	c #50554A",
"}(	c #54594B",
"|(	c #5A5F50",
"1(	c #2C3235",
"2(	c #748A6C",
"3(	c #525C4F",
"4(	c #49554B",
"5(	c #515D51",
"6(	c #4F594E",
"7(	c #4E554B",
"8(	c #4F574A",
"9(	c #525A4B",
"0(	c #5A604D",
"a(	c #6E775C",
"b(	c #6D775B",
"c(	c #414A49",
"d(	c #495852",
"e(	c #55625A",
"f(	c #5D675B",
"g(	c #343F3C",
"h(	c #869672",
"i(	c #606E54",
"j(	c #5C6952",
"k(	c #576752",
"l(	c #5D6951",
"m(	c #5E6C51",
"n(	c #647052",
"o(	c #676F4E",
"p(	c #6F6F51",
"q(	c #7A805E",
"r(	c #242F34",
"s(	c #49524A",
"t(	c #4F4F47",
"u(	c #4F584C",
"v(	c #4C5549",
"w(	c #4C5348",
"x(	c #51584A",
"y(	c #444D41",
"z(	c #768467",
"A(	c #626952",
"B(	c #5B6550",
"C(	c #626A53",
"D(	c #606E56",
"E(	c #4E574F",
"F(	c #525950",
"G(	c #515A4F",
"H(	c #53564C",
"I(	c #54554A",
"J(	c #57594C",
"K(	c #59614F",
"L(	c #788E6F",
"M(	c #505A4E",
"N(	c #51574D",
"O(	c #50584D",
"P(	c #4D594E",
"Q(	c #4E594E",
"R(	c #4F5A4D",
"S(	c #525B4C",
"T(	c #545D4B",
"U(	c #555F4E",
"V(	c #5E634E",
"W(	c #6C7059",
"X(	c #747D60",
"Y(	c #70795B",
"Z(	c #475750",
"`(	c #54625B",
" _	c #5C675A",
"._	c #859470",
"+_	c #647256",
"@_	c #5D6850",
"#_	c #596851",
"$_	c #5F6951",
"%_	c #5E6A4F",
"&_	c #667356",
"*_	c #686D4C",
"=_	c #717051",
"-_	c #7D8361",
";_	c #566450",
">_	c #252E33",
",_	c #4B524A",
"'_	c #505348",
")_	c #495649",
"!_	c #4C544A",
"~_	c #4F584B",
"{_	c #434D43",
"]_	c #283232",
"^_	c #748264",
"/_	c #666E55",
"(_	c #606951",
"__	c #65725A",
":_	c #273133",
"<_	c #535A50",
"[_	c #545A50",
"}_	c #515A50",
"|_	c #52564C",
"1_	c #54574A",
"2_	c #575447",
"3_	c #57594B",
"4_	c #7B8F70",
"5_	c #5B6451",
"6_	c #50574B",
"7_	c #50584E",
"8_	c #535D4D",
"9_	c #56624F",
"0_	c #54604E",
"a_	c #5B624D",
"b_	c #62664E",
"c_	c #777F62",
"d_	c #717A5A",
"e_	c #495952",
"f_	c #536059",
"g_	c #5A6558",
"h_	c #83906F",
"i_	c #616E54",
"j_	c #5D6950",
"k_	c #5C6750",
"l_	c #5F6750",
"m_	c #626F53",
"n_	c #657152",
"o_	c #686B4A",
"p_	c #717151",
"q_	c #7B805F",
"r_	c #4E5C49",
"s_	c #232E32",
"t_	c #47514A",
"u_	c #4A554A",
"v_	c #4A544B",
"w_	c #4F5649",
"x_	c #424C40",
"y_	c #2C3536",
"z_	c #6B7456",
"A_	c #636E55",
"B_	c #666C54",
"C_	c #667057",
"D_	c #677259",
"E_	c #2D3736",
"F_	c #50594C",
"G_	c #4F564E",
"H_	c #53584F",
"I_	c #535A4D",
"J_	c #55584A",
"K_	c #565748",
"L_	c #585344",
"M_	c #58584A",
"N_	c #7A8C6E",
"O_	c #52564A",
"P_	c #51584E",
"Q_	c #515C50",
"R_	c #59624E",
"S_	c #57644E",
"T_	c #5D634B",
"U_	c #64674C",
"V_	c #747D5E",
"W_	c #4A5851",
"X_	c #4F5D55",
"Y_	c #3A443F",
"Z_	c #7E8969",
"`_	c #636C53",
" :	c #5E6850",
".:	c #646E52",
"+:	c #656E4E",
"@:	c #6B6F4E",
"#:	c #767454",
"$:	c #7B805D",
"%:	c #4F5C4A",
"&:	c #242F33",
"*:	c #4E584E",
"=:	c #51584B",
"-:	c #4E5649",
";:	c #4E5648",
">:	c #4E5548",
",:	c #3D453D",
"':	c #616D56",
"):	c #616E55",
"!:	c #5A6853",
"~:	c #5B664F",
"{:	c #515A4E",
"]:	c #4F554E",
"^:	c #535751",
"/:	c #54594A",
"(:	c #59594A",
"_:	c #5A5745",
"::	c #595642",
"<:	c #585848",
"[:	c #5E6250",
"}:	c #2B3236",
"|:	c #7D9071",
"1:	c #5E6854",
"2:	c #4F5B4F",
"3:	c #525B4F",
"4:	c #585E4D",
"5:	c #56634A",
"6:	c #5E654B",
"7:	c #65684D",
"8:	c #727F62",
"9:	c #737A5D",
"0:	c #495650",
"a:	c #596458",
"b:	c #414B43",
"c:	c #757E60",
"d:	c #636850",
"e:	c #5B624C",
"f:	c #5B654E",
"g:	c #5C6851",
"h:	c #636C51",
"i:	c #696E51",
"j:	c #6D6E4E",
"k:	c #767352",
"l:	c #797D59",
"m:	c #505C4B",
"n:	c #253034",
"o:	c #414B46",
"p:	c #535F52",
"q:	c #424D44",
"r:	c #373E38",
"s:	c #3C423E",
"t:	c #353E38",
"u:	c #303936",
"v:	c #313A39",
"w:	c #313A3A",
"x:	c #37413A",
"y:	c #36403B",
"z:	c #3A443D",
"A:	c #303A33",
"B:	c #313B37",
"C:	c #39433C",
"D:	c #363F39",
"E:	c #4F544E",
"F:	c #525650",
"G:	c #555B4B",
"H:	c #5A594A",
"I:	c #5F5947",
"J:	c #5B5A46",
"K:	c #5B5B4A",
"L:	c #293234",
"M:	c #809274",
"N:	c #545A4B",
"O:	c #565F4E",
"P:	c #5B614C",
"Q:	c #5C634C",
"R:	c #5A664D",
"S:	c #5E634A",
"T:	c #676B50",
"U:	c #6E7F5F",
"V:	c #333A3B",
"W:	c #3C4645",
"X:	c #505D56",
"Y:	c #5B6659",
"Z:	c #636750",
"`:	c #5C624E",
" <	c #5A654F",
".<	c #5B664E",
"+<	c #646751",
"@<	c #696C51",
"#<	c #706F50",
"$<	c #757253",
"%<	c #787C5A",
"&<	c #4F5B49",
"*<	c #445147",
"=<	c #809474",
"-<	c #808D6E",
";<	c #818E6E",
"><	c #839070",
",<	c #849071",
"'<	c #889574",
")<	c #859573",
"!<	c #869573",
"~<	c #869473",
"{<	c #849374",
"]<	c #828F70",
"^<	c #80896C",
"/<	c #808B6C",
"(<	c #7B8968",
"_<	c #7F8D6D",
":<	c #7A8868",
"<<	c #2A3435",
"[<	c #4A524A",
"}<	c #535852",
"|<	c #555A51",
"1<	c #535C4E",
"2<	c #565A4A",
"3<	c #5F6151",
"4<	c #5E5D4C",
"5<	c #5C5C47",
"6<	c #5B5C4B",
"7<	c #636950",
"8<	c #626D59",
"9<	c #7E9073",
"0<	c #5E6953",
"a<	c #576151",
"b<	c #565D4C",
"c<	c #565B4B",
"d<	c #595F4A",
"e<	c #5F674F",
"f<	c #60684E",
"g<	c #5F684E",
"h<	c #63684E",
"i<	c #666B50",
"j<	c #6A7657",
"k<	c #6C7D5C",
"l<	c #687458",
"m<	c #3D4644",
"n<	c #4A5750",
"o<	c #5B6658",
"p<	c #6F795B",
"q<	c #656A51",
"r<	c #59604B",
"s<	c #56604B",
"t<	c #5A644C",
"u<	c #63664F",
"v<	c #6F6F52",
"w<	c #757358",
"x<	c #787D5C",
"y<	c #55604E",
"z<	c #272E33",
"A<	c #64755C",
"B<	c #777E5E",
"C<	c #6C7258",
"D<	c #6A735A",
"E<	c #6B735A",
"F<	c #69725A",
"G<	c #676F59",
"H<	c #656E56",
"I<	c #676C57",
"J<	c #676B55",
"K<	c #6C715A",
"L<	c #656E58",
"M<	c #545B51",
"N<	c #565E50",
"O<	c #555E4E",
"P<	c #565E4D",
"Q<	c #5E6653",
"R<	c #5F624D",
"S<	c #5B5D4A",
"T<	c #5A5E4C",
"U<	c #697357",
"V<	c #333D3A",
"W<	c #819376",
"X<	c #606B55",
"Y<	c #596351",
"Z<	c #575F4A",
"`<	c #5C604B",
" [	c #60664E",
".[	c #616951",
"+[	c #616950",
"@[	c #646A51",
"#[	c #64664B",
"$[	c #656A4E",
"%[	c #6D7657",
"&[	c #717D5C",
"*[	c #646D56",
"=[	c #3E4846",
"-[	c #4D5851",
";[	c #404C40",
">[	c #6D795C",
",[	c #676E54",
"'[	c #5D654D",
")[	c #61664F",
"![	c #6C6F54",
"~[	c #77795D",
"{[	c #797F5E",
"][	c #5B674F",
"^[	c #293034",
"/[	c #7C8564",
"([	c #68745B",
"_[	c #697158",
":[	c #68715A",
"<[	c #677059",
"[[	c #636A54",
"}[	c #656953",
"|[	c #6B6F58",
"1[	c #626C55",
"2[	c #50564E",
"3[	c #565D50",
"4[	c #575F4F",
"5[	c #646D54",
"6[	c #5F604B",
"7[	c #5F654F",
"8[	c #7A8A6F",
"9[	c #59634F",
"0[	c #585F48",
"a[	c #5B604A",
"b[	c #61674D",
"c[	c #63674F",
"d[	c #63684F",
"e[	c #67684D",
"f[	c #696D4F",
"g[	c #707756",
"h[	c #767E5C",
"i[	c #606950",
"j[	c #404948",
"k[	c #4E5850",
"l[	c #515C51",
"m[	c #7C8566",
"n[	c #787F61",
"o[	c #6F765A",
"p[	c #6A7056",
"q[	c #71785A",
"r[	c #7C8061",
"s[	c #808665",
"t[	c #777F5E",
"u[	c #58644E",
"v[	c #747E60",
"w[	c #6B6F56",
"x[	c #6D6F57",
"y[	c #6F7057",
"z[	c #6F7058",
"A[	c #6C6F58",
"B[	c #696F59",
"C[	c #666F58",
"D[	c #626C56",
"E[	c #616B54",
"F[	c #646E58",
"G[	c #687259",
"H[	c #596155",
"I[	c #5F6755",
"J[	c #535B4C",
"K[	c #687561",
"L[	c #778169",
"M[	c #6A765D",
"N[	c #3D4642",
"O[	c #2A2F37",
"P[	c #2F393A",
"Q[	c #768369",
"R[	c #5D634F",
"S[	c #58604C",
"T[	c #5A604B",
"U[	c #61654C",
"V[	c #66694E",
"W[	c #676B52",
"X[	c #656C51",
"Y[	c #676D4F",
"Z[	c #6F7554",
"`[	c #787F5D",
" }	c #4A544D",
".}	c #4F5B4E",
"+}	c #576354",
"@}	c #333B39",
"#}	c #404942",
"$}	c #3C463E",
"%}	c #353E3C",
"&}	c #475248",
"*}	c #7B8A6B",
"=}	c #6D7258",
"-}	c #6E7259",
";}	c #6F735C",
">}	c #696D56",
",}	c #656B57",
"'}	c #656855",
")}	c #6B6E58",
"!}	c #676F57",
"~}	c #2A3235",
"{}	c #3C443F",
"]}	c #434B44",
"^}	c #414942",
"/}	c #434C43",
"(}	c #2E3739",
"_}	c #535E52",
":}	c #6B7B62",
"<}	c #606C5A",
"[}	c #7B8467",
"}}	c #677359",
"|}	c #646E55",
"1}	c #606850",
"2}	c #5C634E",
"3}	c #666D53",
"4}	c #686C51",
"5}	c #676C52",
"6}	c #646D51",
"7}	c #676C51",
"8}	c #696F51",
"9}	c #6D7352",
"0}	c #7B8261",
"a}	c #606751",
"b}	c #3E4841",
"c}	c #525E50",
"d}	c #556252",
"e}	c #525E4D",
"f}	c #5E6A59",
"g}	c #5E695B",
"h}	c #616C5C",
"i}	c #5A6653",
"j}	c #2E3537",
"k}	c #6F7D65",
"l}	c #727B5E",
"m}	c #6B7158",
"n}	c #6E7359",
"o}	c #777D62",
"p}	c #787D63",
"q}	c #767A62",
"r}	c #72775E",
"s}	c #6A6E59",
"t}	c #676B57",
"u}	c #5F634F",
"v}	c #60644F",
"w}	c #666854",
"x}	c #616754",
"y}	c #2A3536",
"z}	c #73866D",
"A}	c #748468",
"B}	c #6B7D62",
"C}	c #6C8065",
"D}	c #768A6D",
"E}	c #75896C",
"F}	c #75876B",
"G}	c #788A6D",
"H}	c #758065",
"I}	c #6E7B62",
"J}	c #35403D",
"K}	c #767E60",
"L}	c #6B755B",
"M}	c #6B745A",
"N}	c #6D755A",
"O}	c #6C7156",
"P}	c #6A6E53",
"Q}	c #6A6F52",
"R}	c #697252",
"S}	c #6B7252",
"T}	c #707855",
"U}	c #79835E",
"V}	c #7C8762",
"W}	c #404944",
"X}	c #4B564E",
"Y}	c #586758",
"Z}	c #5E6C5C",
"`}	c #63715D",
" |	c #5F6B57",
".|	c #5A6650",
"+|	c #64735B",
"@|	c #788B6A",
"#|	c #727F68",
"$|	c #383F3F",
"%|	c #444D44",
"&|	c #4A5149",
"*|	c #3F4742",
"=|	c #39413C",
"-|	c #363E38",
";|	c #38413A",
">|	c #464E42",
",|	c #5E6B56",
"'|	c #6F7E64",
")|	c #728166",
"!|	c #677761",
"~|	c #7E8E6B",
"{|	c #70765B",
"]|	c #70795F",
"^|	c #6C735C",
"/|	c #6A7059",
"(|	c #6A765B",
"_|	c #6A7760",
":|	c #666F55",
"<|	c #68765A",
"[|	c #6E765B",
"}|	c #6F7858",
"||	c #717556",
"1|	c #6E7455",
"2|	c #677455",
"3|	c #6C7A59",
"4|	c #727D5A",
"5|	c #7A835F",
"6|	c #808E69",
"7|	c #768262",
"8|	c #5D6955",
"9|	c #565F4F",
"0|	c #626953",
"a|	c #636B54",
"b|	c #606D56",
"c|	c #5F6756",
"d|	c #3D4342",
"e|	c #3A4242",
"f|	c #3B4444",
"g|	c #394242",
"h|	c #394141",
"i|	c #384141",
"j|	c #556051",
"k|	c #343E3A",
"l|	c #687760",
"m|	c #849674",
"n|	c #778667",
"o|	c #748063",
"p|	c #758263",
"q|	c #828F6F",
"r|	c #7C8B6D",
"s|	c #313B39",
"t|	c #7C8F6F",
"u|	c #6F775B",
"v|	c #6A6C53",
"w|	c #606451",
"x|	c #626A55",
"y|	c #63725C",
"z|	c #404A3D",
"A|	c #414D3D",
"B|	c #44513F",
"C|	c #465141",
"D|	c #485340",
"E|	c #495441",
"F|	c #4B5542",
"G|	c #434F3E",
"H|	c #414E3D",
"I|	c #424E3F",
"J|	c #424D3D",
"K|	c #445040",
"L|	c #444F3F",
"M|	c #384339",
"N|	c #293232",
"O|	c #3D4643",
"P|	c #454F48",
"Q|	c #555E4D",
"R|	c #56604F",
"S|	c #5E6954",
"T|	c #606D57",
"U|	c #565F53",
"V|	c #3D4443",
"W|	c #343C3E",
"X|	c #3B4441",
"Y|	c #3C4542",
"Z|	c #3E4744",
"`|	c #414B45",
" 1	c #424E46",
".1	c #465148",
"+1	c #515D4F",
"@1	c #616F58",
"#1	c #59604E",
"$1	c #68765C",
"%1	c #7A8B6A",
"&1	c #6E7456",
"*1	c #6C6C54",
"=1	c #5D624E",
"-1	c #64644F",
";1	c #61634D",
">1	c #5F6150",
",1	c #6E785D",
"'1	c #606F59",
")1	c #293035",
"!1	c #3E4C48",
"~1	c #5F705F",
"{1	c #667762",
"]1	c #64725F",
"^1	c #647360",
"/1	c #687963",
"(1	c #61735D",
"_1	c #596957",
":1	c #3B433F",
"<1	c #262F33",
"[1	c #576554",
"}1	c #73856B",
"|1	c #728167",
"11	c #3F4840",
"21	c #3E4745",
"31	c #545E4E",
"41	c #576150",
"51	c #566251",
"61	c #58634F",
"71	c #5A6550",
"81	c #5E6651",
"91	c #5B6853",
"01	c #5C6A56",
"a1	c #5F6D57",
"b1	c #394140",
"c1	c #3E4742",
"d1	c #3C453D",
"e1	c #4B5449",
"f1	c #4D5848",
"g1	c #4F5C4D",
"h1	c #727E61",
"i1	c #5F6653",
"j1	c #515D4C",
"k1	c #56634F",
"l1	c #66735A",
"m1	c #3D4641",
"n1	c #727F65",
"o1	c #71775A",
"p1	c #6B6D55",
"q1	c #656C55",
"r1	c #656550",
"s1	c #63644F",
"t1	c #61614F",
"u1	c #616350",
"v1	c #5C6C57",
"w1	c #2C3538",
"x1	c #4D5B53",
"y1	c #49574E",
"z1	c #4B584F",
"A1	c #4C5B4F",
"B1	c #4F5D50",
"C1	c #49554D",
"D1	c #38403E",
"E1	c #798E71",
"F1	c #90A17D",
"G1	c #7D8967",
"H1	c #798464",
"I1	c #7E8A6B",
"J1	c #485349",
"K1	c #5A624E",
"L1	c #5F6650",
"M1	c #636852",
"N1	c #606952",
"O1	c #5B6252",
"P1	c #333B3D",
"Q1	c #3E4640",
"R1	c #3D473E",
"S1	c #4F5B4B",
"T1	c #4D5B4C",
"U1	c #566554",
"V1	c #505F4E",
"W1	c #757D65",
"X1	c #686F58",
"Y1	c #56624E",
"Z1	c #676D57",
"`1	c #6D7158",
" 2	c #6D785D",
".2	c #454F45",
"+2	c #636E59",
"@2	c #788162",
"#2	c #6D6E55",
"$2	c #6A6E58",
"%2	c #686E58",
"&2	c #666853",
"*2	c #676652",
"=2	c #666551",
"-2	c #646655",
";2	c #5C6B56",
">2	c #394341",
",2	c #4B564F",
"'2	c #4D5A50",
")2	c #525E54",
"!2	c #4E5C51",
"~2	c #4E5D52",
"{2	c #4B584E",
"]2	c #47514B",
"^2	c #434C47",
"/2	c #819375",
"(2	c #7A8162",
"_2	c #747C5D",
":2	c #6E7A5C",
"<2	c #758365",
"[2	c #384241",
"}2	c #414A41",
"|2	c #475045",
"12	c #4D5449",
"22	c #545A4C",
"32	c #535C4D",
"42	c #525C4C",
"52	c #545F4D",
"62	c #58624D",
"72	c #5E5F4B",
"82	c #5D5C4B",
"92	c #595C4E",
"02	c #535A4C",
"a2	c #3A4241",
"b2	c #3E4741",
"c2	c #444F48",
"d2	c #49574C",
"e2	c #4A5C4C",
"f2	c #4C5D4B",
"g2	c #53614F",
"h2	c #5A6956",
"i2	c #607159",
"j2	c #333E3B",
"k2	c #6E755C",
"l2	c #616853",
"m2	c #6A6D56",
"n2	c #707C5F",
"o2	c #495447",
"p2	c #838F6F",
"q2	c #737158",
"r2	c #6C725A",
"s2	c #6B6C56",
"t2	c #686854",
"u2	c #696A57",
"v2	c #646853",
"w2	c #5A654E",
"x2	c #606E59",
"y2	c #4E5950",
"z2	c #505E53",
"A2	c #4A5A51",
"B2	c #4A5C53",
"C2	c #819270",
"D2	c #767D5F",
"E2	c #737A5B",
"F2	c #6D7A5B",
"G2	c #768665",
"H2	c #424C46",
"I2	c #434E44",
"J2	c #465045",
"K2	c #515D4D",
"L2	c #4F594C",
"M2	c #545A4A",
"N2	c #545848",
"O2	c #565849",
"P2	c #4F5549",
"Q2	c #3C4543",
"R2	c #3B4542",
"S2	c #47524A",
"T2	c #4A574E",
"U2	c #485D4D",
"V2	c #51614E",
"W2	c #5C6A57",
"X2	c #4B594D",
"Y2	c #6B735C",
"Z2	c #676E56",
"`2	c #6B7057",
" 3	c #6D735A",
".3	c #6F7B5F",
"+3	c #4B5B4D",
"@3	c #77755A",
"#3	c #70715A",
"$3	c #71745B",
"%3	c #70745A",
"&3	c #71755B",
"*3	c #6F715A",
"=3	c #575C49",
"-3	c #394131",
";3	c #606E57",
">3	c #3D4542",
",3	c #515D53",
"'3	c #485A52",
")3	c #47574F",
"!3	c #47554E",
"~3	c #444F47",
"{3	c #37413E",
"]3	c #829271",
"^3	c #74775A",
"/3	c #707A5B",
"(3	c #748563",
"_3	c #414C46",
":3	c #49534A",
"<3	c #454F47",
"[3	c #454F46",
"}3	c #4C5448",
"|3	c #37423E",
"13	c #49544B",
"23	c #465047",
"33	c #515F4E",
"43	c #5F6E56",
"53	c #5C6C55",
"63	c #37423C",
"73	c #6A7258",
"83	c #3A423E",
"93	c #586956",
"03	c #758161",
"a3	c #757A5E",
"b3	c #72755A",
"c3	c #70735A",
"d3	c #72755D",
"e3	c #71785F",
"f3	c #373E30",
"g3	c #3F4A3E",
"h3	c #3B4340",
"i3	c #4A564E",
"j3	c #46514A",
"k3	c #434F48",
"l3	c #434E48",
"m3	c #434D45",
"n3	c #3F4843",
"o3	c #3B4640",
"p3	c #829572",
"q3	c #777B5D",
"r3	c #747757",
"s3	c #717C5C",
"t3	c #738361",
"u3	c #3A433D",
"v3	c #3F4A41",
"w3	c #3A433F",
"x3	c #3D4741",
"y3	c #333C3C",
"z3	c #3E4941",
"A3	c #3D4740",
"B3	c #404B43",
"C3	c #424B44",
"D3	c #424B43",
"E3	c #3F4B43",
"F3	c #606C54",
"G3	c #737C62",
"H3	c #768167",
"I3	c #707F62",
"J3	c #55644D",
"K3	c #0A0D0D",
"L3	c #1F2628",
"M3	c #38413F",
"N3	c #3A4640",
"O3	c #839974",
"P3	c #777B5C",
"Q3	c #747859",
"R3	c #707D5D",
"S3	c #738362",
"T3	c #728368",
"U3	c #899C7C",
"V3	c #8C9B7E",
"W3	c #77866B",
"X3	c #323B3C",
"Y3	c #343E3E",
"Z3	c #3A4440",
"`3	c #5C6C5B",
" 4	c #6F816A",
".4	c #76896E",
"+4	c #6E7F66",
"@4	c #6C7E65",
"#4	c #738469",
"$4	c #77886A",
"%4	c #7A8B6D",
"&4	c #7E9072",
"*4	c #7E9272",
"=4	c #7C906F",
"-4	c #788B6C",
";4	c #738669",
">4	c #718467",
",4	c #788C6B",
"'4	c #76886B",
")4	c #738569",
"!4	c #748669",
"~4	c #6C7C63",
"{4	c #3C4742",
"]4	c #3E4944",
"^4	c #414D44",
"/4	c #424E45",
"(4	c #38423B",
"_4	c #090D0D",
":4	c #20271E",
"<4	c #4B5B45",
"[4	c #5D6F5B",
"}4	c #576956",
"|4	c #4A5B4C",
"14	c #425046",
"24	c #425047",
"34	c #3E4942",
"44	c #445042",
"54	c #404C44",
"64	c #80946F",
"74	c #75795B",
"84	c #74795C",
"94	c #6D7A5C",
"04	c #738262",
"a4	c #646C5C",
"b4	c #626A5D",
"c4	c #5A6154",
"d4	c #525A4C",
"e4	c #414A44",
"f4	c #2F3937",
"g4	c #97AD8A",
"h4	c #9AAC87",
"i4	c #93A480",
"j4	c #7D8B6B",
"k4	c #707B60",
"l4	c #6E775E",
"m4	c #6B755E",
"n4	c #69735E",
"o4	c #67715C",
"p4	c #676F5D",
"q4	c #646D5A",
"r4	c #646D5C",
"s4	c #646E5A",
"t4	c #69735D",
"u4	c #68715D",
"v4	c #68725C",
"w4	c #778367",
"x4	c #525A4E",
"y4	c #565F50",
"z4	c #585F53",
"A4	c #5A6355",
"B4	c #5C6657",
"C4	c #4B5545",
"D4	c #22271E",
"E4	c #38402F",
"F4	c #59654D",
"G4	c #7C896A",
"H4	c #788566",
"I4	c #6C7A5F",
"J4	c #657156",
"K4	c #859571",
"L4	c #717859",
"M4	c #6C7A5D",
"N4	c #758565",
"O4	c #454E45",
"P4	c #576154",
"Q4	c #60685C",
"R4	c #5E665B",
"S4	c #444D47",
"T4	c #445349",
"U4	c #82906F",
"V4	c #757F5F",
"W4	c #707B5E",
"X4	c #6F7B5D",
"Y4	c #6F765B",
"Z4	c #656B58",
"`4	c #626958",
" 5	c #616859",
".5	c #626858",
"+5	c #626758",
"@5	c #5C6458",
"#5	c #5B6356",
"$5	c #5D6557",
"%5	c #6F7B60",
"&5	c #565E51",
"*5	c #55584D",
"=5	c #4C4F43",
"-5	c #31332B",
"        . + @ # $ % & * = - ; > , ' ) ! ~ { ] ^ / ( _ : < [ } | 1 2 3 4 5 6 7 8 9 0 a b c d e f ~ g h i j k l l m n o p         ",
"    q r s t u v w x y z A B C D E F G H I J K L M N O P Q R S T U V W X Y Z 7 `  ...+.@.#.$.%.&.*.=.-.;.>.,.'.).!.~.{.].^./.    ",
"  (._.:.<.[.}.|.1.2.3.4.5.6.7.8.9.0.a.b.c.d.e.f.g.h.i.j.k.T l.m.n.o.p.q.r.s.t.u.v.w.x.y.z.A.B.C.D.E.F.G.H.I.J.K.L.M.N.O.P.Q.R.  ",
"  S.T.C U.V.W.X.Y.Z.`. +.+++@+#+$+%+&+*+=+-+;+>+,+'+)+!+~+{+]+^+/+Y.(+_+:+O.<+[+}+|+1+2+3+4+5+6+7+8+9+0+a+b+c+d+e+f+g+h+i+j+k+  ",
"l+m+n+o+p+q+r+s+t+u+`.v+w+x+y+z+A+B+C+D+E+F+G+H+I+J+K+L+M+N+O+P+Q+R+S+T+U+V+W+X+Y+Z+`+`+ @.@+@@@#@D+$@%@&@*@=@-@;@>@,@'@)@j+!@~@",
"{@]@^@/@(@_@:@<@[@}@Y.|@1@2@3@4@5@6@7@8@9@0@H+a@b@c@d@e@f@g@h@i@j@k@l@m@> n@_@o@p@q@r@s@t@u@v@w@x@P.y@z@A@B@C@D@E@F@G@H@I@J@K@L@",
"M@N@O@P@Q@R@S@T@U@V@_+W@X@Y@Z@`@ #.#+#D+@###$#%#&#*#=#-#;#>#,#'#)#!#~#{#!#]#g@^#/#(#_#:#<#t [#}#|#1#2#3#4#5#6#7#8#9#0#a#9#!@8#b#",
"c#d#e#f#g#h#i#j#k#l#m#n#o#p#q#r#q#s#t#u#v#w#x#y#z#A#B#C#!@D#E#F#G#H#I#J#K#L#M#N#/+O#P#Q#R#S#T#U#V#W#X#Y#Z#`# $ $.$+$@$#$$$%$&$*$",
"=$-$;$>$,$'$)$j#k#!$~${$]$^$/$($_$:$<$[$}$|$1$2$3$4$5$6$0#&@7$8$w#9$0$a$b$c$d$H#G#e$f$J+g$h$s.i$j$k$l$m$n$o$p$q$r$s$t$u$v$w$x$y$",
"z$A$B$C$D$E$F$G$H$I$J$K$L$M$++N$O$P$Q$R$S$T$U$V$W$++X$Y$Z$`$ %.%I.+%)+@%#%s#$%%%&%&%*%=%-%;%>%,%=%'%h#)%!%~%{%8 ]%^%~ /%(%_%:%<%",
"[%}%|%1%2%'$3%T@4%5%Q#6%7%8%9%0%a%b%c%d%e%4%f%g%h%i%j%k%l%D#.%m%n%o%o%p%q%r%s%t%u%v%w%x%Z y%z%A%q%B%7 d C%D%C%E%F%G%H%I%J%K%6#L%",
"M%N%O%P%Q%4%R%S%T%U%I.V%W%X%Y%Z%`%j# &.&+&@&#&$&%&&&_#*&=&-&;&>&,&'&)&!&~&{&]&{&^&/&(&_&:&<&y%[&#%}&d d+|&1&2&3&4&5&6&7&8&9&0&a&",
"b&#.c&..d&e&f&N%g&# h&i&j&k&l&m&n&o&p&q&p&r&s&t&u&2%v&w&D#x&y&z&A&B&C&D&E&F&G&H&I&J&K&L&M&N&O&!@P&Q&l R&S&T&U&V&W&X&Y&*.Z&`& *.*",
"+*@*#.#*x.$*%*&***=*-*{$;*>*,*'*)*!*~*{*]*^*/*;*^*(*) _*:*<*D@[*}*7@|*1*2*3*4*5*6*7*8*I.4*9*0*a*b*c*d*e*f*g*h*d*d F%i*D.j*k*l*m*",
"n*o*p*q*r*s*t*u*v*w*x*y*z*A*B*/%C*D*E*F*G*H*I*J*K*L*M*N*O*f$P*Q*b$b$c$R*S*T*U*V*W*X*Y*#%Z*`* =.=+=@=d*#*#=$=%=&=*===-=;=>=,='=)=",
"M%!=~={=~=]=~.&*^=/=(=_=:=4 <=[=H }=|=1=1=2=3=4=5=N*N*6=7=8=9=0=a=b=b=c=d=e=f=g=h=i=j=k=l=m=n=o=p=q=$.).r=s=t=u=v=w=x=y=z=A=B=C=",
"D=E=F=G=r=H=I=J=K=L=M=N=O=H P=Q=R=S=T=U=V=W=X=Y=Z=`= -.-+-@-1%#-$-%-&-*-=---;->-,-'-)-:.!-~-{-%$]-^-/-(-_-:-F=(-<-[-}-|-1-2-3-4-",
"5-6-).P=_-t*7-8-9-0-a-b-c-d-e-f-f-c$c$H#e$g-h-i-j-k-l-m-n-o-p-q-r-s-t-u-v-w-w-x-y-z-A-B-C-D-E-F-G-v.H-I-J-K-L-M-M-N-O-P-g$Q-R-S-",
"T-U-V-W-X-Y-Z-`- ;.;+;!@@;#;$;%;&;*;=;-;;;>;,;';);!;~;{;];^;/;(;_;:;|+ .<;[;O%};|;1;2;3;4;5;,*&$6;7;t#8;9;0;a;b;X=c;&#d;e;=&f;g;",
"h;i;j;k;T#l;m;n;;&o;p;q;r;s;t;u;v;w;x;y;z;A;B;C;D;E;F;G;H;I;J;(;K;L;5 e%y-M;N;O;P;Q;R;S;T;U;V;5#a+W;X;n%T*Y;Z;`;|* >.>+>@>#>$>%>",
"&>*>'==>->;>>>,>'>)>!>~>{>]>^>/>(>_>:>k#/><>p&[>}>|>1>,@2>3>4>5>j+6>7>8>9>P;0>a>b>c>d>e>f>g>h>i>j>k>l>m>n>o>p>q>r>s>t>u>v>w>x>y>",
"z>A>B>C>D>E>F>>>G>H>I>J><%K>L>M>N>O>r-5>S%P>Q>5>R>S>T>U>V>W>X>Y>Z>`>k% ,.,M;Q%Q%D&+,@,Y+#,$,%,&,*,=,-,;,>,o@-$s@/>-$Q+,,',),!,~,",
"{,],^,/,(,_,:,_,<,7>w$[,},|,..1,2,3,4,5,6,7,8,9,N>j#0,a,p;b,c,d,e,e,3,7 ..f,Z%g,h,i,i#j,k,l,m,n,o,p,q,8 r,s,t,u,` v,w,x,y,8%T$z,",
"A,Q@^,B,(,C,C@>>y&D,E,F,G,H,I,a J,3,K,L,M,N,O,P,Q,R,+&S,T,U,V,w.W,4 O>X,Y,Z,X,`,7-q*X  '.'+'@'#'$'%'|;Y,&'*'='Z+f&Y -'W ;'>'i@,'",
"'')'!'~'{'7;t#]'^'`>/'('_':'<'['J$F$}'.,|'1'2'3'4'5'6'7'T,8'9'|#0'a'b'O%c'd'e'<=<=*+f'g'h'i'@'j'k'l'm'n'o'p'q'r'f&s't'(+u'v'w'x'",
"y'x@z'A'B'C'D'E'F'e G'~>H'I'J'a K'L'P;M'N'3,O'P'Q'R'S'T'U'V'W'X'Y'Z'`' ) ).)u++)@)#)$)%)&)*)=)-);)u;>),)')))!)<'9%~)o.{)])^)/)()",
"_):)z'<)[)})|)1)@*2)3)4)5)6)r,7)8)a>>)M'9)D,0)_&a)b)c)d)e)p+f)g)=*h)|.i)j)k)g#l)m)n)Y@o)p)q)r)9&s)t)0>u)v)w)5'5'x)y)z)A)B)C)D)E)",
"F)G)z'H)I)J)k K)L)c&M)N)O)P)Q)Y,8)R)S)T)2+U)V)W)X)`%Y)1,Z)`)H# !.!+!+![&@!#!j $!%!&!&!3)*!=!-!;!>!,!Q%'!)!!!~!a%R,{!]!^!/!(!_!:!",
"<![!z'}!|!1!2!3!4!5!3)6!7![$8!]%a {%c'_&8!9!0!a!b!c!d!e!0#&@e;f!g!h!##>+N-O-N-+=i!j!k!l!m!n!o!p!q!r!y)S%s!5'a%t!u!v!w!T x!y!z!A!",
"B!C!D!E!F!G!H!c I!3 J!K!~;L!M!N!O!P!Q!x%R!S!d)T!5'U!&&>&8#,+V!H+W!X!Y!Z!`!E%Y!P= ~.~+~@~#~a@$~%~&~*~=~2 -~;~>~v',~'~)~!~~~{~]~^~",
"/~8@F-(~_~:~<~Q#[~Q)}~e$|~1~2~3~>&4~..8)5~6~{&T!7~8~]@9~N),=G+0~a~b~c~K%d~e~f~g~e h~i~.~X!^'j~k~[=l~m~n~o~p~q~r~s~t~u~v~w~x~y~z~",
"A~C#B~C~D~E~F~G~H~I~J~K$K~B$N>H-L~M~q-N~S!+,O~P~T)Q~R~S~T~U~V~W~X~Y~Z~`~)%2,!& {.{'&@.+{E%]'g$@{%${$#{${%{%{5#&{*{b$b$b$={-{;{M)",
"6 n%&$>{,{'{){*&e 3,W#!{~{{{a e ]=*=e~)&]{f,^{/{R,n&({_{:{<{[{}{|{1{2{3{4{5{6{7{8{9{0{a{b{c{d{%$'>e{f{g{h{i{j{k{l{m{n{o{p{q{{'r{",
"d~s{t{u{v{s=a K%x.w{w#x{y{f%z{E=r*#./-]{c>A{N'N'j#B{C{D{*{E{F{G{H{I{~%/-8 J{K{p*p*L{M{N{O{P{Q{R{S{3$}#T{y$8'e$U{V{W{t#X{L-m!Y{Z{",
"`{ ]k~,>.]+]O!K%;%C$@]#]$]%](;2)#*R)5,A{l&;'l&&]S>3;*]=]-]>+;]>]*&,]4&`>']L~)]R)w{f'!]u&p.~]-{{]]]`.^]n.h ~#/](]_]q%>=:]N-|=<][]",
"}]|]1]2]3]L;4]D,J,5]A%6]7]8]p#%,9]0]a]g*u)^&b]c]d]e]f]g]h]('-{I#/'i]j]k]l]l]m]J%n]o]@>p] ]&+q]4.r]s]t]u]_#v]w]x]y]z]A]B]C]M-<]D]",
"E]f&F]G]H]I]>.J]K]L]2>M]N]O]P]Q]R]S]T]T]S]U]V]W]X]9#_;Y]Z]`] ^.^+^@^#^$^%^&^O-K+*^]*=^-^;^>^,^'^)^!^~^{^`.L=]^^^d~H%/^(,E{(^:~_^",
":^[@<^[^}^|^1^2^3^4^5^6^7^8^9^0^a^#%b^#'c^d^e^f^g^h^i^j^k^l^m^n^o^p^q^J!r^8;s^c;b+t^z@u^v^w^x^y^z^f*s]A^_+R+B^C^D^E^F^G+G^_^H^I^",
"J^K^T,L^M^N^a'I~2)@.@.]{O^Q~,~P^Q^R^S^T^U^V^W^X^Y^Z^`^.# /./+/@/#/$/%/.-d$&/{'*/=/9~-/;/>/L#,/'/)/!/ >~/{/]/^///(/_/A]:/</[/}/|/",
"c>5,1/2/3/4/E'5/6/7/8/.]E%P#9/0/a/S+b/o{c/d/p=e/f/g/h/i/8]j/k/l/m/n/o/ =p/q/r/s/t/u/t#v/w/x/6!y/2'z/{^A/B/C/D/E/F/G/H/O-I/J/K/L/",
"&'M/N/O/`.).P/Q/R/S/T/D@+=U/{&V/W/X/( Y/Z/`/ (d-.(+(^]@(#($(%(&(*(=(-(;(>(I+r/,('()(!(E@~({(](1$x,L#^(d%/(C/7#&/((_(:(C][/<([(}(",
"g*|(1(2(1%3(1=D'4(5(6(7(8(9(0(z-a(b(7=c(d(e(f(g(h(i(j(k(l(m(n(o(p(q(4,r(d;s^s(t(u(S#v(w(x(y(K@z(A(B(C(9)D(<$6#E((^F(E'G([/H(I(J(",
"K('.1]L(x%M(N(O(P(Q(R(S(T(U(V(W(X(Y(H.e;Z(`( _j ._+_@_#_$_%_&_*_=_-_;_>_/ Q{,_'_3*)_!_t/~_{_]_^_/_(_T)d'%]__:_<_N([_F^}_|_1_2_3_",
"M/]{[^4_5_y&E~6_7_y&8_9_0_a_b_=,c_d_*{5=e_f_g_d-h_i_j_k_l_m_n_o_p_q_r_s_7$t_E-' 7(u_v_3*w_x_y_[#z_A_B_C_D_i+E_F_G_H_3(I_J_K_L_M_",
"M/..B#N_b]H/F@O_P_Q_q*R_S_T_U_m+V_~+w]P&W_X_C.Y_Z_`_j/@_ :.:+:@:#:$:%:&:%>s^*:*:=:2#-:;:>:,:`$':):!:~:f%X/P.I]{:]:^:{:/:(:_:::<:",
"[:T%}:|:1:I-2:x(G^3:4:Q'5:6:7:k&8:9:F#7$0:`/a:b:c:d:e:f:g:h:i:j:k:l:m:n:( o:p:4&q:r:s:t:u:v:w:x:y:z:A:B:C:D: =g$E:F:3:G:H:I:J:K:",
"P;!]L:M:u&n'J-9(N:O:P:Q:R:S:T:R U:Y(V:W:d(X:Y:P-< Z:`: <.<+<@<#<$<%<&<^,*<=<-<;<><,<'<)<!<~<{<]<^</<(<_<:<#)<<[<}<|<1<2<3<4<5<6<",
"7<8<X^9<0<I~a<b<c<d<e<f<g<h<i<j<k<l<T~m<n<E*o<$>p<q<r<s<t<Q,u<v<w<x<y<z<A<B<A!C<t D<E<S$F<F<G<H<g/I<J<A-K<L<q]L-M<N<O<P<Q<R<S<T<",
"U<.$V<W<X<;%Y<Z<`< [.[+[@[#[$[%[&[*[b/=[-[E*Z&;[>[,[e<'[)[5'q<![~[{[][^[;%/[_!;$([D<_[U$:[u;-~<[*[[[}[>'|[1[-!2[3[o*4[h*#=5[6[7[",
"+)q{F,8[s+_;9[0[a[b[c[d[c[e[f[g[h[i[p/j[k[l[J%j{r,< m[n[o[p[q[r[s[t[u[k~D#v[w[S>x[y[z[A[;-;-B[C[D[w{E[F[T>G[<^<_! H[Y&I[J[K[L[M[",
"N[O[P[Q[w (;R[S[T[U[V[W[X[@<Y[Z[`[N'q{e; }.}+}p;( Z=-{@}*{=!#}$}z:q{%}@{&}*}8~W L'=}-};}|[;->}k,,}'}U!S@)}!}~}D#{}]}^}/}#!(}_}{_",
":}<}g([}}}|}1}2}e<3}4}5}6}7}8}9}0}a}G#p!i]b};*n,D@c}d}3]e};%f}g}h}i}5 j}k}l}m}n}y{o}p}q}r};}s}t};,7~u}v}w}x}!@y}z}A}B}C}D}E}F}G}",
"H}I}J}K}&-L}M}.'N}O}P}Q}R}S}T}U}V}j/B>W}X}Y}Z}`}2% |<&9!)^.|j(+|}#@|#|$|%|&|1-*|=|@}I]#!c$-|;|D{>|,|'|)| $2,7=!|~|++{|]|^|;$/|1>",
"(|_|d$:|<|v][|])}|||1|2|3|4|5|6|7|5*z#&^E-c}['C&8|O>%=9|Q%0|C(a|.'b|c|d|.-e|f|g|h|i|h|N*(]j|k|l|m|n|o|p|q|r|s|t|u|v||'w|P~c'N;x|",
"(#y|a+z|A|B|C|D|E|F|G|H|I|J|K|L|M|N|O|O|P|h$Q|R|0_q-b{H>6 S|h#t'p+T|U|V|W|X|X|Y|Z|`|&% 1.1+1-{@1D[#1b]W p&$1h-%1&1*1=1&'-1;1>1<'",
",1'1)1!1~1{1]1^1/1(1_1:1<1[1}1|1$111217$W##%314151617181e%Q%9101a1s-C]b1N c1d1&%9;e1f1=^g1c}h-h1i1j1k1R>@&l1m1n1o1p1G$q1r1s1t1u1",
"X(v1w1x1y1z1A1B1l[_,C1D1E1F1G1H1I1~_A~,+x]J1+=_%b<4:K1b]L1M1N1K'O1E=F^J+P1Q1R1^*[<q%S1T1U1V1V<W1X1Y1d)Z1`1 2.2+2@2#2$2%2&2*2=2-2",
"l@;2>2,2'2)2!2~2{2]2^2S*/2(2_2:2<2h>[2&%}2|212223242w/5262W)72829202Q(a2h.m1b2c2d2e2f2g2h2i2j2u/k2l2}[m24;n2o24&p2q2K<r2s2t2u2v2",
"w2x2w#y2z2A2B2W_E>t_`|V<C2D2E2F2G2t#`=H2^*I2J2q#K2.}L2,*r{M2N2O2P2'*P(Q2e$R2,+S2T2U2V2X;i)W2g(X2Y2Z2`2 3e#.3s#+3: @3#3$3%3&3*3=3",
"-3;3>3,3'2'3)3!3U*~3o:{3]37]^3/3(3*/_3l{:3<3^*[3u_B'u_7;m%}3v(-/z1P(l[m<|31323K+]$33!/)>435363V15%a,734>L}R^839303a3b3c3d3%&e3f3",
"  g3h3D~i3j3k3l3l{m3n3o3p3q3r3s3t3.2) N[b2u3v32](]3)={w3i-w33)x3P&%>w3y3f-x]N[&%z3x3A3B3m%R(i w3m3' */C3D3G'`$E3b'F3G3H3G,I3J3  ",
"  K3L3P&M3/]b1/':1%>d;N3O3P3Q3R3S3w$-&Q_T3U3V3W3K[i!k~X3Y3Z3`3 4.4+4@4#4$4%4&4c=*4=4-4;4>4,4'4)4!4~4`!C#4){4]4{4x&J~^4/4K+(4_4  ",
"    :4<4[4}4|414243444546474849404%%={O!a4b4c4d4,=e4f4g4h4i4v>j4^_k4l4l@m4n4o4p4q4r4s4Y-t4u4Y-v4i+w48: !-)S#</x4y4z4A4B4C4D4    ",
"        E4F4~#G4H4I4J49~K474L4M4N4O4w3P4Q4R4&.E'S4w3T4U4V4W4X4< Y4B{Z4`4 5.5+5X+R%@5#5Y&$5B.Y&~ K=G;%5d$J}M(+{+]&5*5=5-5        "};
